file/cube/black.cube
LUT_3D_SIZE 6
0.000910 0.001249 0.000718
0.033585 0.033909 0.033372
0.124723 0.125047 0.124526
0.253734 0.254057 0.253567
0.408724 0.409049 0.408589
0.595429 0.595723 0.595322
0.037155 0.037479 0.036944
0.084250 0.084567 0.084040
0.161093 0.161425 0.160906
0.277167 0.277485 0.277003
0.431173 0.431519 0.431047
0.614626 0.614911 0.614531
0.131328 0.131655 0.131136
0.177932 0.178269 0.177752
0.236539 0.236860 0.236370
0.337184 0.337504 0.337016
0.481152 0.481481 0.481029
0.660927 0.661180 0.660844
0.269319 0.269639 0.269158
0.303029 0.303346 0.302868
0.336873 0.337204 0.336711
0.423916 0.424265 0.423799
0.558957 0.559293 0.558864
0.720024 0.720234 0.719942
0.381696 0.382028 0.381535
0.402351 0.402683 0.402208
0.462789 0.463130 0.462677
0.528410 0.528770 0.528315
0.633825 0.634083 0.633730
0.772974 0.773198 0.772961
0.503670 0.504031 0.503581
0.528104 0.528466 0.528014
0.575866 0.576187 0.575772
0.649240 0.649509 0.649156
0.739569 0.739789 0.739499
0.837841 0.838021 0.837828
0.035557 0.035877 0.035344
0.076414 0.076733 0.076207
0.156843 0.157172 0.156648
0.271177 0.271497 0.271016
0.431013 0.431372 0.430903
0.599521 0.599813 0.599427
0.083724 0.084040 0.083517
0.123126 0.123450 0.122933
0.192090 0.192420 0.191911
0.300832 0.301149 0.300674
0.445373 0.445708 0.445266
0.622404 0.622672 0.622311
0.177063 0.177401 0.176875
0.209599 0.209935 0.209434
0.261188 0.261510 0.261028
0.356360 0.356691 0.356197
0.492937 0.493291 0.492841
0.661862 0.662143 0.661791
0.289592 0.289906 0.289430
0.312481 0.312800 0.312320
0.355287 0.355608 0.355123
0.438895 0.439227 0.438769
0.565317 0.565643 0.565220
0.715875 0.716100 0.715814
0.400227 0.400562 0.400086
0.423356 0.423689 0.423234
0.470647 0.470997 0.470548
0.546224 0.546572 0.546134
0.639913 0.640177 0.639829
0.777564 0.777762 0.777528
0.509305 0.509667 0.509217
0.539053 0.539408 0.538963
0.586305 0.586612 0.586208
0.661368 0.661628 0.661290
0.749606 0.749799 0.749559
0.857279 0.857428 0.857266
0.114449 0.114763 0.114246
0.155314 0.155646 0.155126
0.217502 0.217832 0.217336
0.313349 0.313660 0.313179
0.459391 0.459745 0.459301
0.612911 0.613178 0.612810
0.157455 0.157790 0.157268
0.190365 0.190697 0.190188
0.245907 0.246235 0.245744
0.341628 0.341957 0.341466
0.475014 0.475362 0.474898
0.635255 0.635524 0.635160
0.221891 0.222212 0.221716
0.255073 0.255399 0.254920
0.300853 0.301167 0.300688
0.387825 0.388154 0.387687
0.516888 0.517257 0.516811
0.680319 0.680558 0.680244
0.322361 0.322682 0.322196
0.344303 0.344636 0.344139
0.384107 0.384434 0.383964
0.462969 0.463313 0.462862
0.581827 0.582139 0.581734
0.729451 0.729679 0.729386
0.418355 0.418704 0.418231
0.441187 0.441541 0.441075
0.481395 0.481760 0.481303
0.557211 0.557552 0.557119
0.657201 0.657473 0.657125
0.787927 0.788137 0.787893
0.519926 0.520293 0.519834
0.556518 0.556853 0.556421
0.607111 0.607394 0.607019
0.661668 0.661916 0.661584
0.762993 0.763200 0.762961
0.877229 0.877369 0.877211
0.210794 0.211119 0.210622
0.237560 0.237886 0.237401
0.297109 0.297424 0.296946
0.368479 0.368818 0.368337
0.497102 0.497466 0.497000
0.627084 0.627350 0.626979
0.238429 0.238761 0.238265
0.263799 0.264118 0.263640
0.310668 0.310983 0.310501
0.393886 0.394213 0.393753
0.511574 0.511942 0.511478
0.651479 0.651747 0.651388
0.277601 0.277917 0.277441
0.316223 0.316538 0.316053
0.357609 0.357937 0.357447
0.437146 0.437488 0.437031
0.550808 0.551151 0.550715
0.696406 0.696637 0.696330
0.365387 0.365723 0.365238
0.388206 0.388547 0.388072
0.427851 0.428209 0.427719
0.501749 0.502098 0.501644
0.612236 0.612517 0.612145
0.749323 0.749532 0.749292
0.446010 0.446350 0.445896
0.472308 0.472654 0.472204
0.515663 0.516030 0.515570
0.588019 0.588326 0.587921
0.682713 0.682960 0.682629
0.811608 0.811788 0.811585
0.542090 0.542440 0.541999
0.577648 0.577966 0.577554
0.635917 0.636173 0.635826
0.706143 0.706353 0.706078
0.789641 0.789818 0.789603
0.906658 0.906795 0.906642
0.266187 0.266508 0.266032
0.292541 0.292855 0.292378
0.334079 0.334400 0.333911
0.406927 0.407275 0.406811
0.520744 0.521109 0.520655
0.640385 0.640639 0.640283
0.325495 0.325812 0.325325
0.333198 0.333526 0.333036
0.377602 0.377940 0.377461
0.454748 0.455088 0.454638
0.554065 0.554403 0.553973
0.669860 0.670101 0.669769
0.336960 0.337283 0.336794
0.376751 0.377084 0.376601
0.417685 0.418023 0.417556
0.492439 0.492800 0.492355
0.593498 0.593793 0.593395
0.715849 0.716076 0.715785
0.412681 0.413022 0.412554
0.436162 0.436486 0.436034
0.480371 0.480724 0.480280
0.552286 0.552631 0.552193
0.648124 0.648391 0.648041
0.775750 0.775941 0.775711
0.486683 0.487014 0.486575
0.515796 0.516170 0.515718
0.559605 0.559943 0.559511
0.628309 0.628581 0.628210
0.715303 0.715537 0.715233
0.841776 0.841957 0.841759
0.574100 0.574421 0.574001
0.611739 0.612029 0.611652
0.669226 0.669485 0.669144
0.742139 0.742355 0.742086
0.822387 0.822545 0.822373
0.960021 0.960131 0.960009
0.304926 0.305245 0.304767
0.328162 0.328487 0.327996
0.369354 0.369690 0.369198
0.443259 0.443588 0.443127
0.549999 0.550338 0.549908
0.672843 0.673092 0.672762
0.329983 0.330313 0.329821
0.372222 0.372570 0.372081
0.476559 0.476905 0.476458
0.577452 0.577761 0.577358
0.597050 0.597342 0.596952
0.705087 0.705305 0.705020
0.385203 0.385539 0.385066
0.433064 0.433414 0.432944
0.483287 0.483666 0.483202
0.571569 0.571894 0.571474
0.636519 0.636780 0.636430
0.754933 0.755143 0.754880
0.461675 0.462003 0.461562
0.496373 0.496745 0.496279
0.540777 0.541132 0.540685
0.604221 0.604506 0.604125
0.688193 0.688444 0.688122
0.819008 0.819182 0.818992
0.520958 0.521328 0.520872
0.562987 0.563321 0.562894
0.612332 0.612620 0.612245
0.677537 0.677799 0.677464
0.766048 0.766258 0.765989
0.899275 0.899407 0.899258
0.611710 0.611993 0.611622
0.657220 0.657491 0.657131
0.723153 0.723387 0.723109
0.816925 0.817074 0.816898
0.901885 0.901985 0.901871
1.088909 1.088910 1.088908
