file/cube/black.cube
LUT_3D_SIZE 16
0.000910 0.001249 0.000718
0.002035 0.002373 0.002021
0.011625 0.011958 0.011411
0.033585 0.033909 0.033372
0.061033 0.061351 0.060825
0.091019 0.091335 0.090809
0.124723 0.125047 0.124526
0.162817 0.163153 0.162634
0.205715 0.206052 0.205542
0.253734 0.254057 0.253567
0.304562 0.304882 0.304396
0.354882 0.355203 0.354720
0.408724 0.409049 0.408589
0.465569 0.465923 0.465467
0.527470 0.527822 0.527371
0.595429 0.595723 0.595322
0.005088 0.005425 0.004873
0.007922 0.008257 0.007708
0.020445 0.020773 0.020229
0.041774 0.042096 0.041563
0.066959 0.067278 0.066750
0.096146 0.096465 0.095941
0.128829 0.129160 0.128637
0.165821 0.166155 0.165639
0.208150 0.208478 0.207975
0.254677 0.254997 0.254510
0.304241 0.304556 0.304071
0.359304 0.359622 0.359146
0.417045 0.417403 0.416944
0.475290 0.475670 0.475195
0.534731 0.535075 0.534627
0.598106 0.598396 0.598012
0.017985 0.018314 0.017770
0.024478 0.024804 0.024264
0.039681 0.040000 0.039468
0.060693 0.061012 0.060483
0.085174 0.085489 0.084962
0.111712 0.112031 0.111508
0.141960 0.142291 0.141768
0.177452 0.177792 0.177272
0.218557 0.218892 0.218386
0.263687 0.264006 0.263518
0.310656 0.310979 0.310492
0.363638 0.363996 0.363504
0.424284 0.424633 0.424177
0.484879 0.485238 0.484789
0.544213 0.544552 0.544115
0.606026 0.606311 0.605922
0.037155 0.037479 0.036944
0.048276 0.048597 0.048066
0.065533 0.065852 0.065320
0.084250 0.084567 0.084040
0.107157 0.107474 0.106959
0.132655 0.132984 0.132465
0.161093 0.161425 0.160906
0.194432 0.194757 0.194253
0.233655 0.233980 0.233489
0.277167 0.277485 0.277003
0.321883 0.322208 0.321716
0.372416 0.372767 0.372263
0.431173 0.431519 0.431047
0.489649 0.490027 0.489571
0.549975 0.550313 0.549881
0.614626 0.614911 0.614531
0.063391 0.063712 0.063181
0.077352 0.077667 0.077141
0.096445 0.096760 0.096233
0.114789 0.115109 0.114586
0.133285 0.133612 0.133094
0.156564 0.156899 0.156380
0.184075 0.184412 0.183891
0.215734 0.216065 0.215560
0.252284 0.252607 0.252122
0.293209 0.293531 0.293051
0.336419 0.336751 0.336261
0.385235 0.385566 0.385082
0.441192 0.441558 0.441083
0.498388 0.498754 0.498295
0.558958 0.559284 0.558862
0.626818 0.627099 0.626724
0.094920 0.095233 0.094713
0.111028 0.111344 0.110823
0.128695 0.129019 0.128497
0.146049 0.146382 0.145861
0.163443 0.163782 0.163260
0.182698 0.183040 0.182518
0.208387 0.208716 0.208207
0.239304 0.239624 0.239135
0.274268 0.274585 0.274105
0.312661 0.312972 0.312485
0.354714 0.355040 0.354553
0.402994 0.403306 0.402837
0.458098 0.458448 0.457994
0.515303 0.515669 0.515216
0.574564 0.574868 0.574460
0.640925 0.641211 0.640842
0.131328 0.131655 0.131136
0.148137 0.148469 0.147950
0.163689 0.164022 0.163504
0.177932 0.178269 0.177752
0.194692 0.195035 0.194519
0.213616 0.213946 0.213442
0.236539 0.236860 0.236370
0.265897 0.266217 0.265738
0.299993 0.300309 0.299828
0.337184 0.337504 0.337016
0.378423 0.378764 0.378278
0.426460 0.426782 0.426328
0.481152 0.481481 0.481029
0.538623 0.538972 0.538531
0.596471 0.596762 0.596372
0.660927 0.661180 0.660844
0.173403 0.173736 0.173216
0.189784 0.190120 0.189607
0.204880 0.205217 0.204709
0.214838 0.215177 0.214671
0.227808 0.228143 0.227645
0.246142 0.246463 0.245980
0.268931 0.269248 0.268771
0.295688 0.296006 0.295526
0.327692 0.328013 0.327528
0.364058 0.364396 0.363913
0.404789 0.405131 0.404657
0.451812 0.452164 0.451716
0.505178 0.505526 0.505080
0.561478 0.561806 0.561382
0.619111 0.619391 0.619027
0.681845 0.682086 0.681772
0.220759 0.221098 0.220591
0.236971 0.237302 0.236805
0.251247 0.251572 0.251083
0.260964 0.261286 0.260802
0.267576 0.267894 0.267414
0.280722 0.281038 0.280560
0.303078 0.303397 0.302918
0.329062 0.329391 0.328903
0.358142 0.358478 0.357989
0.392765 0.393106 0.392615
0.432990 0.433334 0.432852
0.479004 0.479353 0.478906
0.530441 0.530798 0.530360
0.584305 0.584607 0.584211
0.639986 0.640248 0.639901
0.702284 0.702505 0.702208
0.269319 0.269639 0.269158
0.284591 0.284908 0.284431
0.294835 0.295150 0.294674
0.303029 0.303346 0.302868
0.309151 0.309469 0.308987
0.317978 0.318301 0.317813
0.336873 0.337204 0.336711
0.361855 0.362198 0.361708
0.390037 0.390392 0.389919
0.423916 0.424265 0.423799
0.463654 0.464012 0.463554
0.508905 0.509271 0.508818
0.558957 0.559293 0.558864
0.610255 0.610543 0.610173
0.660512 0.660773 0.660420
0.720024 0.720234 0.719942
0.314059 0.314376 0.313891
0.329106 0.329425 0.328936
0.336315 0.336642 0.336151
0.339906 0.340236 0.339746
0.346469 0.346808 0.346317
0.355893 0.356241 0.355750
0.373870 0.374207 0.373722
0.395677 0.396013 0.395536
0.423475 0.423820 0.423360
0.457366 0.457693 0.457249
0.495986 0.496338 0.495885
0.539362 0.539708 0.539266
0.587029 0.587337 0.586928
0.635187 0.635451 0.635097
0.681508 0.681745 0.681427
0.738671 0.738921 0.738622
0.350465 0.350795 0.350291
0.361892 0.362233 0.361737
0.367091 0.367440 0.366946
0.371199 0.371556 0.371062
0.382792 0.383154 0.382666
0.399552 0.399900 0.399422
0.418131 0.418465 0.417997
0.438491 0.438819 0.438365
0.461361 0.461686 0.461233
0.493217 0.493560 0.493101
0.530108 0.530464 0.530015
0.569134 0.569448 0.569031
0.611758 0.612033 0.611657
0.656352 0.656609 0.656260
0.701136 0.701373 0.701068
0.756389 0.756613 0.756366
0.381696 0.382028 0.381535
0.391980 0.392311 0.391827
0.397814 0.398145 0.397666
0.402351 0.402683 0.402208
0.416829 0.417163 0.416697
0.439575 0.439917 0.439466
0.462789 0.463130 0.462677
0.483836 0.484181 0.483725
0.504769 0.505139 0.504680
0.528410 0.528770 0.528315
0.560877 0.561208 0.560779
0.596589 0.596879 0.596487
0.633825 0.634083 0.633730
0.675097 0.675345 0.675013
0.720193 0.720431 0.720149
0.772974 0.773198 0.772961
0.410435 0.410772 0.410306
0.420957 0.421286 0.420829
0.428993 0.429318 0.428866
0.437253 0.437580 0.437131
0.452102 0.452440 0.451995
0.475760 0.476120 0.475671
0.501829 0.502205 0.501734
0.528335 0.528697 0.528243
0.550421 0.550764 0.550326
0.571370 0.571690 0.571269
0.594319 0.594609 0.594216
0.625090 0.625382 0.625013
0.659322 0.659601 0.659249
0.696534 0.696768 0.696450
0.739586 0.739792 0.739535
0.790647 0.790838 0.790608
0.446490 0.446819 0.446366
0.456737 0.457071 0.456615
0.467274 0.467617 0.467159
0.478158 0.478503 0.478041
0.491832 0.492178 0.491719
0.511687 0.512050 0.511593
0.537631 0.537987 0.537541
0.564080 0.564411 0.563987
0.588977 0.589284 0.588876
0.613172 0.613462 0.613079
0.636323 0.636602 0.636241
0.666091 0.666352 0.666012
0.697230 0.697457 0.697162
0.727628 0.727837 0.727571
0.767474 0.767655 0.767417
0.811993 0.812156 0.811970
0.503670 0.504031 0.503581
0.513822 0.514184 0.513731
0.519471 0.519833 0.519381
0.528104 0.528466 0.528014
0.539620 0.539978 0.539530
0.556971 0.557314 0.556878
0.575866 0.576187 0.575772
0.595564 0.595860 0.595466
0.620338 0.620606 0.620240
0.649240 0.649509 0.649156
0.679896 0.680166 0.679828
0.709664 0.709903 0.709594
0.739569 0.739789 0.739499
0.770974 0.771193 0.770945
0.799267 0.799414 0.799236
0.837841 0.838021 0.837828
0.004690 0.005027 0.004475
0.006855 0.007192 0.006641
0.018718 0.019047 0.018504
0.041060 0.041379 0.040845
0.066324 0.066637 0.066110
0.095368 0.095683 0.095164
0.128347 0.128673 0.128157
0.164892 0.165228 0.164707
0.206288 0.206620 0.206106
0.252994 0.253315 0.252823
0.303283 0.303601 0.303117
0.357650 0.357969 0.357475
0.414571 0.414897 0.414410
0.473449 0.473777 0.473323
0.532705 0.533038 0.532601
0.593449 0.593727 0.593332
0.011759 0.012093 0.011546
0.014464 0.014796 0.014251
0.028164 0.028488 0.027950
0.049048 0.049365 0.048836
0.073012 0.073327 0.072800
0.100836 0.101151 0.100628
0.133047 0.133376 0.132856
0.169291 0.169627 0.169111
0.210622 0.210948 0.210452
0.256533 0.256849 0.256371
0.305228 0.305545 0.305059
0.357432 0.357778 0.357283
0.413223 0.413571 0.413083
0.471243 0.471580 0.471121
0.533373 0.533715 0.533281
0.599294 0.599582 0.599189
0.027601 0.027925 0.027387
0.033786 0.034108 0.033573
0.048522 0.048843 0.048313
0.068507 0.068823 0.068297
0.091593 0.091907 0.091383
0.117275 0.117598 0.117068
0.147214 0.147547 0.147023
0.182374 0.182713 0.182201
0.222901 0.223231 0.222733
0.267995 0.268312 0.267831
0.314665 0.314981 0.314493
0.365299 0.365641 0.365147
0.423360 0.423701 0.423236
0.482676 0.483038 0.482593
0.542625 0.542972 0.542540
0.606589 0.606865 0.606485
0.049270 0.049588 0.049059
0.058487 0.058807 0.058275
0.074995 0.075314 0.074784
0.092821 0.093138 0.092613
0.114544 0.114858 0.114336
0.139421 0.139751 0.139229
0.167536 0.167868 0.167353
0.200541 0.200866 0.200364
0.239363 0.239700 0.239209
0.282584 0.282908 0.282428
0.327096 0.327420 0.326929
0.375292 0.375635 0.375142
0.431266 0.431611 0.431147
0.488659 0.489034 0.488575
0.548092 0.548439 0.548000
0.613873 0.614155 0.613770
0.077200 0.077517 0.076989
0.087899 0.088212 0.087687
0.105591 0.105910 0.105384
0.122824 0.123150 0.122623
0.140016 0.140345 0.139823
0.162752 0.163086 0.162572
0.190149 0.190479 0.189979
0.221565 0.221908 0.221411
0.258038 0.258366 0.257885
0.298614 0.298927 0.298449
0.341791 0.342132 0.341637
0.388478 0.388826 0.388347
0.441809 0.442151 0.441704
0.497918 0.498295 0.497820
0.557062 0.557396 0.556962
0.625320 0.625600 0.625224
0.110078 0.110397 0.109876
0.121737 0.122060 0.121539
0.137632 0.137964 0.137440
0.153943 0.154281 0.153757
0.170336 0.170676 0.170153
0.189201 0.189540 0.189021
0.214883 0.215218 0.214717
0.245432 0.245755 0.245272
0.280235 0.280549 0.280072
0.318146 0.318466 0.317978
0.360188 0.360529 0.360034
0.406337 0.406657 0.406197
0.458806 0.459118 0.458677
0.514947 0.515309 0.514856
0.572892 0.573196 0.572791
0.639472 0.639726 0.639376
0.146678 0.147011 0.146489
0.158112 0.158447 0.157926
0.172525 0.172858 0.172343
0.186592 0.186924 0.186414
0.202311 0.202642 0.202136
0.220512 0.220842 0.220343
0.243331 0.243656 0.243167
0.272363 0.272682 0.272204
0.306076 0.306393 0.305912
0.342969 0.343296 0.342809
0.384152 0.384476 0.383998
0.430077 0.430391 0.429941
0.482464 0.482830 0.482378
0.539143 0.539496 0.539053
0.595765 0.596067 0.595676
0.659533 0.659780 0.659447
0.185119 0.185454 0.184940
0.195937 0.196271 0.195763
0.210117 0.210453 0.209951
0.221102 0.221438 0.220943
0.235015 0.235348 0.234858
0.252761 0.253085 0.252602
0.275455 0.275773 0.275296
0.302200 0.302514 0.302037
0.333794 0.334110 0.333626
0.369562 0.369883 0.369402
0.409971 0.410297 0.409837
0.455503 0.455849 0.455388
0.506868 0.507233 0.506776
0.562183 0.562513 0.562088
0.618303 0.618594 0.618224
0.680070 0.680322 0.679991
0.226887 0.227223 0.226730
0.237044 0.237372 0.236886
0.249492 0.249812 0.249335
0.260399 0.260718 0.260242
0.271257 0.271576 0.271100
0.286425 0.286744 0.286266
0.308789 0.309108 0.308628
0.334895 0.335224 0.334738
0.363784 0.364127 0.363647
0.397783 0.398129 0.397660
0.437507 0.437848 0.437385
0.482405 0.482758 0.482305
0.532035 0.532387 0.531945
0.584967 0.585271 0.584875
0.638722 0.638984 0.638624
0.699187 0.699412 0.699107
0.272665 0.272981 0.272505
0.282091 0.282402 0.281926
0.291378 0.291690 0.291211
0.300227 0.300539 0.300059
0.310554 0.310869 0.310386
0.322655 0.322975 0.322489
0.342241 0.342572 0.342083
0.367473 0.367817 0.367335
0.395463 0.395817 0.395358
0.428635 0.428988 0.428538
0.467890 0.468239 0.467793
0.511804 0.512160 0.511713
0.559756 0.560089 0.559659
0.609956 0.610244 0.609873
0.659201 0.659458 0.659106
0.717301 0.717516 0.717221
0.317773 0.318089 0.317604
0.327095 0.327410 0.326921
0.333624 0.333944 0.333455
0.338358 0.338683 0.338194
0.347267 0.347604 0.347116
0.359826 0.360178 0.359691
0.378594 0.378950 0.378463
0.400833 0.401182 0.400707
0.428569 0.428900 0.428452
0.461835 0.462177 0.461738
0.499955 0.500312 0.499858
0.541949 0.542293 0.541853
0.587455 0.587764 0.587360
0.634741 0.635001 0.634647
0.680650 0.680878 0.680563
0.736710 0.736937 0.736646
0.361251 0.361580 0.361095
0.372727 0.373074 0.372590
0.377340 0.377693 0.377211
0.379903 0.380258 0.379778
0.385869 0.386224 0.385748
0.399663 0.400012 0.399540
0.418805 0.419145 0.418680
0.440081 0.440416 0.439966
0.465015 0.465363 0.464918
0.497140 0.497509 0.497058
0.534005 0.534360 0.533913
0.571768 0.572084 0.571668
0.611460 0.611742 0.611359
0.655418 0.655675 0.655323
0.701652 0.701896 0.701595
0.756761 0.756976 0.756716
0.394019 0.394349 0.393883
0.405804 0.406136 0.405668
0.412611 0.412946 0.412480
0.416274 0.416609 0.416147
0.422648 0.422983 0.422526
0.438865 0.439205 0.438755
0.462611 0.462949 0.462501
0.484915 0.485261 0.484812
0.508684 0.509055 0.508603
0.534925 0.535281 0.534836
0.568004 0.568327 0.567900
0.601573 0.601858 0.601466
0.633206 0.633460 0.633102
0.673226 0.673477 0.673143
0.720640 0.720890 0.720627
0.775112 0.775330 0.775091
0.422546 0.422877 0.422420
0.433421 0.433744 0.433287
0.442709 0.443041 0.442590
0.449436 0.449775 0.449327
0.457480 0.457825 0.457381
0.476331 0.476687 0.476236
0.502662 0.503039 0.502570
0.530202 0.530564 0.530114
0.555400 0.555736 0.555305
0.579282 0.579594 0.579183
0.602434 0.602734 0.602341
0.630039 0.630332 0.629946
0.659389 0.659665 0.659309
0.695226 0.695467 0.695152
0.740374 0.740609 0.740320
0.792887 0.793075 0.792854
0.455460 0.455801 0.455349
0.464166 0.464508 0.464057
0.474228 0.474570 0.474119
0.484267 0.484612 0.484159
0.496621 0.496973 0.496517
0.516058 0.516421 0.515965
0.541477 0.541829 0.541387
0.567825 0.568148 0.567732
0.593829 0.594124 0.593729
0.618341 0.618621 0.618240
0.640121 0.640394 0.640033
0.667623 0.667886 0.667544
0.699007 0.699236 0.698930
0.730771 0.731002 0.730717
0.769343 0.769546 0.769299
0.816701 0.816868 0.816681
0.504768 0.505138 0.504677
0.515072 0.515444 0.514982
0.522188 0.522557 0.522098
0.530376 0.530740 0.530286
0.542423 0.542776 0.542328
0.560078 0.560412 0.559979
0.579083 0.579396 0.578983
0.599384 0.599675 0.599286
0.624706 0.624973 0.624617
0.653293 0.653575 0.653209
0.683689 0.683960 0.683608
0.712712 0.712944 0.712632
0.741679 0.741887 0.741605
0.773085 0.773303 0.773037
0.805019 0.805185 0.804991
0.845615 0.845784 0.845607
0.017720 0.018051 0.017506
0.020561 0.020889 0.020347
0.034939 0.035260 0.034728
0.056888 0.057209 0.056679
0.081174 0.081493 0.080968
0.108491 0.108811 0.108290
0.140420 0.140747 0.140226
0.176188 0.176523 0.176007
0.215737 0.216080 0.215577
0.259954 0.260285 0.259797
0.308775 0.309099 0.308614
0.363344 0.363673 0.363204
0.423909 0.424246 0.423781
0.484592 0.484944 0.484484
0.542825 0.543168 0.542728
0.598312 0.598604 0.598213
0.027406 0.027732 0.027193
0.031395 0.031718 0.031182
0.045744 0.046066 0.045535
0.066151 0.066473 0.065944
0.089289 0.089605 0.089082
0.115580 0.115900 0.115381
0.146417 0.146747 0.146230
0.182044 0.182371 0.181856
0.222033 0.222352 0.221852
0.265485 0.265801 0.265320
0.312787 0.313110 0.312625
0.364445 0.364785 0.364299
0.422578 0.422929 0.422459
0.482291 0.482655 0.482200
0.542581 0.542929 0.542493
0.604679 0.604966 0.604572
0.042887 0.043204 0.042675
0.050429 0.050749 0.050219
0.063645 0.063966 0.063434
0.082828 0.083144 0.082618
0.105205 0.105518 0.104998
0.129761 0.130086 0.129565
0.158846 0.159177 0.158658
0.193309 0.193637 0.193127
0.232977 0.233300 0.232808
0.276451 0.276770 0.276289
0.322511 0.322832 0.322348
0.372687 0.373029 0.372554
0.428469 0.428820 0.428354
0.486813 0.487179 0.486725
0.546586 0.546929 0.546496
0.610612 0.610892 0.610512
0.065935 0.066253 0.065724
0.075710 0.076030 0.075498
0.089790 0.090106 0.089579
0.106317 0.106630 0.106106
0.127042 0.127364 0.126837
0.150969 0.151304 0.150777
0.178284 0.178618 0.178097
0.210603 0.210922 0.210422
0.248669 0.248989 0.248506
0.290790 0.291105 0.290627
0.335010 0.335319 0.334840
0.383141 0.383472 0.383002
0.437206 0.437549 0.437079
0.494320 0.494682 0.494219
0.553489 0.553823 0.553390
0.617467 0.617745 0.617370
0.094796 0.095113 0.094584
0.105350 0.105670 0.105137
0.119936 0.120249 0.119731
0.135425 0.135750 0.135231
0.151463 0.151803 0.151278
0.173217 0.173561 0.173036
0.199931 0.200264 0.199752
0.230718 0.231038 0.230548
0.266632 0.266948 0.266469
0.306645 0.306969 0.306487
0.349702 0.350024 0.349546
0.396576 0.396903 0.396429
0.448541 0.448875 0.448419
0.504625 0.504981 0.504526
0.563235 0.563563 0.563137
0.628031 0.628304 0.627933
0.127551 0.127875 0.127347
0.138477 0.138806 0.138281
0.151093 0.151427 0.150905
0.165475 0.165813 0.165290
0.180876 0.181220 0.180701
0.198680 0.199023 0.198511
0.223486 0.223815 0.223311
0.253567 0.253893 0.253412
0.287890 0.288207 0.287729
0.325672 0.326005 0.325512
0.367392 0.367735 0.367249
0.413577 0.413909 0.413445
0.465033 0.465374 0.464943
0.521188 0.521555 0.521103
0.578282 0.578604 0.578192
0.641137 0.641405 0.641043
0.163044 0.163380 0.162854
0.173701 0.174037 0.173516
0.184421 0.184756 0.184241
0.197200 0.197533 0.197024
0.212065 0.212395 0.211894
0.229280 0.229610 0.229117
0.251169 0.251496 0.251013
0.279668 0.279985 0.279508
0.312792 0.313107 0.312625
0.349092 0.349423 0.348930
0.389376 0.389704 0.389232
0.434979 0.435305 0.434850
0.486709 0.487080 0.486635
0.543213 0.543563 0.543123
0.599340 0.599642 0.599251
0.658847 0.659114 0.658770
0.200515 0.200855 0.200352
0.210371 0.210715 0.210212
0.220940 0.221283 0.220783
0.231095 0.231437 0.230941
0.244470 0.244805 0.244316
0.261282 0.261606 0.261126
0.282908 0.283222 0.282747
0.309094 0.309411 0.308933
0.340199 0.340532 0.340046
0.375055 0.375388 0.374906
0.414498 0.414818 0.414356
0.459405 0.459748 0.459294
0.510519 0.510860 0.510415
0.565810 0.566132 0.565711
0.621227 0.621508 0.621145
0.678351 0.678617 0.678259
0.239691 0.240030 0.239542
0.248605 0.248940 0.248455
0.257993 0.258321 0.257841
0.268220 0.268542 0.268063
0.279030 0.279346 0.278868
0.293980 0.294293 0.293815
0.315353 0.315669 0.315187
0.340945 0.341275 0.340790
0.369617 0.369962 0.369483
0.402914 0.403261 0.402787
0.441652 0.441992 0.441523
0.486010 0.486361 0.485906
0.535423 0.535776 0.535329
0.588201 0.588502 0.588106
0.641152 0.641415 0.641059
0.697239 0.697470 0.697159
0.279698 0.280018 0.279541
0.287994 0.288310 0.287834
0.295506 0.295820 0.295343
0.304269 0.304580 0.304102
0.314625 0.314936 0.314455
0.328241 0.328554 0.328069
0.348206 0.348526 0.348040
0.373099 0.373436 0.372955
0.401060 0.401391 0.400921
0.433448 0.433778 0.433321
0.471674 0.472011 0.471561
0.515052 0.515404 0.514955
0.561976 0.562304 0.561877
0.610966 0.611247 0.610877
0.659871 0.660125 0.659777
0.715166 0.715385 0.715095
0.321294 0.321614 0.321132
0.329942 0.330260 0.329776
0.335834 0.336154 0.335669
0.341126 0.341448 0.340964
0.350574 0.350901 0.350417
0.364400 0.364734 0.364252
0.383761 0.384101 0.383623
0.406288 0.406623 0.406157
0.433986 0.434311 0.433863
0.466515 0.466872 0.466428
0.503564 0.503924 0.503470
0.545004 0.545347 0.544906
0.589200 0.589506 0.589108
0.634820 0.635078 0.634725
0.680502 0.680729 0.680416
0.734872 0.735081 0.734799
0.363956 0.364280 0.363797
0.374661 0.374993 0.374519
0.380280 0.380617 0.380147
0.383566 0.383906 0.383439
0.389598 0.389940 0.389478
0.403623 0.403965 0.403504
0.423526 0.423867 0.423408
0.445246 0.445589 0.445143
0.470502 0.470864 0.470421
0.502196 0.502572 0.502123
0.538117 0.538470 0.538025
0.574928 0.575243 0.574830
0.613000 0.613281 0.612900
0.655164 0.655421 0.655069
0.701401 0.701650 0.701340
0.755273 0.755481 0.755216
0.397841 0.398175 0.397712
0.409104 0.409438 0.408984
0.416831 0.417167 0.416717
0.420565 0.420902 0.420453
0.426804 0.427142 0.426693
0.443202 0.443544 0.443092
0.466775 0.467116 0.466670
0.489442 0.489792 0.489350
0.513750 0.514115 0.513664
0.541614 0.541964 0.541523
0.574548 0.574867 0.574449
0.607058 0.607340 0.606959
0.635959 0.636210 0.635855
0.672488 0.672739 0.672403
0.720337 0.720583 0.720302
0.776194 0.776399 0.776152
0.425260 0.425599 0.425140
0.435561 0.435908 0.435448
0.446028 0.446376 0.445920
0.453494 0.453842 0.453389
0.461971 0.462320 0.461867
0.480865 0.481230 0.480767
0.506288 0.506677 0.506215
0.533493 0.533853 0.533407
0.559176 0.559508 0.559081
0.584797 0.585101 0.584700
0.610336 0.610619 0.610248
0.637360 0.637636 0.637269
0.663553 0.663823 0.663476
0.694184 0.694430 0.694118
0.740079 0.740320 0.740026
0.795412 0.795587 0.795371
0.459889 0.460218 0.459774
0.468661 0.468992 0.468548
0.479881 0.480218 0.479769
0.489800 0.490144 0.489689
0.501945 0.502298 0.501840
0.520906 0.521268 0.520814
0.544942 0.545289 0.544852
0.570584 0.570904 0.570491
0.596532 0.596825 0.596434
0.621916 0.622189 0.621815
0.645595 0.645860 0.645496
0.672614 0.672861 0.672527
0.702534 0.702752 0.702464
0.732998 0.733221 0.732959
0.771385 0.771599 0.771352
0.819831 0.819998 0.819811
0.506956 0.507325 0.506870
0.516828 0.517199 0.516743
0.527060 0.527426 0.526973
0.535276 0.535637 0.535188
0.546613 0.546961 0.546520
0.563777 0.564106 0.563682
0.582953 0.583263 0.582857
0.603185 0.603478 0.603091
0.628763 0.629037 0.628676
0.657694 0.657977 0.657620
0.687721 0.687980 0.687653
0.716647 0.716855 0.716572
0.745280 0.745474 0.745216
0.776234 0.776448 0.776186
0.808305 0.808490 0.808283
0.851485 0.851631 0.851481
0.035557 0.035877 0.035344
0.040047 0.040367 0.039836
0.055452 0.055770 0.055239
0.076414 0.076733 0.076207
0.100180 0.100499 0.099973
0.126509 0.126835 0.126311
0.156843 0.157172 0.156648
0.190927 0.191258 0.190746
0.228987 0.229316 0.228822
0.271177 0.271497 0.271016
0.318184 0.318500 0.318016
0.371184 0.371505 0.371030
0.431013 0.431372 0.430903
0.490098 0.490469 0.489999
0.545205 0.545546 0.545107
0.599521 0.599813 0.599427
0.046313 0.046631 0.046105
0.051695 0.052011 0.051486
0.066584 0.066903 0.066374
0.086136 0.086454 0.085927
0.108357 0.108673 0.108150
0.133981 0.134308 0.133786
0.163401 0.163730 0.163210
0.197166 0.197486 0.196977
0.235434 0.235763 0.235275
0.276995 0.277322 0.276848
0.322391 0.322714 0.322230
0.372477 0.372815 0.372337
0.429631 0.430000 0.429530
0.487360 0.487731 0.487268
0.544363 0.544704 0.544267
0.606039 0.606331 0.605946
0.062964 0.063289 0.062757
0.070890 0.071211 0.070680
0.084547 0.084862 0.084336
0.102915 0.103231 0.102715
0.124258 0.124583 0.124056
0.148140 0.148471 0.147949
0.175637 0.175967 0.175455
0.208044 0.208363 0.207870
0.245921 0.246244 0.245764
0.287753 0.288073 0.287597
0.332329 0.332645 0.332164
0.381168 0.381504 0.381034
0.435705 0.436053 0.435598
0.492509 0.492884 0.492434
0.549952 0.550290 0.549862
0.612817 0.613112 0.612733
0.083724 0.084040 0.083517
0.094275 0.094591 0.094066
0.108629 0.108946 0.108425
0.123126 0.123450 0.122933
0.142466 0.142797 0.142274
0.165560 0.165892 0.165368
0.192090 0.192420 0.191911
0.223059 0.223387 0.222904
0.259907 0.260227 0.259751
0.300832 0.301149 0.300674
0.344325 0.344637 0.344159
0.392104 0.392426 0.391968
0.445373 0.445708 0.445266
0.501932 0.502285 0.501842
0.560772 0.561098 0.560673
0.622404 0.622672 0.622311
0.111757 0.112074 0.111551
0.122573 0.122897 0.122368
0.136821 0.137151 0.136632
0.150586 0.150918 0.150396
0.165954 0.166289 0.165766
0.186894 0.187232 0.186713
0.212664 0.212996 0.212488
0.242202 0.242541 0.242054
0.277034 0.277355 0.276877
0.316098 0.316419 0.315937
0.358634 0.358955 0.358471
0.405289 0.405614 0.405160
0.456794 0.457141 0.456703
0.512292 0.512645 0.512198
0.570664 0.570984 0.570567
0.632703 0.632964 0.632600
0.143358 0.143690 0.143167
0.154380 0.154716 0.154193
0.166796 0.167130 0.166609
0.179526 0.179858 0.179341
0.194064 0.194399 0.193890
0.211403 0.211740 0.211237
0.235180 0.235513 0.235018
0.264052 0.264381 0.263901
0.297351 0.297665 0.297188
0.334397 0.334723 0.334229
0.375619 0.375952 0.375467
0.421689 0.422024 0.421567
0.472879 0.473241 0.472798
0.528360 0.528720 0.528271
0.585256 0.585568 0.585161
0.645024 0.645295 0.644936
0.177063 0.177401 0.176875
0.187996 0.188333 0.187816
0.198200 0.198535 0.198030
0.209599 0.209935 0.209434
0.223540 0.223876 0.223378
0.240227 0.240558 0.240068
0.261188 0.261510 0.261028
0.288474 0.288787 0.288310
0.320696 0.321013 0.320530
0.356360 0.356691 0.356197
0.396119 0.396460 0.395987
0.441484 0.441832 0.441373
0.492937 0.493291 0.492841
0.548867 0.549209 0.548772
0.604873 0.605168 0.604779
0.661862 0.662143 0.661791
0.212828 0.213167 0.212669
0.222513 0.222855 0.222358
0.232689 0.233025 0.232533
0.241527 0.241857 0.241368
0.254265 0.254589 0.254106
0.270543 0.270861 0.270384
0.291270 0.291584 0.291109
0.316319 0.316640 0.316159
