file/cube/brighter.cube
LUT_3D_SIZE 16
0.068014 0.116704 0.109205
0.105641 0.117535 0.111403
0.154570 0.115659 0.113831
0.236415 0.103789 0.110270
0.353419 0.082315 0.097462
0.446105 0.067891 0.088837
0.515483 0.060657 0.084347
0.591339 0.053498 0.079893
0.666250 0.049469 0.077172
0.740186 0.048452 0.076455
0.815820 0.052538 0.078912
0.882337 0.057464 0.082552
0.930693 0.063172 0.087043
0.953795 0.064549 0.088802
0.976898 0.066612 0.090900
1.000000 0.072807 0.095033
0.071905 0.156863 0.112680
0.111581 0.156867 0.116017
0.154986 0.156486 0.115971
0.239156 0.146492 0.111730
0.361980 0.127533 0.102096
0.458454 0.118864 0.096516
0.537162 0.118331 0.095995
0.622725 0.119292 0.097060
0.702363 0.120310 0.095935
0.778641 0.121230 0.097100
0.845603 0.120664 0.096740
0.901874 0.120877 0.098712
0.930693 0.120611 0.100488
0.953795 0.121958 0.101913
0.976898 0.129277 0.105609
1.000000 0.142418 0.115132
0.068943 0.201698 0.112850
0.112875 0.205167 0.118272
0.165578 0.209927 0.121464
0.245927 0.209840 0.116049
0.392368 0.201234 0.117826
0.490104 0.201257 0.120208
0.574112 0.199580 0.119351
0.651990 0.193377 0.115011
0.726360 0.187898 0.111339
0.797727 0.184432 0.109132
0.864134 0.185905 0.110712
0.907591 0.191565 0.115341
0.930693 0.198295 0.120481
0.953795 0.203638 0.124712
0.976898 0.211010 0.129876
1.000000 0.222343 0.137267
0.056104 0.276653 0.104389
0.106628 0.286695 0.114062
0.163729 0.291637 0.119315
0.245998 0.288758 0.116271
0.355662 0.276008 0.098026
0.447842 0.270204 0.096183
0.545016 0.271918 0.103846
0.635916 0.272119 0.108044
0.724304 0.277909 0.114509
0.804220 0.282781 0.117817
0.872378 0.288151 0.120736
0.907591 0.294317 0.124347
0.930693 0.298712 0.126502
0.953795 0.301272 0.127872
0.976898 0.306359 0.129814
1.000000 0.316845 0.133115
0.025793 0.364979 0.076337
0.063626 0.370949 0.080925
0.111565 0.374760 0.086741
0.196717 0.370152 0.088438
0.316620 0.359290 0.079076
0.391304 0.363594 0.073247
0.464912 0.368056 0.066349
0.543961 0.369877 0.060401
0.625180 0.369489 0.056684
0.708144 0.366999 0.055753
0.792666 0.364131 0.058577
0.875344 0.365716 0.067603
0.929185 0.371451 0.080280
0.953795 0.378071 0.092693
0.976898 0.384229 0.102044
1.000000 0.391442 0.109577
0.006441 0.438297 0.057092
0.052520 0.448091 0.070506
0.107161 0.456392 0.083396
0.200328 0.453693 0.089563
0.329225 0.440150 0.081868
0.408606 0.439806 0.078200
0.475289 0.442713 0.070522
0.542924 0.444718 0.061048
0.615020 0.444720 0.052611
0.688200 0.443768 0.045236
0.762350 0.442096 0.039101
0.837973 0.439645 0.035039
0.909043 0.437741 0.034575
0.953795 0.435294 0.036664
0.976898 0.436024 0.040369
1.000000 0.441905 0.043921
0.010444 0.522289 0.060511
0.053084 0.531963 0.070502
0.103840 0.538502 0.080109
0.195300 0.532272 0.085230
0.324858 0.515490 0.076310
0.407115 0.511888 0.071921
0.483178 0.509945 0.065105
0.547192 0.511741 0.055281
0.609698 0.513522 0.044333
0.676558 0.513875 0.033958
0.745617 0.513148 0.024646
0.814895 0.512045 0.016241
0.882966 0.510891 0.009638
0.946604 0.510057 0.006077
0.976898 0.510820 0.005595
1.000000 0.516589 0.008106
0.004487 0.599775 0.054193
0.044886 0.607767 0.061436
0.092424 0.613029 0.069455
0.181762 0.605898 0.074806
0.313346 0.587271 0.065180
0.395494 0.582733 0.059432
0.479263 0.577591 0.052637
0.552606 0.575365 0.044712
0.614692 0.576331 0.034631
0.674150 0.578234 0.023843
0.736456 0.578740 0.013609
0.801365 0.578362 0.004626
0.866895 0.577447 0.000094
0.929058 0.577037 0.000000
0.976138 0.579319 0.000000
1.000000 0.585306 0.000000
0.000000 0.672827 0.041753
0.030732 0.680287 0.046785
0.076798 0.685140 0.053109
0.162519 0.677860 0.059611
0.297244 0.657269 0.051392
0.380150 0.651831 0.045424
0.466695 0.644881 0.038637
0.547394 0.639706 0.032126
0.617628 0.637314 0.024849
0.678039 0.637897 0.016218
0.734928 0.639609 0.006921
0.793296 0.640346 0.000000
0.854445 0.640128 0.000000
0.915587 0.639697 0.000000
0.965043 0.642012 0.000000
0.999536 0.648149 0.000000
0.000000 0.744102 0.024826
0.023102 0.750812 0.029153
0.059853 0.754618 0.035349
0.144059 0.746855 0.044314
0.280473 0.724841 0.038850
0.364474 0.718207 0.033438
0.452585 0.710338 0.027205
0.536213 0.703369 0.021492
0.612627 0.698474 0.016032
0.679390 0.696434 0.009904
0.737773 0.696559 0.002557
0.792528 0.697892 0.000000
0.848276 0.698718 0.000000
0.905938 0.698789 0.000000
0.953485 0.701345 0.000000
0.987158 0.707203 0.000000
0.000000 0.812682 0.008097
0.023102 0.818232 0.013145
0.049878 0.820992 0.020042
0.129363 0.812291 0.031156
0.265055 0.789513 0.028855
0.350211 0.781898 0.024161
0.438883 0.773112 0.018330
0.523071 0.765450 0.013123
0.602890 0.758985 0.008478
0.674297 0.754545 0.003670
0.737843 0.752661 0.000000
0.794506 0.752705 0.000000
0.847835 0.753678 0.000000
0.901289 0.754677 0.000000
0.946222 0.757488 0.000000
0.978998 0.763257 0.000000
0.000000 0.877704 0.000000
0.023102 0.882494 0.001499
0.046829 0.884200 0.007684
0.117636 0.874572 0.020102
0.251117 0.851582 0.020727
0.337048 0.843042 0.016725
0.425987 0.833697 0.011385
0.510313 0.825465 0.006625
0.590791 0.818206 0.002534
0.665532 0.812352 0.000021
0.733289 0.808564 0.000000
0.794093 0.806842 0.000000
0.849300 0.806714 0.000000
0.900848 0.807670 0.000000
0.943358 0.810970 0.000000
0.975187 0.816634 0.000000
0.000000 0.930123 0.000000
0.023102 0.930693 0.000000
0.046205 0.930693 0.000431
0.107425 0.928137 0.010509
0.237837 0.911550 0.013586
0.325042 0.902187 0.010930
0.413987 0.892260 0.006395
0.498236 0.883636 0.002634
0.578850 0.875912 0.000052
0.654901 0.869320 0.000000
0.725639 0.864198 0.000000
0.789823 0.860940 0.000000
0.848450 0.859355 0.000000
0.901781 0.859518 0.000000
0.943666 0.862629 0.000000
0.975227 0.868314 0.000000
0.000000 0.953795 0.000000
0.023102 0.953795 0.000000
0.046205 0.953795 0.000000
0.096926 0.953795 0.002782
0.225998 0.953795 0.008019
0.313836 0.952307 0.007217
0.402801 0.948811 0.004261
0.486911 0.940299 0.001811
0.567015 0.932321 0.000421
0.642972 0.925556 0.000029
0.714879 0.919833 0.000000
0.781779 0.915610 0.000000
0.843534 0.912989 0.000000
0.900516 0.911932 0.000000
0.944450 0.914912 0.000000
0.976783 0.920998 0.001784
0.000000 0.976898 0.000000
0.023102 0.976898 0.000000
0.046205 0.976898 0.000000
0.101609 0.976898 0.004494
0.226931 0.976898 0.012584
0.318174 0.976898 0.013691
0.406907 0.976898 0.011953
0.490280 0.976898 0.010356
0.569334 0.976397 0.009041
0.644238 0.975409 0.007993
0.715745 0.971601 0.007438
0.783449 0.967559 0.006960
0.847084 0.964916 0.006195
0.905877 0.964000 0.004995
0.950711 0.966679 0.005519
0.982776 0.971933 0.009014
0.000000 1.000000 0.000000
0.023102 1.000000 0.000100
0.047197 1.000000 0.007753
0.132026 1.000000 0.024374
0.245720 1.000000 0.031061
0.343298 1.000000 0.031278
0.431114 1.000000 0.029097
0.513453 1.000000 0.027017
0.591661 1.000000 0.025452
0.665642 1.000000 0.024038
0.736274 1.000000 0.022907
0.803061 1.000000 0.021682
0.864716 1.000000 0.019847
0.919742 1.000000 0.017708
0.961895 1.000000 0.016290
0.991743 1.000000 0.017468
0.066193 0.118203 0.140680
0.106236 0.118524 0.143874
0.156545 0.115806 0.148121
0.236970 0.104453 0.142984
0.353902 0.082940 0.129828
0.446866 0.068757 0.121226
0.516502 0.061797 0.116868
0.593120 0.055366 0.112824
0.668769 0.051863 0.110571
0.744475 0.052317 0.110632
0.819758 0.056360 0.112978
0.885398 0.061060 0.116490
0.930693 0.066110 0.120631
0.953795 0.066322 0.121769
0.976898 0.068399 0.123788
1.000000 0.074659 0.127904
0.069048 0.158880 0.141685
0.110857 0.158037 0.145758
0.157774 0.157052 0.148186
0.241400 0.146734 0.145398
0.363502 0.128926 0.134410
0.460269 0.121045 0.129468
0.540473 0.121479 0.129390
0.626123 0.122781 0.129987
0.705866 0.123012 0.129943
0.781082 0.123272 0.130150
0.847210 0.121958 0.129934
0.902650 0.122208 0.131323
0.930693 0.122719 0.132683
0.953795 0.124756 0.134914
0.976898 0.132552 0.140693
1.000000 0.145866 0.149798
0.067326 0.204543 0.143015
0.114301 0.208128 0.150472
0.168908 0.212790 0.156130
0.254288 0.212861 0.152940
0.397810 0.203650 0.152602
0.491221 0.202626 0.152942
0.574618 0.199713 0.151064
0.652354 0.193189 0.146567
0.726837 0.188062 0.143077
0.799105 0.185672 0.141548
0.865511 0.187933 0.143722
0.907591 0.194583 0.149161
0.930693 0.200994 0.154221
0.953795 0.206118 0.158436
0.976898 0.213038 0.163614
1.000000 0.223697 0.170588
0.056987 0.282129 0.137569
0.107014 0.291133 0.146706
0.166283 0.295010 0.153530
0.248708 0.290778 0.150158
0.362284 0.276775 0.132300
0.456640 0.274231 0.134455
0.551417 0.274271 0.139395
0.643177 0.277146 0.144848
0.729882 0.282761 0.149994
0.807672 0.286797 0.151879
0.874454 0.291977 0.154502
0.907591 0.297577 0.157702
0.930693 0.301366 0.159659
0.953795 0.303715 0.160798
0.976898 0.308666 0.162312
1.000000 0.319068 0.165717
0.023745 0.368471 0.107190
0.061920 0.374653 0.111797
0.110947 0.378308 0.118267
0.199879 0.373842 0.121925
0.322052 0.362937 0.112975
0.395485 0.367581 0.107670
0.470826 0.371421 0.101006
0.550868 0.372307 0.095408
0.633593 0.371027 0.092198
0.718782 0.367659 0.092467
0.805724 0.366040 0.097884
0.886114 0.369855 0.109056
0.930693 0.376732 0.121951
0.953795 0.383016 0.133019
0.976898 0.387973 0.140603
1.000000 0.394632 0.147073
0.007761 0.442762 0.091500
0.053433 0.453126 0.103890
0.108773 0.461421 0.116515
0.204509 0.457381 0.123402
0.334333 0.443154 0.115775
0.412737 0.442864 0.112290
0.479377 0.445291 0.104234
0.547725 0.446873 0.095021
0.620270 0.446517 0.086276
0.694257 0.445315 0.078860
0.769735 0.443240 0.073145
0.845920 0.440258 0.069940
0.915426 0.438329 0.070601
0.953795 0.436085 0.074035
0.976898 0.437369 0.078762
1.000000 0.443551 0.082632
0.010566 0.526929 0.093737
0.052818 0.536586 0.102781
0.103701 0.542654 0.112045
0.197515 0.535407 0.117862
0.327968 0.518175 0.109576
0.409716 0.514563 0.105270
0.486547 0.512391 0.098655
0.550494 0.513855 0.088760
0.613628 0.515542 0.077322
0.681274 0.515591 0.067184
0.750455 0.514685 0.057945
0.820278 0.513238 0.049853
0.888253 0.512044 0.043906
0.949893 0.510876 0.041233
0.976898 0.511277 0.041323
1.000000 0.517033 0.043944
0.003597 0.603823 0.086755
0.043749 0.611797 0.093451
0.091232 0.617084 0.100925
0.182635 0.608995 0.107015
0.315313 0.589914 0.098749
0.397421 0.585296 0.093008
0.481828 0.579855 0.085869
0.555475 0.577401 0.077920
0.617828 0.578466 0.068008
0.677317 0.579948 0.057231
0.740202 0.580434 0.047303
0.805342 0.579743 0.038508
0.870797 0.578649 0.030838
0.932860 0.578434 0.025191
0.976592 0.580443 0.024114
1.000000 0.586315 0.025536
0.000000 0.676795 0.073384
0.028985 0.684225 0.077991
0.075028 0.688865 0.084234
0.162593 0.680965 0.091876
0.298560 0.659893 0.084686
0.381758 0.654084 0.078870
0.468896 0.647123 0.072237
0.549906 0.641576 0.065805
0.620269 0.639150 0.058729
0.680893 0.639748 0.050292
0.737536 0.641166 0.040853
0.796291 0.641843 0.031936
0.857740 0.641577 0.024614
0.918571 0.641010 0.023132
0.968133 0.643343 0.023102
0.999749 0.649156 0.023102
0.000000 0.747920 0.056342
0.023102 0.754554 0.060557
0.058012 0.758239 0.066578
0.143938 0.749779 0.076472
0.281642 0.727143 0.072507
0.366152 0.720304 0.067299
0.454511 0.712194 0.061158
0.538399 0.705182 0.055526
0.615044 0.700167 0.050088
0.681681 0.697926 0.044004
0.740077 0.698162 0.036676
0.794882 0.699424 0.028616
0.850820 0.700068 0.023379
0.908553 0.700160 0.023102
0.956007 0.702547 0.023102
0.989674 0.708266 0.023102
0.000000 0.816019 0.040058
0.023102 0.821741 0.044979
0.049505 0.824253 0.051739
0.129403 0.814919 0.063339
0.266151 0.791677 0.062716
0.351876 0.783754 0.058207
0.440870 0.774886 0.052534
0.525130 0.766996 0.047342
0.604808 0.760412 0.042565
0.676638 0.756095 0.037981
0.740116 0.754088 0.032819
0.796681 0.754107 0.026679
0.850019 0.755089 0.023323
0.903241 0.755990 0.023102
0.948286 0.758819 0.023102
0.980943 0.764503 0.023102
0.000000 0.880998 0.026794
0.023102 0.885463 0.032206
0.046589 0.887258 0.039591
0.117743 0.877023 0.052486
0.251907 0.853632 0.054507
0.338901 0.844736 0.050960
0.427928 0.835232 0.045616
0.512050 0.826866 0.040865
0.592505 0.819637 0.036818
0.667673 0.813697 0.033508
0.735535 0.809869 0.030304
0.796273 0.808100 0.026844
0.851249 0.808018 0.023867
0.902602 0.809077 0.023186
0.945068 0.812287 0.023142
0.976918 0.817994 0.023522
0.000000 0.930693 0.023102
0.023102 0.930693 0.023715
0.046205 0.930693 0.029221
0.107516 0.929019 0.042978
0.238604 0.913545 0.047464
0.326817 0.903638 0.045165
0.416050 0.893665 0.040896
0.500354 0.884911 0.037180
0.580650 0.877102 0.034200
0.657068 0.870486 0.032415
0.727793 0.865346 0.031166
0.791983 0.862082 0.030015
0.850518 0.860538 0.028320
0.903460 0.860702 0.025725
0.945278 0.863944 0.025571
0.976831 0.869699 0.029956
0.000000 0.953795 0.023102
0.023102 0.953795 0.023102
0.046205 0.953795 0.023466
0.097094 0.953795 0.034170
0.226847 0.953795 0.041839
0.316091 0.952676 0.041793
0.405290 0.949772 0.039059
0.489138 0.941476 0.036593
0.569351 0.933577 0.035211
0.645157 0.926709 0.034269
0.716956 0.921045 0.033866
0.783812 0.916818 0.033524
0.845633 0.914157 0.032545
0.902546 0.913352 0.030801
0.946232 0.916287 0.031287
0.978591 0.922387 0.035866
0.000000 0.976898 0.023102
0.023102 0.976898 0.023102
0.046205 0.976898 0.023873
0.102254 0.976898 0.037308
0.227981 0.976898 0.046568
0.320308 0.976898 0.048004
0.409339 0.976898 0.046537
0.492744 0.976898 0.044829
0.571635 0.976548 0.043373
0.646368 0.975667 0.042335
0.717829 0.972969 0.041606
0.785700 0.968958 0.041014
0.849417 0.966413 0.040228
0.907863 0.965483 0.038933
0.952395 0.968063 0.039283
0.984364 0.973131 0.042450
0.000000 1.000000 0.023398
0.023102 1.000000 0.029969
0.047153 1.000000 0.040471
0.133157 1.000000 0.057379
0.246699 1.000000 0.064609
0.345475 1.000000 0.065420
0.433335 1.000000 0.063305
0.515588 1.000000 0.061153
0.593809 1.000000 0.059398
0.667899 1.000000 0.057863
0.738335 1.000000 0.056637
0.804952 1.000000 0.055181
0.866320 1.000000 0.053156
0.920981 1.000000 0.050761
0.962883 1.000000 0.049123
0.992552 1.000000 0.050122
0.063168 0.119004 0.181445
0.104750 0.119211 0.184397
0.155920 0.115960 0.188404
0.236831 0.104582 0.182307
0.353597 0.083259 0.168221
0.447442 0.069276 0.159245
0.517189 0.062718 0.154981
0.594706 0.057042 0.151288
0.670974 0.054127 0.149311
0.748197 0.055971 0.150218
0.822935 0.059866 0.152504
0.888122 0.064464 0.156117
0.930693 0.068153 0.159436
0.953795 0.067863 0.160265
0.976898 0.069548 0.162087
1.000000 0.076275 0.166638
0.065898 0.159749 0.180442
0.106985 0.159631 0.183794
0.158322 0.157494 0.187789
0.242245 0.147638 0.185560
0.365220 0.130517 0.173922
0.462388 0.123206 0.169010
0.544051 0.124531 0.169740
0.628656 0.124965 0.169836
0.708364 0.124949 0.169944
0.782369 0.124021 0.169474
0.848023 0.122547 0.168988
0.903044 0.122817 0.170235
0.930693 0.124056 0.172047
0.953795 0.126855 0.174890
0.976898 0.135439 0.181404
1.000000 0.148268 0.190731
0.066899 0.206596 0.180104
0.112443 0.211928 0.187524
0.171269 0.215937 0.196984
0.262462 0.214889 0.199031
0.399134 0.203455 0.192291
0.489512 0.201313 0.190843
0.572023 0.196872 0.187748
0.650482 0.191248 0.183721
0.725628 0.186786 0.180680
0.799074 0.185520 0.179920
0.866109 0.188891 0.183190
0.907591 0.195800 0.189242
0.930693 0.201799 0.194398
0.953795 0.206716 0.198931
0.976898 0.212895 0.204140
1.000000 0.222824 0.211736
0.058407 0.286427 0.178131
0.105513 0.295207 0.186336
0.165188 0.298475 0.193574
0.250893 0.291982 0.191471
0.372235 0.277810 0.175892
0.465249 0.276736 0.178917
0.558569 0.276830 0.182317
0.650319 0.282135 0.188588
0.733371 0.285746 0.190748
0.809567 0.288994 0.191595
0.875295 0.293566 0.193725
0.907591 0.298751 0.196421
0.930693 0.302251 0.198137
0.953795 0.304182 0.198689
0.976898 0.308988 0.200059
1.000000 0.319093 0.204150
0.021652 0.371325 0.144334
0.059026 0.378083 0.147978
0.108287 0.382626 0.154326
0.202375 0.377264 0.160576
0.327397 0.366094 0.152391
0.400460 0.370965 0.147419
0.477613 0.373736 0.140629
0.559851 0.373568 0.135658
0.645934 0.370762 0.134166
0.734079 0.367685 0.137429
0.823859 0.369944 0.147311
0.898292 0.376273 0.159806
0.930693 0.383411 0.171561
0.953795 0.387465 0.178960
0.976898 0.390674 0.184016
1.000000 0.397014 0.189711
0.007842 0.447011 0.130741
0.053087 0.458325 0.142130
0.107759 0.466635 0.153728
0.206951 0.460886 0.161997
0.338702 0.445734 0.155074
0.416261 0.445131 0.151425
0.483417 0.447299 0.143080
0.552767 0.448365 0.133856
0.626581 0.447513 0.125582
0.702152 0.445743 0.118899
0.779588 0.442695 0.114289
0.856707 0.439306 0.112684
0.923273 0.437730 0.115669
0.953795 0.436960 0.121332
0.976898 0.440028 0.127922
1.000000 0.446610 0.132400
0.009572 0.531370 0.131849
0.051039 0.540955 0.139782
0.101045 0.547132 0.147986
0.197586 0.538716 0.154906
0.330374 0.520541 0.148097
0.412072 0.516800 0.143946
0.489521 0.514168 0.137392
0.553812 0.515610 0.127795
0.617701 0.516936 0.116586
0.686194 0.516546 0.106253
0.756434 0.515247 0.097334
0.827020 0.513548 0.089705
0.895225 0.511927 0.085029
0.951702 0.510205 0.083798
0.976898 0.510031 0.085009
1.000000 0.515474 0.088206
0.001584 0.607681 0.124298
0.041187 0.615782 0.129934
0.087978 0.621080 0.136533
0.181186 0.612451 0.143578
0.316725 0.592137 0.137375
0.399071 0.587300 0.131919
0.484142 0.581558 0.125277
0.558387 0.578922 0.117602
0.620535 0.579747 0.107414
0.680618 0.581268 0.096710
0.744193 0.581272 0.086862
0.810071 0.580299 0.078422
0.875762 0.579239 0.071243
0.937585 0.578745 0.066051
0.976898 0.580300 0.064653
1.000000 0.586087 0.067216
0.000000 0.680573 0.110840
0.025804 0.687978 0.114966
0.071309 0.692789 0.120387
0.160229 0.684282 0.128812
0.299536 0.661833 0.124342
0.382957 0.655990 0.118575
0.470511 0.648681 0.111863
0.552303 0.642946 0.105696
0.622976 0.640395 0.098687
0.683199 0.640846 0.090162
0.740121 0.642288 0.080778
0.799582 0.642743 0.072045
0.861504 0.642064 0.064093
0.922228 0.641515 0.057531
0.971910 0.643678 0.055284
0.999962 0.649433 0.057868
0.000000 0.751480 0.093633
0.023102 0.758188 0.097511
0.054551 0.761912 0.102995
0.141604 0.752782 0.113491
0.282288 0.729013 0.112160
0.367385 0.721870 0.107160
0.455961 0.713688 0.101156
0.540173 0.706460 0.095536
0.617230 0.701242 0.090149
0.684191 0.698964 0.084239
0.742346 0.699082 0.076915
0.797113 0.700237 0.068793
0.853346 0.700842 0.060600
0.911342 0.700704 0.053133
0.958985 0.703038 0.050569
0.992764 0.708858 0.053657
0.000000 0.819455 0.077770
0.023102 0.824988 0.082303
0.048480 0.827632 0.088455
0.127225 0.817793 0.100535
0.266374 0.793392 0.102327
0.353149 0.785119 0.098323
0.442128 0.776094 0.092566
0.526543 0.768250 0.087502
0.606610 0.761565 0.082894
0.678817 0.756944 0.078335
0.742313 0.754820 0.073226
0.798723 0.754902 0.067154
0.851884 0.755840 0.060220
0.905380 0.756659 0.053144
0.950442 0.759423 0.050909
0.983227 0.765072 0.054915
0.000000 0.883866 0.064752
0.023102 0.888545 0.070085
0.046206 0.890384 0.076777
0.115424 0.879583 0.089597
0.251803 0.855331 0.094023
0.340025 0.845849 0.091088
0.429077 0.836314 0.085817
0.513665 0.827963 0.081237
0.594069 0.820599 0.077211
0.669483 0.814610 0.073946
0.737475 0.810611 0.070834
0.798225 0.808749 0.067407
0.853085 0.808764 0.063245
0.904162 0.809818 0.058131
0.946722 0.812980 0.057069
0.978540 0.818631 0.061828
0.000000 0.930693 0.053819
0.023102 0.930693 0.059398
0.046205 0.930693 0.066432
0.105327 0.929423 0.080109
0.238146 0.915147 0.086791
0.327930 0.904671 0.085338
0.417338 0.894572 0.081254
0.501864 0.885724 0.077551
0.582295 0.878032 0.074804
0.658682 0.871298 0.072933
0.729630 0.866063 0.071731
0.794016 0.862779 0.070631
0.852417 0.861204 0.068840
0.905169 0.861503 0.065910
0.946868 0.864783 0.065493
0.978398 0.870527 0.070017
0.000000 0.953795 0.047875
0.023102 0.953795 0.050020
0.046205 0.953795 0.056707
0.095052 0.953795 0.071503
0.226464 0.953795 0.081164
0.317376 0.952894 0.081855
0.407127 0.950120 0.079563
0.491055 0.942110 0.077149
0.570916 0.934202 0.075494
0.646932 0.927417 0.074579
0.718739 0.921769 0.074021
0.785599 0.917498 0.073516
0.847652 0.914901 0.072519
0.904349 0.914182 0.070676
0.948066 0.917255 0.071128
0.980446 0.923510 0.075597
0.000000 0.976898 0.047695
0.023102 0.976898 0.049918
0.046205 0.976898 0.058583
0.100827 0.976898 0.074867
0.227761 0.976898 0.085724
0.321786 0.976898 0.087890
0.411414 0.976898 0.086780
0.494545 0.976898 0.084912
0.573444 0.976641 0.083312
0.647959 0.975768 0.082043
0.719408 0.973893 0.081211
0.787466 0.969994 0.080598
0.851370 0.967308 0.079638
0.909680 0.966397 0.078298
0.953995 0.968740 0.078393
0.985730 0.973653 0.081504
0.000000 1.000000 0.059595
0.023102 1.000000 0.068334
0.046612 1.000000 0.078456
0.131636 1.000000 0.094841
0.246185 1.000000 0.103109
0.346670 1.000000 0.104615
0.435190 1.000000 0.103091
0.517695 1.000000 0.100833
0.595685 1.000000 0.098873
0.669592 1.000000 0.097250
0.739847 1.000000 0.095765
0.806189 1.000000 0.094013
0.867733 1.000000 0.091918
0.922030 1.000000 0.089196
0.963718 1.000000 0.087359
0.993208 1.000000 0.088148
0.056082 0.116500 0.260148
0.099181 0.116960 0.262749
0.152167 0.113575 0.263545
0.233663 0.102226 0.254683
0.349773 0.081852 0.236606
0.446167 0.067414 0.224402
0.515847 0.062031 0.220043
0.594009 0.057165 0.216264
0.671270 0.055185 0.214676
0.749806 0.058133 0.217057
0.823635 0.061030 0.219567
0.888816 0.065518 0.223851
0.930693 0.067785 0.226350
0.953795 0.067234 0.226570
0.976898 0.068799 0.228582
1.000000 0.076005 0.235148
0.054518 0.157933 0.258415
0.097348 0.158227 0.261967
0.152831 0.155928 0.264665
0.240309 0.146522 0.260182
0.363564 0.130547 0.245727
0.463046 0.123978 0.239945
0.544613 0.125942 0.241876
0.628021 0.125252 0.241411
0.707616 0.125232 0.241836
0.780204 0.122897 0.240120
0.846387 0.121271 0.239308
0.902232 0.121613 0.240586
0.930693 0.123372 0.243174
0.953795 0.127229 0.247970
0.976898 0.135450 0.257791
1.000000 0.147189 0.273011
0.053650 0.207088 0.252408
0.101052 0.213432 0.262501
0.163015 0.218325 0.273770
0.263266 0.214667 0.279922
0.395269 0.200375 0.267029
0.483986 0.196541 0.263638
0.565580 0.191284 0.259212
0.644795 0.186235 0.255179
0.720842 0.182543 0.252572
0.795250 0.182053 0.253446
0.863086 0.186029 0.259482
0.907591 0.192498 0.268679
0.930693 0.197826 0.277398
0.953795 0.201918 0.284833
0.976898 0.207152 0.293641
1.000000 0.215889 0.305974
0.055383 0.287844 0.244313
0.101487 0.295769 0.254877
0.157803 0.299697 0.263750
0.250240 0.290546 0.267427
0.380087 0.274072 0.253945
0.468006 0.271544 0.253324
0.557512 0.272295 0.254527
0.643300 0.274041 0.256133
0.724056 0.276539 0.257938
0.799258 0.278874 0.259695
0.866007 0.282612 0.263163
0.907482 0.286725 0.267433
0.930693 0.289308 0.270513
0.953795 0.290568 0.272082
0.976898 0.294242 0.274941
1.000000 0.302204 0.281913
0.021919 0.370695 0.209476
0.057629 0.378380 0.213062
0.102948 0.385379 0.218502
0.196675 0.380799 0.223664
0.331464 0.367155 0.218545
0.406473 0.371207 0.212709
0.490144 0.371472 0.206948
0.581322 0.370041 0.208172
0.674989 0.370161 0.216191
0.768127 0.376092 0.229448
0.852399 0.381098 0.239644
0.907591 0.385006 0.247059
0.930693 0.386798 0.251466
0.953795 0.386264 0.253031
0.976898 0.387059 0.256866
1.000000 0.391421 0.266201
0.007806 0.449207 0.195736
0.051388 0.460943 0.207723
0.101650 0.470415 0.218451
0.198685 0.465056 0.224366
0.339888 0.446245 0.221432
0.418662 0.445116 0.217163
0.487287 0.446891 0.206777
0.560621 0.446689 0.196740
0.639107 0.444194 0.189773
0.720571 0.440133 0.186678
0.804293 0.436997 0.188253
0.881747 0.436791 0.194175
0.929760 0.440640 0.203589
0.953795 0.446079 0.213786
0.976898 0.452288 0.222327
1.000000 0.459541 0.230021
0.007039 0.533453 0.195585
0.047095 0.543256 0.203383
0.093329 0.550347 0.210360
0.186182 0.543148 0.214381
0.330344 0.520920 0.212566
0.412582 0.516886 0.207869
0.491810 0.513836 0.200781
0.556326 0.515102 0.189903
0.623098 0.515472 0.178809
0.694363 0.514093 0.169450
0.767468 0.511782 0.162031
0.841778 0.508518 0.157260
0.911526 0.505871 0.156975
0.953795 0.502597 0.159917
0.976898 0.502235 0.164612
1.000000 0.507836 0.170586
0.000160 0.609656 0.186429
0.035497 0.617978 0.191658
0.079863 0.624162 0.196845
0.167824 0.617261 0.200902
0.315774 0.592552 0.200184
0.398888 0.587450 0.195002
0.484767 0.581354 0.188245
0.560332 0.578125 0.180886
