file/cube/brighter.cube
LUT_3D_SIZE 6
0.068014 0.116704 0.109205
0.236415 0.103789 0.110270
0.515483 0.060657 0.084347
0.740186 0.048452 0.076455
0.930693 0.063172 0.087043
1.000000 0.072807 0.095033
0.056104 0.276653 0.104389
0.245998 0.288758 0.116271
0.545016 0.271918 0.103846
0.804220 0.282781 0.117817
0.930693 0.298712 0.126502
1.000000 0.316845 0.133115
0.010444 0.522289 0.060511
0.195300 0.532272 0.085230
0.483178 0.509945 0.065105
0.676558 0.513875 0.033958
0.882966 0.510891 0.009638
1.000000 0.516589 0.008106
0.000000 0.744102 0.024826
0.144059 0.746855 0.044314
0.452585 0.710338 0.027205
0.679390 0.696434 0.009904
0.848276 0.698718 0.000000
0.987158 0.707203 0.000000
0.000000 0.930123 0.000000
0.107425 0.928137 0.010509
0.413987 0.892260 0.006395
0.654901 0.869320 0.000000
0.848450 0.859355 0.000000
0.975227 0.868314 0.000000
0.000000 1.000000 0.000000
0.132026 1.000000 0.024374
0.431114 1.000000 0.029097
0.665642 1.000000 0.024038
0.864716 1.000000 0.019847
0.991743 1.000000 0.017468
0.056082 0.116500 0.260148
0.233663 0.102226 0.254683
0.515847 0.062031 0.220043
0.749806 0.058133 0.217057
0.930693 0.067785 0.226350
1.000000 0.076005 0.235148
0.055383 0.287844 0.244313
0.250240 0.290546 0.267427
0.557512 0.272295 0.254527
0.799258 0.278874 0.259695
0.930693 0.289308 0.270513
1.000000 0.302204 0.281913
0.007039 0.533453 0.195585
0.186182 0.543148 0.214381
0.491810 0.513836 0.200781
0.694363 0.514093 0.169450
0.911526 0.505871 0.156975
1.000000 0.507836 0.170586
0.000000 0.753457 0.156295
0.128527 0.757027 0.170975
0.455493 0.713180 0.165807
0.685560 0.697554 0.149640
0.856640 0.698886 0.125681
0.997700 0.705856 0.120180
0.000000 0.930693 0.118690
0.092867 0.930008 0.138970
0.416717 0.893654 0.146324
0.658277 0.870223 0.137529
0.853758 0.859687 0.132880
0.979649 0.869087 0.133275
0.000000 1.000000 0.131161
0.116728 1.000000 0.158674
0.433983 1.000000 0.169789
0.669097 1.000000 0.163179
0.867888 1.000000 0.156505
0.993414 1.000000 0.151203
0.038914 0.101497 0.563325
0.217230 0.089957 0.547393
0.505501 0.054137 0.510865
0.744338 0.055426 0.513918
0.930301 0.059259 0.517291
1.000000 0.070849 0.530510
0.009038 0.278451 0.541650
0.221935 0.281332 0.566068
0.544097 0.261673 0.546813
0.784135 0.265267 0.547013
0.930693 0.273078 0.552419
1.000000 0.284783 0.561639
0.000000 0.525180 0.442968
0.150915 0.537710 0.472293
0.489982 0.504524 0.493822
0.740961 0.497428 0.488328
0.930693 0.493029 0.484549
1.000000 0.496555 0.489307
0.000000 0.743123 0.442214
0.114907 0.750109 0.458802
0.432791 0.709918 0.438933
0.684285 0.686779 0.429321
0.873731 0.683515 0.392222
1.000000 0.683451 0.399154
0.000000 0.927300 0.408736
0.079295 0.928951 0.412345
0.384298 0.894580 0.393449
0.650861 0.861866 0.401004
0.853183 0.849704 0.390986
0.981485 0.859646 0.382719
0.000000 1.000000 0.410981
0.094421 1.000000 0.415566
0.398175 1.000000 0.406014
0.661657 1.000000 0.420553
0.861360 0.999582 0.407256
0.989747 0.994896 0.394783
0.029561 0.093929 0.788866
0.206524 0.083242 0.772806
0.503625 0.053252 0.738115
0.744861 0.056905 0.742593
0.928785 0.055299 0.743234
1.000000 0.073658 0.765520
0.008217 0.279070 0.782841
0.214361 0.279159 0.796430
0.544449 0.264700 0.779107
0.782525 0.265336 0.778028
0.930693 0.270611 0.785603
1.000000 0.280602 0.798523
0.000000 0.518628 0.655427
0.091914 0.526113 0.685616
0.472988 0.498502 0.735281
0.728797 0.485395 0.725982
0.927984 0.478295 0.723404
1.000000 0.482528 0.731242
0.000000 0.738140 0.626512
0.078091 0.742304 0.646329
0.402109 0.703309 0.662516
0.682412 0.678753 0.681166
0.899478 0.669021 0.672343
1.000000 0.673433 0.677868
0.000000 0.926454 0.616915
0.078189 0.926649 0.636299
0.373844 0.888429 0.644122
0.633980 0.859346 0.634046
0.851247 0.841911 0.631518
0.986684 0.850488 0.621080
0.000000 1.000000 0.635699
0.103016 1.000000 0.654036
0.380437 1.000000 0.648128
0.637843 1.000000 0.637629
0.852804 0.991854 0.636192
0.984234 0.982360 0.621280
0.023323 0.089129 0.930693
0.200281 0.080695 0.930693
0.508621 0.058744 0.928238
0.744964 0.057660 0.928282
0.928546 0.055291 0.928658
1.000000 0.079199 0.930693
0.007950 0.279515 0.930693
0.213705 0.283123 0.930693
0.546854 0.270069 0.930693
0.783566 0.267692 0.930693
0.930693 0.270850 0.930693
1.000000 0.279183 0.930693
0.000000 0.523471 0.860548
0.081473 0.530935 0.897038
0.463687 0.494615 0.929638
0.727209 0.483448 0.926858
0.927305 0.475679 0.926472
1.000000 0.479761 0.929120
0.000000 0.730095 0.811163
0.069307 0.729865 0.831409
0.337169 0.682621 0.853053
0.668328 0.671272 0.896773
0.891180 0.661539 0.884595
1.000000 0.664763 0.886943
0.000000 0.922614 0.779051
0.069307 0.919630 0.795483
0.329255 0.876068 0.806533
0.609081 0.852514 0.827669
0.850945 0.836350 0.845563
0.999986 0.840899 0.851639
0.000000 1.000000 0.790356
0.083468 1.000000 0.809559
0.377014 1.000000 0.828923
0.630463 1.000000 0.843657
0.838442 0.986779 0.833770
0.979359 0.971331 0.824596
0.020299 0.087452 1.000000
0.200846 0.083321 1.000000
0.515850 0.066190 1.000000
0.747472 0.060086 1.000000
0.930284 0.061590 1.000000
1.000000 0.087418 1.000000
0.008450 0.282964 1.000000
0.219251 0.291755 1.000000
0.550896 0.277793 1.000000
0.787363 0.272388 1.000000
0.930693 0.274035 1.000000
1.000000 0.280500 1.000000
0.000000 0.530088 1.000000
0.080993 0.536466 1.000000
0.463654 0.497150 1.000000
0.729691 0.484936 1.000000
0.927972 0.476900 1.000000
1.000000 0.480628 1.000000
0.000000 0.732919 0.968760
0.069307 0.732242 0.990947
0.326915 0.685470 1.000000
0.662139 0.668404 1.000000
0.890837 0.662146 1.000000
1.000000 0.665524 1.000000
0.000000 0.917424 0.917707
0.069307 0.911170 0.931560
0.288711 0.862477 0.938126
0.566687 0.835864 0.960818
0.847847 0.834541 0.997829
0.999979 0.840630 0.999471
0.000000 1.000000 0.915106
0.073388 1.000000 0.930876
0.339880 1.000000 0.942337
0.594798 0.999723 0.954812
0.822704 0.981216 0.968906
0.977201 0.964987 0.971998
