file/cube/cosmo.cube
LUT_3D_SIZE 6
0.000000 0.055742 0.056084
0.168118 0.064382 0.077427
0.435409 0.053339 0.108194
0.685061 0.044658 0.136862
0.868195 0.044174 0.163258
1.000000 0.036117 0.191271
0.027495 0.222939 0.081305
0.215256 0.218003 0.087840
0.469128 0.199222 0.113753
0.701281 0.193664 0.138002
0.890890 0.204780 0.169981
1.000000 0.212449 0.214144
0.005467 0.411393 0.043581
0.197744 0.428115 0.058676
0.473125 0.427094 0.083965
0.708492 0.443621 0.119809
0.898077 0.464855 0.159889
1.000000 0.463608 0.208642
0.011992 0.683062 0.028447
0.228150 0.689418 0.050239
0.505769 0.671525 0.063146
0.722920 0.664038 0.085417
0.888372 0.664877 0.104254
1.000000 0.649915 0.134240
0.058584 0.874547 0.061438
0.258708 0.863423 0.065091
0.518362 0.834096 0.055554
0.725924 0.817804 0.053415
0.893042 0.811163 0.061256
1.000000 0.795687 0.081059
0.033392 1.000000 0.022023
0.209770 1.000000 0.016687
0.459830 0.995803 0.010976
0.685446 0.972525 0.011085
0.866042 0.962801 0.027721
1.000000 0.950592 0.064394
0.000041 0.053199 0.214198
0.168435 0.067424 0.224309
0.426593 0.059225 0.255047
0.668693 0.050224 0.282860
0.853300 0.046265 0.309388
1.000000 0.038321 0.341826
0.018470 0.219635 0.231004
0.205619 0.218480 0.239479
0.456351 0.203147 0.262553
0.696774 0.197412 0.290947
0.889560 0.209575 0.328945
1.000000 0.217780 0.380311
0.000000 0.408996 0.212578
0.194036 0.433579 0.215408
0.470219 0.432504 0.241053
0.708507 0.445808 0.283028
0.896870 0.465405 0.322331
1.000000 0.463167 0.362076
0.005421 0.686564 0.192890
0.220514 0.690609 0.210035
0.493423 0.670947 0.220735
0.711677 0.661921 0.240887
0.877312 0.662504 0.260741
1.000000 0.645017 0.299043
0.046452 0.873416 0.224071
0.244811 0.861921 0.223940
0.500856 0.832578 0.213300
0.711340 0.815386 0.209368
0.879733 0.808434 0.217701
1.000000 0.792952 0.237657
0.020447 1.000000 0.181782
0.195641 1.000000 0.176681
0.441562 0.994199 0.170473
0.668702 0.970964 0.168383
0.853536 0.961213 0.183495
1.000000 0.950657 0.220454
0.000000 0.049480 0.414612
0.186811 0.063465 0.433947
0.421877 0.062495 0.459495
0.660103 0.050390 0.491954
0.844601 0.045728 0.520835
1.000000 0.041757 0.557753
0.014163 0.205360 0.460651
0.216861 0.209868 0.465263
0.444884 0.207263 0.472791
0.687913 0.202325 0.510978
0.882071 0.215965 0.561085
1.000000 0.227409 0.617020
0.000000 0.394377 0.419868
0.173528 0.424196 0.445464
0.462846 0.438145 0.468688
0.698980 0.450135 0.506833
0.886288 0.467417 0.544712
1.000000 0.464410 0.581388
0.000000 0.648449 0.453761
0.178063 0.669506 0.465201
0.469945 0.670219 0.456656
0.689440 0.658858 0.468621
0.859278 0.656705 0.495088
1.000000 0.639930 0.518433
0.000000 0.844136 0.490329
0.198002 0.852005 0.480880
0.469109 0.830368 0.448484
0.683145 0.811565 0.437597
0.854810 0.804043 0.446110
1.000000 0.788620 0.465653
0.000000 1.000000 0.448292
0.165237 1.000000 0.415810
0.417013 0.992556 0.383875
0.645545 0.969212 0.378463
0.834831 0.959691 0.395428
1.000000 0.951339 0.434279
0.004056 0.048972 0.619569
0.208312 0.060029 0.642397
0.437051 0.062070 0.655757
0.657167 0.052164 0.677786
0.838187 0.049823 0.704970
1.000000 0.047336 0.745977
0.022109 0.198009 0.665675
0.228521 0.203540 0.670502
0.464447 0.206628 0.673133
0.689588 0.209173 0.708849
0.880456 0.226099 0.759165
1.000000 0.238901 0.817226
0.000000 0.394996 0.599103
0.157178 0.416965 0.637709
0.490607 0.437461 0.677931
0.701759 0.459147 0.698505
0.880783 0.475087 0.730432
1.000000 0.471317 0.767740
0.000000 0.634019 0.627619
0.151400 0.643420 0.634238
0.443363 0.657770 0.645643
0.680674 0.659821 0.659345
0.843684 0.658724 0.676313
1.000000 0.640459 0.701695
0.000000 0.824033 0.670776
0.159678 0.821445 0.661975
0.429392 0.817280 0.650311
0.664819 0.810827 0.636930
0.837204 0.802408 0.643055
1.000000 0.785915 0.662736
0.000000 0.995088 0.651059
0.121743 0.998374 0.635031
0.388819 0.990349 0.604526
0.627154 0.967894 0.592813
0.819747 0.959140 0.606105
1.000000 0.953403 0.637542
0.015588 0.049114 0.821035
0.227668 0.057604 0.843458
0.459955 0.057827 0.844041
0.659691 0.051797 0.857925
0.836574 0.053129 0.887820
1.000000 0.054242 0.912211
0.031178 0.195611 0.859159
0.240139 0.200470 0.865157
0.492506 0.203947 0.865066
0.698309 0.214638 0.898532
0.883486 0.236012 0.912211
1.000000 0.250158 0.912211
0.000000 0.403570 0.787789
0.172676 0.412892 0.833596
0.508343 0.436513 0.871101
0.714445 0.465206 0.886525
0.877919 0.482013 0.907377
1.000000 0.476115 0.912211
0.000000 0.637910 0.777665
0.124925 0.639664 0.785374
0.423169 0.640436 0.815250
0.688946 0.653331 0.844220
0.845485 0.658096 0.849519
1.000000 0.641974 0.872830
0.000000 0.815285 0.826337
0.131414 0.809574 0.813338
0.388374 0.799674 0.797997
0.638943 0.800055 0.806351
0.830594 0.801895 0.817692
1.000000 0.787416 0.831503
0.000000 0.982556 0.833407
0.106587 0.980745 0.814986
0.346123 0.965120 0.782597
0.602651 0.960366 0.776675
0.814191 0.961388 0.783837
1.000000 0.957189 0.810881
0.030107 0.043356 1.000000
0.245440 0.049166 1.000000
0.488439 0.045325 1.000000
0.667953 0.045183 1.000000
0.833849 0.052910 1.000000
1.000000 0.059673 1.000000
0.043304 0.188428 1.000000
0.255033 0.193160 1.000000
0.521950 0.195405 1.000000
0.714418 0.213596 1.000000
0.888186 0.240526 1.000000
1.000000 0.258410 1.000000
0.000000 0.402341 1.000000
0.211589 0.408586 1.000000
0.526827 0.428020 1.000000
0.733453 0.460110 1.000000
0.885347 0.479134 1.000000
1.000000 0.476513 1.000000
0.000000 0.638895 0.999922
0.123949 0.636691 1.000000
0.446111 0.611898 1.000000
0.689328 0.634412 1.000000
0.855003 0.649239 1.000000
1.000000 0.639788 1.000000
0.000000 0.812725 1.000000
0.091072 0.808888 0.999995
0.337767 0.781343 0.999859
0.612711 0.765249 1.000000
0.826605 0.785418 1.000000
0.999958 0.786206 1.000000
0.000000 0.966925 1.000000
0.087792 0.964206 1.000000
0.296009 0.942902 0.982742
0.532396 0.931664 0.971950
0.772378 0.939861 0.999809
0.999984 0.956987 1.000000
