file/cube/cosmo.cube
LUT_3D_SIZE 16
0.000000 0.055742 0.056084
0.051033 0.058769 0.061684
0.104348 0.063176 0.067092
0.168118 0.064382 0.077427
0.248802 0.062106 0.087567
0.343030 0.057457 0.097965
0.435409 0.053339 0.108194
0.527106 0.048870 0.117451
0.611249 0.045624 0.126600
0.685061 0.044658 0.136862
0.749356 0.044689 0.146273
0.809150 0.044511 0.155014
0.868195 0.044174 0.163258
0.928854 0.043000 0.171051
0.970737 0.040597 0.179996
1.000000 0.036117 0.191271
0.010820 0.109565 0.066800
0.066905 0.114652 0.072838
0.132168 0.116694 0.081168
0.202506 0.116735 0.091544
0.284415 0.114288 0.101109
0.376601 0.109351 0.110398
0.469745 0.103504 0.118897
0.556150 0.097422 0.125648
0.630499 0.093331 0.132377
0.694697 0.091287 0.139383
0.754134 0.090257 0.146626
0.812546 0.090038 0.154476
0.872041 0.090318 0.163098
0.935310 0.090800 0.172994
0.970737 0.090578 0.184862
1.000000 0.087859 0.198897
0.024770 0.167280 0.081287
0.085172 0.171159 0.081639
0.156434 0.170078 0.088814
0.223376 0.168608 0.098227
0.299494 0.164493 0.105156
0.385565 0.157727 0.111711
0.473176 0.150181 0.117482
0.554923 0.143737 0.122535
0.628179 0.140020 0.128783
0.694261 0.139224 0.136610
0.756330 0.139874 0.144997
0.817338 0.141759 0.154605
0.879519 0.144236 0.165115
0.938947 0.146629 0.176448
0.970737 0.147836 0.189440
1.000000 0.146732 0.205739
0.027495 0.222939 0.081305
0.087668 0.223081 0.080480
0.152010 0.220743 0.083226
0.215256 0.218003 0.087840
0.290847 0.212311 0.099152
0.378590 0.205736 0.106859
0.469128 0.199222 0.113753
0.555760 0.194191 0.120523
0.633118 0.192423 0.128482
0.701281 0.193664 0.138002
0.765157 0.196566 0.147892
0.827571 0.200410 0.158601
0.890890 0.204780 0.169981
0.941474 0.209185 0.182057
0.970737 0.212080 0.196339
1.000000 0.212449 0.214144
0.019788 0.273826 0.069730
0.077238 0.273883 0.070914
0.141847 0.272463 0.074504
0.205697 0.272177 0.078027
0.283292 0.269324 0.085604
0.374583 0.263917 0.101510
0.468610 0.258682 0.112653
0.559335 0.255388 0.121040
0.638841 0.255628 0.129828
0.708049 0.259008 0.139825
0.773044 0.264432 0.150732
0.836208 0.270609 0.161938
0.900550 0.277697 0.173985
0.941474 0.285184 0.187364
0.970737 0.290045 0.202593
1.000000 0.290765 0.221313
0.011443 0.332186 0.055959
0.068516 0.335629 0.059969
0.134735 0.337279 0.065247
0.200391 0.340200 0.069820
0.280197 0.340407 0.074834
0.373004 0.337365 0.085801
0.464313 0.335525 0.100025
0.555362 0.334764 0.112643
0.636887 0.337580 0.124404
0.708400 0.344485 0.137232
0.774777 0.353280 0.149931
0.839052 0.362908 0.163019
0.903727 0.372280 0.176113
0.941474 0.379580 0.189259
0.970737 0.383559 0.203809
1.000000 0.381087 0.220590
0.005467 0.411393 0.043581
0.063550 0.418128 0.048871
0.131096 0.422806 0.054106
0.197744 0.428115 0.058676
0.280050 0.429849 0.063771
0.377541 0.427983 0.071230
0.473125 0.427094 0.083965
0.560570 0.430114 0.096738
0.638486 0.435789 0.107745
0.708492 0.443621 0.119809
0.773319 0.451550 0.132524
0.835764 0.458702 0.145993
0.898077 0.464855 0.159889
0.941474 0.468822 0.173963
0.970737 0.469028 0.190100
1.000000 0.463608 0.208642
0.000062 0.502974 0.027618
0.058233 0.510929 0.033021
0.128465 0.516274 0.039146
0.198555 0.522544 0.044857
0.285853 0.524569 0.052091
0.385239 0.522787 0.059794
0.485586 0.520995 0.070245
0.574298 0.521255 0.082609
0.649322 0.524938 0.093956
0.714120 0.530419 0.104156
0.774167 0.535853 0.113537
0.832597 0.540622 0.123628
0.890927 0.543986 0.134656
0.941191 0.545192 0.147840
0.970737 0.542709 0.165801
1.000000 0.534489 0.188302
0.000023 0.597611 0.018171
0.062841 0.604142 0.026535
0.136900 0.608746 0.034676
0.210488 0.613132 0.042424
0.298729 0.612295 0.049964
0.396906 0.608298 0.056634
0.495676 0.602959 0.063433
0.582967 0.599981 0.073102
0.656321 0.600345 0.083085
0.719415 0.602441 0.092467
0.777413 0.605141 0.100853
0.832712 0.607607 0.108691
0.888030 0.609111 0.116934
0.939851 0.609049 0.126503
0.970737 0.605295 0.140587
1.000000 0.595488 0.162733
0.011992 0.683062 0.028447
0.081384 0.686915 0.036434
0.154869 0.688481 0.043754
0.228150 0.689418 0.050239
0.314449 0.685803 0.055354
0.409475 0.679099 0.059335
0.505769 0.671525 0.063146
0.590067 0.666301 0.069839
0.661425 0.664288 0.077759
0.722920 0.664038 0.085417
0.779724 0.664321 0.092499
0.834193 0.664730 0.098717
0.888372 0.664877 0.104254
0.939699 0.663983 0.109819
0.970737 0.659837 0.118231
1.000000 0.649915 0.134240
0.032841 0.755209 0.043542
0.101046 0.756293 0.049659
0.173126 0.755445 0.054837
0.244734 0.753843 0.059141
0.328687 0.748073 0.062038
0.421515 0.739488 0.063702
0.514869 0.730305 0.064791
0.596436 0.723585 0.068962
0.665123 0.719897 0.074054
0.725543 0.718182 0.079001
0.782097 0.717184 0.083329
0.836624 0.716428 0.087128
0.891045 0.715389 0.090282
0.940441 0.713744 0.093258
0.970737 0.709442 0.098049
1.000000 0.700169 0.109231
0.048716 0.818246 0.055156
0.115140 0.816991 0.059216
0.185323 0.814066 0.062393
0.255617 0.810612 0.065017
0.337762 0.803392 0.065987
0.428672 0.793347 0.065259
0.519886 0.783109 0.063529
0.599380 0.775618 0.064342
0.667124 0.771253 0.066384
0.727226 0.768695 0.068236
0.783840 0.766855 0.070060
0.838649 0.765339 0.072147
0.893441 0.763716 0.074571
0.941115 0.761370 0.077941
0.970737 0.756908 0.082865
1.000000 0.748154 0.092530
0.058584 0.874547 0.061438
0.122854 0.871764 0.063621
0.190879 0.867808 0.064741
0.258708 0.863423 0.065091
0.338663 0.855523 0.063568
0.428300 0.844934 0.060036
0.518362 0.834096 0.055554
0.597216 0.826197 0.052961
0.665322 0.821097 0.052596
0.725924 0.817804 0.053415
0.783009 0.815377 0.055104
0.838101 0.813297 0.057700
0.893042 0.811163 0.061256
0.941024 0.808566 0.065947
0.970737 0.803891 0.072282
1.000000 0.795687 0.081059
0.060207 0.927404 0.060291
0.122046 0.924476 0.060175
0.187165 0.920229 0.058719
0.251823 0.915863 0.056630
0.329978 0.907817 0.052957
0.418709 0.896847 0.047551
0.509102 0.885467 0.041851
0.589162 0.876776 0.038190
0.658764 0.870821 0.038046
0.720749 0.866875 0.039713
0.778598 0.863910 0.042500
0.834245 0.861413 0.046115
0.889469 0.859060 0.050549
0.940141 0.856212 0.056050
0.970737 0.851481 0.063336
1.000000 0.843543 0.072948
0.050529 0.970737 0.046723
0.109200 0.970365 0.044375
0.171734 0.969818 0.041493
0.233092 0.969294 0.038699
0.309714 0.962759 0.035199
0.398756 0.951242 0.030927
0.489742 0.939113 0.026775
0.571440 0.929524 0.023924
0.643313 0.922710 0.023857
0.707763 0.917837 0.026152
0.767267 0.914457 0.029666
0.824222 0.911684 0.033950
0.880379 0.909217 0.038998
0.937737 0.906425 0.045414
0.970737 0.901798 0.053779
1.000000 0.894258 0.065543
0.033392 1.000000 0.022023
0.089562 1.000000 0.019610
0.150448 1.000000 0.017802
0.209770 1.000000 0.016687
0.281076 1.000000 0.015418
0.369946 0.999952 0.013339
0.459830 0.995803 0.010976
0.542939 0.985873 0.009269
0.617421 0.978229 0.009089
0.685446 0.972525 0.011085
0.747953 0.968492 0.014936
0.807333 0.965323 0.020331
0.866042 0.962801 0.027721
0.925405 0.960194 0.036836
0.970737 0.956624 0.049220
1.000000 0.950592 0.064394
0.000000 0.054418 0.112801
0.051487 0.058274 0.117572
0.104322 0.063361 0.119963
0.165125 0.065870 0.128711
0.244703 0.064046 0.139245
0.335932 0.060177 0.149104
0.428613 0.056052 0.160177
0.520103 0.051345 0.170054
0.605659 0.047627 0.179215
0.680431 0.046101 0.188997
0.744483 0.045389 0.197718
0.804643 0.044945 0.206034
0.863418 0.044282 0.213901
0.924137 0.043095 0.221639
0.970737 0.040906 0.231448
1.000000 0.036381 0.243314
0.008495 0.109596 0.121139
0.068870 0.114064 0.129358
0.129711 0.118184 0.133126
0.196419 0.119167 0.142708
0.277862 0.116543 0.152514
0.370222 0.111205 0.162258
0.462463 0.104934 0.170697
0.548625 0.098527 0.177459
0.624054 0.094038 0.184048
0.688969 0.091645 0.190838
0.749282 0.090477 0.198226
0.808417 0.090244 0.206179
0.868702 0.090693 0.215166
0.932689 0.091327 0.225374
0.970737 0.091112 0.237482
1.000000 0.088636 0.252403
0.021807 0.167521 0.131823
0.084548 0.170933 0.137622
0.150235 0.171601 0.141441
0.216299 0.170111 0.149424
0.292653 0.165482 0.156173
0.379221 0.158364 0.162885
0.466065 0.150891 0.168887
0.548317 0.144378 0.174143
0.623105 0.140605 0.180705
0.690258 0.139604 0.188609
0.753452 0.140565 0.197798
0.815202 0.142547 0.207644
0.877671 0.144980 0.218207
0.938502 0.147445 0.229612
0.970737 0.148894 0.242907
1.000000 0.147651 0.259448
0.025621 0.220501 0.140220
0.083856 0.221864 0.139085
0.148005 0.220518 0.137352
0.212069 0.217341 0.142403
0.287242 0.212284 0.150317
0.374757 0.206019 0.157682
0.464814 0.199825 0.165176
0.551914 0.194912 0.172445
0.630044 0.193172 0.180784
0.698780 0.194537 0.190369
0.763406 0.197476 0.200793
0.826068 0.201517 0.211526
0.889593 0.206066 0.222705
0.941321 0.210474 0.234841
0.970737 0.213387 0.249427
1.000000 0.213768 0.267780
0.015637 0.270337 0.132207
0.072452 0.273100 0.129317
0.138356 0.272521 0.128771
0.202511 0.272408 0.132724
0.281329 0.269344 0.140789
0.373558 0.263866 0.154776
0.468242 0.259112 0.164073
0.558631 0.255946 0.172265
0.637971 0.256342 0.181489
0.707418 0.260147 0.192011
0.772117 0.265439 0.202728
0.835708 0.271952 0.214249
0.900154 0.279236 0.226282
0.941474 0.286550 0.239719
0.970737 0.291623 0.255472
1.000000 0.292059 0.274845
0.006700 0.330381 0.117116
0.064745 0.335907 0.116327
0.131920 0.337833 0.119707
0.197824 0.340870 0.124727
0.277601 0.341201 0.129580
0.371037 0.338259 0.140615
0.463581 0.335922 0.155278
0.555688 0.334904 0.167502
0.637280 0.338048 0.179050
0.708263 0.345107 0.190923
0.774837 0.354451 0.203450
0.838993 0.363889 0.215767
0.903568 0.372927 0.228294
0.941474 0.380150 0.241055
0.970737 0.383678 0.255309
1.000000 0.381088 0.272241
0.001761 0.411764 0.102146
0.060772 0.419275 0.104384
0.128674 0.423660 0.109074
0.195567 0.429196 0.113983
0.277883 0.431014 0.119298
0.375133 0.428825 0.126057
0.471245 0.428500 0.138858
0.558021 0.430990 0.151326
0.636913 0.436328 0.163169
0.707486 0.443804 0.176046
0.772710 0.451155 0.189589
0.835167 0.458272 0.203069
0.897152 0.464087 0.216273
0.941474 0.467834 0.229437
0.970737 0.468254 0.244250
1.000000 0.462612 0.261222
0.000000 0.504690 0.085025
0.056009 0.512222 0.088684
0.126551 0.517531 0.094666
0.196800 0.523887 0.100876
0.283460 0.525386 0.108143
0.382864 0.523641 0.115816
0.482821 0.521497 0.125450
0.571028 0.521443 0.137370
0.646129 0.524990 0.149126
0.710719 0.529988 0.159083
0.771006 0.535174 0.168868
0.829848 0.539575 0.179519
0.888789 0.542491 0.191526
0.940729 0.543523 0.205347
0.970737 0.540947 0.222941
1.000000 0.532943 0.243503
0.000000 0.598918 0.074529
0.061271 0.605414 0.082171
0.135166 0.609682 0.090534
0.207991 0.613480 0.097993
0.295726 0.612388 0.105466
0.393075 0.608043 0.112181
0.491423 0.602566 0.118567
0.578900 0.599410 0.127701
0.652366 0.599457 0.137684
0.715459 0.601575 0.147088
0.773201 0.603979 0.155579
0.828858 0.606468 0.163456
0.884390 0.607889 0.172220
0.938946 0.607291 0.182598
0.970737 0.603260 0.197957
1.000000 0.593303 0.219946
0.009660 0.683760 0.083194
0.078950 0.687246 0.091065
0.152329 0.688649 0.098587
0.224582 0.689245 0.104930
0.310041 0.685279 0.110042
0.404520 0.678482 0.114178
0.500020 0.670878 0.117520
0.584624 0.665514 0.123751
0.656390 0.663397 0.131653
0.718138 0.662833 0.139275
0.775156 0.663119 0.146541
0.829582 0.663497 0.152857
0.883643 0.663575 0.158597
0.938486 0.662522 0.164668
0.970737 0.658143 0.174184
1.000000 0.647832 0.191946
0.030111 0.755290 0.097269
0.098118 0.756196 0.103613
0.169322 0.754959 0.108832
0.240178 0.753271 0.113231
0.323591 0.747407 0.116300
0.415762 0.738603 0.118131
0.508572 0.729453 0.119138
0.590059 0.722650 0.122667
0.659501 0.718788 0.127737
0.720403 0.716961 0.132773
0.776947 0.715888 0.137360
0.831519 0.715097 0.141295
0.885750 0.714086 0.144695
0.939069 0.712284 0.148000
0.970737 0.707897 0.153541
1.000000 0.698286 0.166202
0.045446 0.817857 0.107926
0.111448 0.816328 0.112232
0.181147 0.813332 0.115845
0.250633 0.809850 0.118614
0.332051 0.802535 0.119968
0.422552 0.792468 0.119620
0.513260 0.782177 0.118165
0.592747 0.774725 0.118313
0.661209 0.770143 0.120316
0.721622 0.767440 0.122480
0.778348 0.765581 0.124583
0.833325 0.763978 0.126918
0.887983 0.762279 0.129552
0.939657 0.759950 0.132965
0.970737 0.755525 0.138131
1.000000 0.746685 0.148348
0.054483 0.873756 0.113766
0.118665 0.870930 0.116476
0.186205 0.866813 0.118218
0.253126 0.862511 0.118905
0.332712 0.854604 0.117870
0.421603 0.844043 0.114956
0.511095 0.833230 0.110766
0.590160 0.825205 0.107771
0.658759 0.819917 0.107444
0.719848 0.816578 0.108288
0.777242 0.814048 0.110079
0.832466 0.811951 0.112782
0.887462 0.809828 0.116301
0.939551 0.807206 0.120960
0.970737 0.802581 0.127255
1.000000 0.794320 0.136368
0.055843 0.926396 0.113030
0.117350 0.923322 0.113529
0.182194 0.919030 0.112887
0.245984 0.914805 0.111303
0.323704 0.906734 0.108059
0.411900 0.895903 0.103251
0.501681 0.884591 0.097889
0.581860 0.875883 0.094064
0.652111 0.869802 0.093488
0.714479 0.865668 0.095016
0.772583 0.862643 0.097609
0.828510 0.860156 0.101144
0.883995 0.857668 0.105621
0.938698 0.854930 0.111151
0.970737 0.850245 0.118250
1.000000 0.842426 0.127422
0.045889 0.970590 0.101122
0.104148 0.970184 0.099321
0.166301 0.969653 0.096946
0.227237 0.968862 0.094572
0.303119 0.961664 0.091349
0.391676 0.950155 0.087267
0.482050 0.938227 0.083033
0.563874 0.928663 0.079979
0.636311 0.921780 0.079221
0.701439 0.916897 0.081410
0.761195 0.913381 0.084682
0.818462 0.910527 0.088832
0.875074 0.908077 0.094067
0.933029 0.905249 0.100330
0.970737 0.900743 0.108559
1.000000 0.893445 0.120339
0.028633 1.000000 0.077994
0.084571 1.000000 0.075979
0.145101 1.000000 0.074145
0.204125 1.000000 0.072829
0.274493 1.000000 0.071473
0.363214 0.999942 0.069087
0.452652 0.995146 0.066638
0.535495 0.985161 0.064909
0.610036 0.977576 0.064278
0.678805 0.971800 0.065651
0.742123 0.967595 0.069502
0.801962 0.964441 0.075009
0.860892 0.961893 0.082192
0.920796 0.959437 0.091543
0.970698 0.956075 0.103839
1.000000 0.950215 0.118811
0.000000 0.053235 0.167190
0.052135 0.057998 0.170316
0.107227 0.063390 0.171808
0.165670 0.066643 0.178602
0.243611 0.065437 0.188119
0.336218 0.061276 0.198718
0.424119 0.058376 0.208282
0.512858 0.054436 0.217777
0.598795 0.050260 0.226833
0.674512 0.047850 0.236124
0.739500 0.046646 0.244950
0.799817 0.045895 0.253386
0.858629 0.045055 0.261394
0.919874 0.043711 0.269603
0.970732 0.041696 0.279598
1.000000 0.037105 0.291826
0.009295 0.108873 0.176117
0.070902 0.113823 0.182312
0.132359 0.118208 0.184043
0.195477 0.120194 0.191825
0.275990 0.117749 0.201715
0.365208 0.113066 0.210515
0.453657 0.107464 0.218903
0.539156 0.100677 0.225477
0.616123 0.095641 0.232050
0.682993 0.092623 0.238886
0.744473 0.091245 0.246451
0.804638 0.091059 0.255066
0.865686 0.091679 0.264818
0.930586 0.092494 0.275883
0.970737 0.092350 0.288882
1.000000 0.089893 0.304070
0.020075 0.167656 0.183009
0.086766 0.169605 0.191472
0.151069 0.171406 0.192567
0.211521 0.171285 0.198396
0.286238 0.166706 0.205065
0.371086 0.160005 0.211487
0.457580 0.152439 0.217871
0.541272 0.145786 0.223627
0.618047 0.141779 0.230370
0.686768 0.140528 0.238690
0.751128 0.141470 0.248404
0.813657 0.143550 0.258848
0.876566 0.146172 0.270007
0.938296 0.148751 0.282271
0.970737 0.150201 0.296297
1.000000 0.149079 0.313361
0.021995 0.219912 0.185858
0.080450 0.221344 0.187289
0.146580 0.219643 0.189180
0.205609 0.218441 0.191817
0.281252 0.213571 0.199018
0.370238 0.207068 0.207067
0.460840 0.200983 0.215128
0.548754 0.196187 0.222813
0.627801 0.194322 0.231440
0.697560 0.195703 0.241467
0.762513 0.198742 0.252273
0.825599 0.202908 0.263580
0.889346 0.207561 0.275531
0.941259 0.212079 0.288644
0.970737 0.215234 0.304054
1.000000 0.215817 0.323077
0.014227 0.267906 0.184847
0.070948 0.270867 0.185301
0.135690 0.272195 0.183799
0.200339 0.272821 0.184514
0.280355 0.269706 0.192834
0.372790 0.264656 0.204154
0.467423 0.260101 0.213454
0.557857 0.257108 0.222281
0.637467 0.257744 0.232159
0.706794 0.261476 0.242883
0.772062 0.267267 0.254483
0.835688 0.273912 0.266774
0.900134 0.281254 0.279484
0.941474 0.288958 0.293852
0.970737 0.293826 0.310065
1.000000 0.293863 0.329285
0.003980 0.327133 0.175406
0.061243 0.334843 0.174782
0.129417 0.338818 0.173280
0.196292 0.342047 0.176691
0.276178 0.342469 0.181658
0.370126 0.339237 0.192657
0.464357 0.336627 0.207343
0.557003 0.335925 0.219216
0.638060 0.339251 0.230111
0.709365 0.347056 0.242230
0.775577 0.356118 0.254794
0.839888 0.365720 0.267590
0.904280 0.374753 0.280565
0.941474 0.381665 0.293434
0.970737 0.385023 0.307995
1.000000 0.382145 0.325312
0.000000 0.410470 0.160156
0.057775 0.420356 0.159349
0.127197 0.425399 0.161346
0.194517 0.430911 0.165963
0.276672 0.432498 0.171397
0.374154 0.430738 0.178354
0.469923 0.429855 0.191054
0.557029 0.432446 0.204156
0.636977 0.437583 0.216959
0.707513 0.444429 0.230871
0.772895 0.451670 0.244954
0.835231 0.458578 0.258356
0.896708 0.464243 0.270870
0.941474 0.468111 0.283103
0.970737 0.468139 0.297000
1.000000 0.462237 0.312694
0.000000 0.505608 0.139808
0.054187 0.514179 0.141318
0.125658 0.519451 0.146524
0.195844 0.525510 0.153068
0.282348 0.526803 0.160797
0.381192 0.524693 0.168732
0.480427 0.522100 0.177968
0.568856 0.522182 0.190292
0.643642 0.525359 0.202233
0.708092 0.530203 0.212339
0.769003 0.534976 0.223057
0.828119 0.539105 0.234608
0.887451 0.541816 0.247469
0.940404 0.542530 0.261727
0.970737 0.539969 0.278244
1.000000 0.531942 0.296297
0.000000 0.601121 0.127854
0.060249 0.607181 0.134433
0.134311 0.611098 0.142904
0.206833 0.614798 0.150962
0.293673 0.612964 0.158432
0.390572 0.608439 0.165241
0.488455 0.602811 0.171383
0.575488 0.599331 0.180313
0.649173 0.599154 0.190545
0.712195 0.601010 0.199926
0.769889 0.603522 0.208320
0.825676 0.605788 0.216781
0.881640 0.606935 0.226242
0.938299 0.606195 0.237550
0.970737 0.601712 0.253865
1.000000 0.591730 0.274686
0.007772 0.685030 0.136674
0.077547 0.688275 0.143734
0.150645 0.689187 0.151148
0.222080 0.689568 0.157660
0.307323 0.685540 0.162954
0.401129 0.678310 0.166985
0.495941 0.670669 0.170102
0.580547 0.665085 0.175990
0.652466 0.662607 0.183612
0.714314 0.662006 0.191249
0.771256 0.662263 0.198487
0.825719 0.662656 0.204925
0.879968 0.662794 0.210896
0.936805 0.661470 0.217732
0.970737 0.656659 0.228436
1.000000 0.645990 0.247431
0.027520 0.756007 0.151002
0.095702 0.756420 0.156318
0.166743 0.755129 0.161694
0.236912 0.753296 0.166180
0.319751 0.747192 0.168961
0.411206 0.738355 0.170582
0.503488 0.728944 0.171501
0.585187 0.722066 0.174264
0.654957 0.718072 0.179084
0.715989 0.716093 0.184105
0.772738 0.714977 0.188757
0.827367 0.714227 0.193043
0.881699 0.713128 0.196598
0.937675 0.711353 0.200219
0.970737 0.706732 0.206393
1.000000 0.696737 0.220530
0.042019 0.817716 0.161505
0.108401 0.816194 0.165198
0.178065 0.813068 0.168898
0.246562 0.809520 0.171612
0.327670 0.802144 0.172540
0.417381 0.791975 0.171891
0.507487 0.781638 0.170278
0.587189 0.774060 0.169905
0.656005 0.769298 0.171781
0.716971 0.766526 0.174028
0.773945 0.764565 0.176280
0.828937 0.763009 0.178651
0.883696 0.761335 0.181370
0.938452 0.759012 0.184903
0.970737 0.754523 0.190229
1.000000 0.745418 0.201459
0.050966 0.873584 0.167504
0.115182 0.870537 0.169426
0.182445 0.866237 0.170989
0.248811 0.862069 0.171771
0.327829 0.854133 0.170380
0.416242 0.843510 0.167318
0.505272 0.832699 0.163083
0.584378 0.824581 0.159803
0.653546 0.819196 0.159302
0.715021 0.815726 0.159928
0.772480 0.813167 0.161727
0.828059 0.810989 0.164510
0.883048 0.808807 0.167989
0.938349 0.806248 0.172628
0.970737 0.801645 0.178933
1.000000 0.793365 0.188457
0.051717 0.925816 0.166003
0.113449 0.922657 0.166023
0.177928 0.918324 0.165470
0.241241 0.914174 0.163989
0.318475 0.906196 0.160743
0.406238 0.895341 0.155923
0.495604 0.884038 0.150608
0.575849 0.875293 0.146636
0.646222 0.869085 0.145514
0.709255 0.864848 0.146684
0.767688 0.861754 0.149311
0.823912 0.859155 0.152797
0.879479 0.856785 0.157158
0.936457 0.854007 0.162448
0.970737 0.849355 0.169696
1.000000 0.841692 0.179371
0.041640 0.970512 0.153429
0.100095 0.970096 0.151477
0.161928 0.969548 0.149474
0.222322 0.968480 0.147468
0.297592 0.960917 0.144291
0.385903 0.949468 0.140245
0.475713 0.937601 0.136203
0.557428 0.928007 0.133396
0.630083 0.921168 0.132230
0.695680 0.916192 0.133784
0.755983 0.912549 0.136948
0.813665 0.909652 0.140966
0.870545 0.907170 0.145998
0.928477 0.904418 0.152092
0.970737 0.900004 0.160724
1.000000 0.892807 0.172672
0.024522 1.000000 0.130823
0.080270 1.000000 0.128932
0.140306 1.000000 0.127522
0.199149 1.000000 0.126707
0.268650 1.000000 0.125651
0.356642 0.999934 0.123785
0.445601 0.994403 0.121645
0.528374 0.984512 0.120172
0.603209 0.976879 0.119493
0.672274 0.971146 0.120433
0.736277 0.966809 0.123833
0.796766 0.963675 0.128815
0.856096 0.961245 0.135844
0.916418 0.958958 0.145024
0.970176 0.955641 0.157464
1.000000 0.950107 0.172667
0.000041 0.053199 0.214198
0.053577 0.058524 0.216643
0.110537 0.063725 0.217952
0.168435 0.067424 0.224309
0.245271 0.066836 0.233745
0.337652 0.062552 0.244609
0.426593 0.059225 0.255047
0.510846 0.056511 0.264162
0.594023 0.053030 0.273407
0.668693 0.050224 0.282860
0.733775 0.048525 0.292143
0.794330 0.047442 0.301008
0.853300 0.046265 0.309388
0.915324 0.045065 0.318568
0.970362 0.042932 0.329155
1.000000 0.038321 0.341826
0.011514 0.108735 0.225892
0.073530 0.114178 0.231390
0.136800 0.118441 0.233281
0.197618 0.121180 0.240475
0.276031 0.119025 0.249224
0.366280 0.113748 0.258685
0.450055 0.108927 0.265613
0.531620 0.103169 0.271713
0.608334 0.097862 0.278168
0.676362 0.094450 0.285298
0.739615 0.092892 0.293769
0.800742 0.092737 0.303431
0.862470 0.093159 0.314102
0.928264 0.094139 0.326663
0.970737 0.094004 0.340626
1.000000 0.091376 0.356678
0.020658 0.167158 0.234684
0.089786 0.168983 0.242768
0.154427 0.170944 0.242680
0.211116 0.171585 0.246349
0.284124 0.167372 0.251969
0.368172 0.160669 0.258065
0.450426 0.154555 0.263807
0.533795 0.148233 0.270075
0.612735 0.143843 0.277588
0.683618 0.142445 0.286750
0.749000 0.143318 0.297350
0.811990 0.145284 0.308725
0.875454 0.147933 0.321301
0.938006 0.150473 0.334824
0.970737 0.152011 0.350266
1.000000 0.150827 0.368194
0.018470 0.219635 0.231004
0.078792 0.220504 0.235880
0.148083 0.218291 0.239347
0.205619 0.218480 0.239479
0.277986 0.215003 0.245735
0.365797 0.209043 0.253857
0.456351 0.203147 0.262553
0.545794 0.198150 0.270903
0.626213 0.196207 0.280088
0.696774 0.197412 0.290947
0.762223 0.200547 0.302756
0.825666 0.204850 0.315510
0.889560 0.209575 0.328945
0.941261 0.214059 0.343523
0.970737 0.217351 0.360677
1.000000 0.217780 0.380311
0.012265 0.266959 0.229727
0.069473 0.270529 0.231229
0.135101 0.272118 0.232545
0.200292 0.273375 0.234990
0.278778 0.271440 0.241261
0.372042 0.266405 0.251684
0.467023 0.261862 0.261522
0.557927 0.258947 0.270872
0.637444 0.259649 0.281177
0.707146 0.263656 0.293068
0.772305 0.269327 0.305714
0.836203 0.276392 0.319420
0.900913 0.284078 0.333924
0.941474 0.291495 0.349700
0.970737 0.296390 0.367204
1.000000 0.296201 0.386494
0.003415 0.326288 0.225204
0.060522 0.333773 0.227252
0.127851 0.339196 0.226870
0.195465 0.344130 0.226898
0.276149 0.344538 0.231276
0.370985 0.341344 0.242360
0.466923 0.338534 0.256874
0.559188 0.337839 0.267769
0.640106 0.341922 0.279011
0.710747 0.349572 0.291480
0.776848 0.358708 0.304934
0.840983 0.368391 0.318652
0.904817 0.376958 0.332211
0.941474 0.383915 0.346079
0.970737 0.386887 0.361005
1.000000 0.383592 0.378041
0.000000 0.408996 0.212578
0.055220 0.421093 0.212033
0.125566 0.427884 0.211814
0.194036 0.433579 0.215408
0.276804 0.435107 0.221523
0.374248 0.433258 0.228342
0.470219 0.432504 0.241053
0.557832 0.434690 0.254563
0.638061 0.439371 0.268419
0.708507 0.445808 0.283028
0.773469 0.452879 0.297115
0.835514 0.459697 0.310278
0.896870 0.465405 0.322331
0.941474 0.469085 0.334104
0.970737 0.468924 0.347089
1.000000 0.463167 0.362076
0.000000 0.505841 0.193256
0.052104 0.516370 0.193514
0.124843 0.522271 0.197262
0.195732 0.528393 0.203837
0.282221 0.529429 0.211930
0.380753 0.527040 0.219715
0.480094 0.524154 0.228350
0.567735 0.523587 0.240508
