file/cube/sky.cube
LUT_3D_SIZE 6
0.058832 0.056735 0.094558
0.215240 0.068018 0.088319
0.442996 0.078468 0.086750
0.668952 0.085761 0.083494
0.864019 0.094315 0.079948
1.000000 0.102145 0.075397
0.073239 0.247783 0.099787
0.256879 0.267128 0.115355
0.514249 0.273507 0.095109
0.716818 0.283467 0.083354
0.892792 0.298819 0.084400
1.000000 0.319043 0.094097
0.043135 0.461507 0.065348
0.217218 0.464412 0.071761
0.488384 0.457698 0.064352
0.711019 0.502371 0.093959
0.869706 0.524640 0.104488
1.000000 0.538293 0.105760
0.005787 0.664555 0.017847
0.180089 0.668987 0.036388
0.429447 0.648507 0.036080
0.669811 0.657612 0.063283
0.848486 0.687394 0.093479
0.999961 0.706596 0.107460
0.020934 0.843592 0.029113
0.186860 0.843034 0.049326
0.419332 0.820045 0.042652
0.643133 0.806070 0.046777
0.823434 0.821511 0.072521
0.994016 0.843275 0.092832
0.036751 0.998828 0.042708
0.189758 0.997115 0.057544
0.408622 0.973703 0.047089
0.623467 0.951290 0.036022
0.797385 0.952948 0.049307
0.970729 0.970159 0.072524
0.055283 0.055315 0.280031
0.228259 0.062518 0.247387
0.458005 0.074045 0.240724
0.688519 0.086896 0.247307
0.883339 0.094382 0.250852
1.000000 0.102621 0.250184
0.054521 0.258644 0.248057
0.249411 0.265516 0.280557
0.509272 0.267327 0.263880
0.728523 0.286491 0.266619
0.907464 0.305907 0.273515
1.000000 0.325235 0.282652
0.033959 0.463213 0.238373
0.215133 0.469383 0.247559
0.483785 0.454460 0.244318
0.708351 0.505187 0.272972
0.868859 0.529785 0.278633
1.000000 0.540244 0.276768
0.002002 0.663124 0.197591
0.178464 0.671928 0.218741
0.429973 0.650809 0.213314
0.669723 0.657517 0.234946
0.853106 0.695806 0.273378
0.999984 0.713434 0.281900
0.018749 0.841433 0.203932
0.183492 0.843148 0.223582
0.417803 0.821057 0.215417
0.638284 0.801914 0.207139
0.822357 0.820485 0.237616
0.997411 0.848486 0.267961
0.032692 0.996431 0.211407
0.184642 0.996084 0.226064
0.404820 0.973820 0.215907
0.619827 0.949277 0.201199
0.793120 0.949013 0.206518
0.970399 0.969817 0.236197
0.028853 0.054738 0.509292
0.223188 0.056368 0.483940
0.462510 0.063250 0.431150
0.696329 0.075205 0.438993
0.895031 0.084711 0.452195
1.000000 0.094790 0.457147
0.000000 0.268197 0.444502
0.191147 0.270180 0.550514
0.511590 0.252058 0.479606
0.734176 0.273428 0.479102
0.912211 0.302696 0.495692
1.000000 0.324168 0.502000
0.000000 0.464049 0.373843
0.157558 0.476778 0.418044
0.475466 0.451073 0.455783
0.699037 0.474768 0.457396
0.871814 0.517411 0.480279
1.000000 0.539413 0.487308
0.000000 0.649629 0.382807
0.146327 0.666200 0.416088
0.430772 0.656782 0.422139
0.661609 0.646520 0.423851
0.843575 0.688284 0.470017
0.999943 0.713395 0.488770
0.000000 0.832451 0.390072
0.161735 0.837823 0.411058
0.412515 0.822924 0.410707
0.635414 0.800025 0.397993
0.816605 0.814179 0.422593
0.999870 0.854731 0.485463
0.012778 0.989031 0.391223
0.168813 0.990877 0.406642
0.394928 0.973184 0.401372
0.617088 0.949264 0.386505
0.785411 0.941864 0.385913
0.968498 0.968110 0.423285
0.000000 0.054846 0.765633
0.192886 0.054632 0.759425
0.461440 0.055016 0.669815
0.695496 0.062731 0.662261
0.898789 0.069822 0.677490
1.000000 0.079900 0.682772
0.000000 0.268979 0.699517
0.136883 0.271732 0.801924
0.502151 0.241172 0.732861
0.727015 0.251526 0.699279
0.911500 0.276166 0.703783
1.000000 0.304454 0.709848
0.000000 0.479760 0.528598
0.087789 0.486843 0.618225
0.387750 0.457108 0.733997
0.701610 0.451761 0.679199
0.879820 0.495281 0.684466
1.000000 0.533148 0.694325
0.000000 0.654580 0.470755
0.091997 0.660102 0.519631
0.370135 0.658825 0.593715
0.655427 0.640154 0.638262
0.826533 0.659551 0.645282
0.998646 0.695141 0.669750
0.000000 0.824852 0.526007
0.113169 0.825009 0.573984
0.373191 0.815857 0.612157
0.635419 0.803215 0.615674
0.805534 0.800972 0.624422
0.982988 0.838399 0.663950
0.000000 0.978437 0.555722
0.132534 0.979103 0.584223
0.364891 0.966702 0.592865
0.614525 0.951093 0.591249
0.784502 0.942162 0.590808
0.959149 0.959007 0.628232
0.000000 0.056968 0.912211
0.166281 0.058874 0.912211
0.461291 0.051427 0.891541
0.700895 0.055907 0.862603
0.900963 0.061431 0.875802
1.000000 0.069496 0.880760
0.000000 0.275682 0.911311
0.105666 0.275310 0.912211
0.476865 0.236066 0.912211
0.723845 0.239594 0.904536
0.908767 0.258420 0.894437
1.000000 0.284087 0.893672
0.000000 0.494150 0.757230
0.087789 0.491959 0.845785
0.313512 0.459294 0.912211
0.697898 0.439498 0.889256
0.879590 0.469047 0.867526
1.000000 0.504220 0.861915
0.000000 0.672222 0.593951
0.087789 0.675411 0.666113
0.241257 0.675428 0.771021
0.610241 0.639850 0.848562
0.826735 0.643873 0.817036
0.998880 0.678430 0.829376
0.000000 0.833836 0.601547
0.088258 0.831117 0.652186
0.295298 0.818821 0.714965
0.599691 0.802377 0.759512
0.801134 0.796143 0.793769
0.964255 0.813769 0.801968
0.000000 0.977201 0.664160
0.095280 0.973213 0.710728
0.301198 0.958385 0.746074
0.590871 0.945459 0.765620
0.787325 0.947947 0.777415
0.951957 0.951902 0.791252
0.000000 0.060871 1.000000
0.146315 0.065091 1.000000
0.454041 0.051575 1.000000
0.708389 0.050458 1.000000
0.905957 0.054695 1.000000
1.000000 0.062615 1.000000
0.000000 0.282301 1.000000
0.090444 0.281080 1.000000
0.436221 0.239902 1.000000
0.722603 0.231924 1.000000
0.908063 0.247641 1.000000
1.000000 0.270402 1.000000
0.000000 0.503908 0.977343
0.087789 0.499727 1.000000
0.253098 0.467473 1.000000
0.683183 0.428691 1.000000
0.877199 0.453335 1.000000
1.000000 0.479569 1.000000
0.000000 0.690023 0.796979
0.087789 0.692871 0.877473
0.175578 0.681758 0.978984
0.544211 0.638146 1.000000
0.822254 0.632176 0.999891
0.991603 0.654746 0.985826
0.000000 0.847816 0.722405
0.087789 0.846612 0.788677
0.198364 0.835326 0.858513
0.482571 0.815142 0.922309
0.762642 0.793366 0.985275
0.960417 0.797293 0.958985
0.000000 0.985086 0.736367
0.087789 0.981040 0.785674
0.238751 0.967261 0.832492
0.517330 0.946009 0.867353
0.759309 0.946195 0.912224
0.948237 0.948148 0.951054
