file/cube/sky.cube
LUT_3D_SIZE 16
0.058832 0.056735 0.094558
0.102484 0.061395 0.093317
0.152133 0.065657 0.089318
0.215240 0.068018 0.088319
0.287482 0.070915 0.087245
0.363819 0.074796 0.087427
0.442996 0.078468 0.086750
0.524969 0.081051 0.085283
0.599669 0.082774 0.084562
0.668952 0.085761 0.083494
0.736303 0.088557 0.081748
0.802759 0.090960 0.081532
0.864019 0.094315 0.079948
0.924254 0.097282 0.079577
0.970737 0.100236 0.075857
1.000000 0.102145 0.075397
0.059464 0.113857 0.097933
0.106456 0.119570 0.100906
0.163764 0.125279 0.100697
0.231269 0.130983 0.102630
0.307917 0.137277 0.104597
0.391193 0.142810 0.105001
0.480715 0.145361 0.101624
0.563765 0.146922 0.096470
0.635088 0.148341 0.091311
0.701371 0.149897 0.086635
0.765282 0.152016 0.082494
0.826631 0.154657 0.079203
0.882889 0.158556 0.077333
0.937846 0.162794 0.076237
0.970737 0.166248 0.074303
1.000000 0.169571 0.072275
0.069083 0.176088 0.098385
0.119520 0.183044 0.106161
0.179917 0.191342 0.113305
0.249419 0.200163 0.116369
0.327037 0.207076 0.114753
0.414239 0.209665 0.107527
0.503181 0.209533 0.097661
0.580092 0.211143 0.090677
0.648518 0.213362 0.085761
0.712160 0.215428 0.081982
0.774026 0.218077 0.079116
0.833735 0.221273 0.077295
0.889018 0.226162 0.077456
0.939705 0.231388 0.078271
0.970737 0.236229 0.078569
1.000000 0.241346 0.079290
0.073239 0.247783 0.099787
0.121854 0.255248 0.107297
0.181690 0.261050 0.112306
0.256879 0.267128 0.115355
0.340600 0.271970 0.112967
0.430001 0.272835 0.104175
0.514249 0.273507 0.095109
0.587171 0.276537 0.089452
0.654056 0.280120 0.085796
0.716818 0.283467 0.083354
0.778223 0.287408 0.081923
0.837886 0.292438 0.082003
0.892792 0.298819 0.084400
0.940640 0.305957 0.087837
0.970737 0.312667 0.090951
1.000000 0.319043 0.094097
0.071404 0.321240 0.097230
0.116857 0.327797 0.102304
0.174130 0.330860 0.104211
0.247729 0.331179 0.103351
0.335050 0.332106 0.101134
0.431970 0.333471 0.096509
0.519325 0.337096 0.092308
0.592618 0.343926 0.090201
0.659278 0.351108 0.089539
0.721160 0.357235 0.089370
0.781027 0.363406 0.090278
0.838355 0.370112 0.092526
0.890679 0.377687 0.096334
0.939528 0.385189 0.100280
0.970737 0.391598 0.103320
1.000000 0.397131 0.105598
0.059994 0.392057 0.084738
0.104529 0.397595 0.089025
0.161099 0.399557 0.090756
0.234124 0.396816 0.088981
0.318638 0.393363 0.085842
0.414824 0.392328 0.082232
0.510829 0.398487 0.081302
0.590351 0.411442 0.085352
0.658611 0.424286 0.090832
0.719403 0.433840 0.094898
0.776508 0.441690 0.097901
0.830534 0.448660 0.100429
0.879869 0.455552 0.103075
0.928608 0.461805 0.105153
0.970505 0.466732 0.106033
1.000000 0.470994 0.106230
0.043135 0.461507 0.065348
0.087682 0.466707 0.070570
0.143519 0.468196 0.072880
0.217218 0.464412 0.071761
0.300543 0.458341 0.068871
0.390952 0.454177 0.065247
0.488384 0.457698 0.064352
0.576034 0.473087 0.072914
0.648345 0.489850 0.084886
0.711019 0.502371 0.093959
0.767949 0.511416 0.099247
0.820974 0.518446 0.102213
0.869706 0.524640 0.104488
0.917934 0.530123 0.106027
0.967795 0.534548 0.106190
1.000000 0.538293 0.105760
0.024770 0.530907 0.042549
0.069612 0.535652 0.049386
0.125148 0.537412 0.053938
0.198446 0.533681 0.053713
0.281661 0.526809 0.051303
0.368304 0.520613 0.048513
0.461476 0.519274 0.048190
0.554103 0.528962 0.056940
0.631915 0.545315 0.072738
0.699073 0.559947 0.086358
0.758741 0.570371 0.094900
0.813577 0.578175 0.100110
0.863533 0.584729 0.103846
0.912571 0.590326 0.106564
0.962883 0.595159 0.108063
1.000000 0.599114 0.108622
0.012014 0.598530 0.026890
0.058222 0.603100 0.033792
0.113330 0.605185 0.039488
0.185956 0.602097 0.041295
0.268951 0.595545 0.040012
0.353207 0.588477 0.037979
0.441178 0.584314 0.038917
0.532678 0.586315 0.045836
0.614075 0.596557 0.060122
0.684798 0.609816 0.075019
0.748098 0.621692 0.086345
0.805467 0.631057 0.094260
0.857054 0.638477 0.100173
0.907415 0.644877 0.104932
0.958748 0.650302 0.108111
0.999997 0.654867 0.109703
0.005787 0.664555 0.017847
0.052970 0.669090 0.025919
0.107896 0.671611 0.033209
0.180089 0.668987 0.036388
0.262978 0.662470 0.035883
0.346374 0.654836 0.034416
0.429447 0.648507 0.036080
0.516597 0.645214 0.040917
0.598372 0.648627 0.050769
0.669811 0.657612 0.063283
0.735434 0.668697 0.075335
0.795190 0.679006 0.085527
0.848486 0.687394 0.093479
0.900894 0.694628 0.099774
0.954254 0.701012 0.104505
0.999961 0.706596 0.107460
0.005822 0.728632 0.015501
0.054026 0.732881 0.025048
0.108577 0.734954 0.033746
0.178883 0.732044 0.037902
0.260179 0.725216 0.038015
0.342592 0.717057 0.036481
0.422002 0.709554 0.035318
0.504663 0.703467 0.037501
0.584908 0.701823 0.044008
0.656457 0.706391 0.053638
0.722649 0.714836 0.064654
0.783812 0.724469 0.075729
0.838611 0.733190 0.085080
0.892829 0.741191 0.092401
0.948689 0.748736 0.098332
0.999916 0.755191 0.102893
0.011308 0.788870 0.019752
0.059635 0.792040 0.029475
0.112970 0.793305 0.038137
0.180681 0.790056 0.042315
0.259623 0.782856 0.042043
0.340276 0.774616 0.039950
0.417651 0.766756 0.037550
0.497120 0.759644 0.036091
0.575828 0.755429 0.039408
0.646678 0.756525 0.047247
0.712271 0.761854 0.056942
0.773770 0.769589 0.067728
0.829191 0.777749 0.077107
0.884392 0.785735 0.084746
0.942285 0.793514 0.091305
0.998445 0.800812 0.097294
0.020934 0.843592 0.029113
0.068249 0.846050 0.038368
0.120506 0.846703 0.046101
0.186860 0.843034 0.049326
0.264277 0.835909 0.048373
0.343289 0.827900 0.045753
0.419332 0.820045 0.042652
0.496719 0.812440 0.039831
0.573583 0.807009 0.040064
0.643133 0.806070 0.046777
0.707642 0.809151 0.055259
0.768371 0.814802 0.064455
0.823434 0.821511 0.072521
0.878392 0.828517 0.079638
0.936895 0.835912 0.086269
0.994016 0.843275 0.092832
0.029311 0.895830 0.037645
0.075727 0.897904 0.045984
0.126851 0.898418 0.052725
0.192128 0.894724 0.055212
0.268073 0.887715 0.053543
0.345836 0.879808 0.050451
0.421000 0.872157 0.047160
0.496709 0.864021 0.043487
0.571549 0.857442 0.041726
0.639578 0.854572 0.045582
0.702431 0.855314 0.052673
0.762067 0.858790 0.060036
0.816339 0.863869 0.066782
0.870828 0.869980 0.073420
0.929669 0.876943 0.080279
0.988104 0.884576 0.087277
0.033923 0.947624 0.041213
0.079639 0.949608 0.048898
0.129623 0.950260 0.055327
0.192623 0.946856 0.057517
0.266638 0.939829 0.055505
0.342871 0.931668 0.051841
0.416605 0.923638 0.048053
0.490530 0.914966 0.043596
0.564212 0.907186 0.040066
0.632054 0.902633 0.040027
0.694073 0.901617 0.044290
0.752628 0.903233 0.051498
0.806427 0.907057 0.058142
0.860342 0.912189 0.064563
0.919235 0.918612 0.071754
0.979363 0.926532 0.079772
0.036751 0.998828 0.042708
0.081698 0.999906 0.049317
0.129918 0.999910 0.055184
0.189758 0.997115 0.057544
0.261287 0.990051 0.055256
0.335963 0.981768 0.051302
0.408622 0.973703 0.047089
0.481958 0.965143 0.042412
0.554569 0.956854 0.037847
0.623467 0.951290 0.036022
0.685647 0.949364 0.037517
0.744040 0.950048 0.041487
0.797385 0.952948 0.049307
0.851266 0.957406 0.057086
0.909757 0.962984 0.064594
0.970729 0.970159 0.072524
0.061252 0.055896 0.148450
0.105678 0.060329 0.145596
0.156373 0.064349 0.137803
0.218940 0.067102 0.135213
0.291268 0.070058 0.134570
0.367940 0.074383 0.135075
0.449099 0.078579 0.135538
0.532205 0.081778 0.135367
0.606913 0.084616 0.135100
0.675925 0.087154 0.134430
0.743622 0.089672 0.133927
0.809444 0.092032 0.133028
0.870821 0.094966 0.132706
0.930394 0.098281 0.132002
0.970737 0.100872 0.130242
1.000000 0.103084 0.127451
0.059136 0.114438 0.150611
0.107262 0.119486 0.152494
0.166104 0.124234 0.149513
0.233205 0.130037 0.148632
0.310415 0.136247 0.151192
0.394597 0.142134 0.152496
0.486054 0.145023 0.150573
0.569802 0.147386 0.147259
0.641963 0.149679 0.143205
0.707380 0.151514 0.138125
0.771546 0.153104 0.135426
0.832294 0.155794 0.131801
0.887752 0.159908 0.129519
0.939655 0.163879 0.129956
0.970737 0.167498 0.128065
1.000000 0.171126 0.124881
0.065179 0.179308 0.149865
0.116422 0.185625 0.156627
0.177742 0.191818 0.160832
0.247546 0.199087 0.162140
0.325666 0.205671 0.161220
0.414210 0.208522 0.155629
0.505060 0.208848 0.147132
0.583161 0.211269 0.141312
0.652837 0.214414 0.137513
0.717180 0.217094 0.134482
0.778836 0.219635 0.131805
0.838625 0.223012 0.130269
0.893819 0.227921 0.130668
0.940971 0.233185 0.131684
0.970737 0.238334 0.132385
1.000000 0.243364 0.133207
0.071990 0.251143 0.150003
0.121697 0.258003 0.156964
0.182166 0.262184 0.161605
0.255673 0.266884 0.164324
0.336979 0.271352 0.162046
0.425298 0.272031 0.153209
0.511667 0.272453 0.144342
0.586876 0.275897 0.139375
0.655942 0.280733 0.137130
0.720520 0.285436 0.135949
0.782205 0.289590 0.134962
0.841835 0.294566 0.135308
0.896840 0.301273 0.138223
0.941474 0.308515 0.142015
0.970737 0.315080 0.145039
1.000000 0.321466 0.148077
0.070027 0.323685 0.148974
0.116339 0.330001 0.154079
0.174519 0.332558 0.155948
0.247488 0.331705 0.154633
0.333649 0.332020 0.152600
0.429291 0.333293 0.148078
0.516438 0.336588 0.143473
0.590639 0.343606 0.141605
0.659039 0.351932 0.141984
0.722913 0.360070 0.143387
0.782993 0.366162 0.144105
0.840458 0.372659 0.146123
0.892802 0.380296 0.150104
0.940107 0.387682 0.154014
0.970737 0.393696 0.156465
1.000000 0.399110 0.158239
0.058605 0.393694 0.139085
0.103721 0.399372 0.142984
0.160830 0.401172 0.144222
0.234395 0.398114 0.142240
0.318094 0.393803 0.138716
0.413833 0.392325 0.134799
0.510222 0.398650 0.134221
0.589864 0.412280 0.139222
0.658648 0.426882 0.146089
0.719972 0.437937 0.150761
0.776823 0.445234 0.152700
0.830649 0.451427 0.154041
0.880022 0.457855 0.156234
0.928733 0.463780 0.158000
0.970521 0.468318 0.158132
1.000000 0.472469 0.157908
0.041938 0.462640 0.122527
0.086651 0.467942 0.126120
0.143144 0.469772 0.127928
0.217612 0.466097 0.126665
0.300701 0.459575 0.123388
0.390532 0.454514 0.118980
0.488202 0.457649 0.117367
0.576721 0.474543 0.126511
0.650026 0.493970 0.141392
0.711965 0.506913 0.150825
0.768070 0.515193 0.155007
0.820798 0.521409 0.156909
0.869535 0.527125 0.158751
0.917704 0.532177 0.159638
0.967621 0.536207 0.159248
1.000000 0.539595 0.158285
0.023515 0.531449 0.102788
0.068979 0.536707 0.107763
0.124870 0.538707 0.111000
0.198788 0.535391 0.110465
0.282268 0.528509 0.107564
0.368405 0.521473 0.103812
0.461190 0.519568 0.101899
0.554982 0.530012 0.110070
0.634233 0.548986 0.127506
0.700779 0.563748 0.141764
0.759854 0.573831 0.150652
0.814190 0.581375 0.155764
0.863841 0.587401 0.159052
0.912602 0.592804 0.161721
0.962711 0.597181 0.162503
1.000000 0.600738 0.162055
0.011070 0.598555 0.088213
0.057486 0.603574 0.094752
0.113019 0.606237 0.100013
0.186144 0.603514 0.100928
0.269665 0.597099 0.098732
0.353761 0.589793 0.095401
0.441069 0.584597 0.093705
0.532771 0.586456 0.098709
0.615049 0.597751 0.112338
0.686296 0.612149 0.127467
0.749687 0.624481 0.139946
0.806855 0.633981 0.149057
0.858033 0.641261 0.155675
0.908129 0.647351 0.160600
0.959198 0.652606 0.163350
0.999999 0.656880 0.164203
0.005187 0.664415 0.079424
0.052745 0.669463 0.087938
0.107792 0.672350 0.095230
0.180051 0.669849 0.098009
0.263339 0.663487 0.097300
0.346988 0.655827 0.094919
0.429232 0.648766 0.093077
0.516041 0.644899 0.094317
0.597894 0.648258 0.101983
0.670269 0.658203 0.113949
0.736510 0.670406 0.126441
0.796689 0.681392 0.138059
0.850042 0.689942 0.147356
0.902195 0.697060 0.154571
0.955314 0.703408 0.159641
0.999969 0.708724 0.162471
0.005703 0.728664 0.077007
0.054228 0.733004 0.086830
0.108692 0.735285 0.095468
0.178851 0.732517 0.099529
0.260235 0.725703 0.099286
0.342750 0.717613 0.097345
0.421678 0.709591 0.094635
0.503669 0.702923 0.093261
0.583973 0.700938 0.095931
0.656095 0.706073 0.104025
0.722961 0.715293 0.114737
0.784883 0.725783 0.126445
0.840005 0.735127 0.136494
0.894450 0.743369 0.144950
0.950149 0.750934 0.152360
0.999928 0.757414 0.157738
0.011452 0.788724 0.080098
0.059949 0.791853 0.090177
0.112987 0.793164 0.098793
0.180380 0.790146 0.102857
0.259311 0.783065 0.102318
0.340109 0.774911 0.099969
0.417414 0.766841 0.096918
0.496238 0.759066 0.093894
0.574731 0.754534 0.093903
0.645809 0.755686 0.098340
0.711897 0.761466 0.106779
0.774148 0.770015 0.117386
0.830083 0.778798 0.126886
0.885702 0.787297 0.135170
0.943582 0.795422 0.143390
0.999212 0.802722 0.150875
0.020975 0.843271 0.088874
0.068278 0.845648 0.097952
0.120304 0.846450 0.105683
0.186413 0.843060 0.108889
0.263743 0.836084 0.107751
0.342854 0.828001 0.104786
0.419117 0.820196 0.101437
0.495976 0.812066 0.097537
0.572369 0.806279 0.095809
0.642031 0.805188 0.098394
0.706823 0.808359 0.105031
0.767981 0.814443 0.113388
0.823535 0.821649 0.121278
0.878992 0.829270 0.128756
0.937895 0.837152 0.136549
0.995126 0.844913 0.144760
0.028884 0.895286 0.096234
0.075364 0.897401 0.104592
0.126399 0.898113 0.111422
0.191493 0.894756 0.114038
0.267452 0.887872 0.112356
0.345289 0.879947 0.108941
0.420544 0.872162 0.105143
0.495916 0.863708 0.100819
0.570277 0.856607 0.097801
0.638223 0.853448 0.098608
0.701198 0.854169 0.102834
0.761225 0.857927 0.108977
0.815878 0.863305 0.115183
0.870762 0.869996 0.121739
0.930206 0.877582 0.129232
0.989127 0.885909 0.137857
0.033563 0.947244 0.098932
0.079310 0.949184 0.106669
0.128884 0.949816 0.113059
0.191748 0.946752 0.115602
0.265761 0.939846 0.113558
0.341951 0.931680 0.109688
0.415863 0.923558 0.105569
0.489701 0.914768 0.100825
0.562840 0.906436 0.096587
0.630572 0.901482 0.095691
0.692556 0.900333 0.097895
0.751396 0.902161 0.102004
0.805483 0.906196 0.107145
0.859914 0.911792 0.113169
0.919532 0.918970 0.120463
0.980115 0.927468 0.128707
0.036124 0.998357 0.098291
0.081289 0.999681 0.105500
0.129323 0.999811 0.111743
0.188648 0.996936 0.114304
0.260228 0.989972 0.111843
0.334827 0.981688 0.107608
0.407746 0.973615 0.103174
0.481253 0.965035 0.098402
0.554019 0.956506 0.093854
0.622282 0.950506 0.091762
0.684251 0.948258 0.092855
0.742658 0.948908 0.095975
0.796433 0.952062 0.100649
0.850525 0.956810 0.106391
0.909631 0.962889 0.113363
0.970966 0.970374 0.120899
0.060501 0.055559 0.207725
0.108140 0.058920 0.204232
0.162020 0.062304 0.192610
0.223491 0.065427 0.184849
0.295363 0.068443 0.183483
0.371912 0.072722 0.183781
0.454037 0.077311 0.184932
0.538244 0.081415 0.186006
0.613260 0.085143 0.187191
0.682958 0.087961 0.187581
0.750553 0.090223 0.187490
0.816177 0.092299 0.187048
0.877378 0.095263 0.187418
0.936295 0.098511 0.187427
0.970737 0.101176 0.186169
1.000000 0.103441 0.183759
0.056334 0.115278 0.210478
0.110071 0.118575 0.210829
0.170980 0.122611 0.204236
0.236812 0.128462 0.197820
0.313111 0.134299 0.199852
0.398115 0.140236 0.202216
0.490114 0.143675 0.201800
0.574513 0.146998 0.200836
0.647792 0.150088 0.198589
0.714111 0.152069 0.195203
0.777410 0.154035 0.191822
0.838255 0.156524 0.189036
0.894007 0.160551 0.188190
0.940959 0.164848 0.187807
0.970737 0.168386 0.186351
1.000000 0.172021 0.184881
0.058768 0.183009 0.201480
0.112434 0.187902 0.213315
0.176835 0.191571 0.215598
0.248352 0.197265 0.211302
0.326445 0.203245 0.211248
0.416170 0.206342 0.208092
0.507794 0.207410 0.202005
0.586901 0.210670 0.199031
0.657289 0.214868 0.196271
0.722407 0.218411 0.194224
0.784607 0.220941 0.192357
0.844198 0.224419 0.190958
0.899330 0.229388 0.192234
0.941474 0.234982 0.193765
0.970737 0.239872 0.195193
1.000000 0.245387 0.195226
0.066140 0.254595 0.202975
0.116812 0.261604 0.210100
0.180092 0.264371 0.213986
0.253358 0.266315 0.216091
0.331772 0.269573 0.213878
0.419980 0.269954 0.206553
0.509285 0.270163 0.199389
0.586659 0.274102 0.196851
0.657645 0.280074 0.196997
0.724337 0.286452 0.197992
0.787060 0.291573 0.197993
0.846822 0.296625 0.198674
0.901835 0.303534 0.202221
0.941474 0.310687 0.206113
0.970737 0.317283 0.209088
1.000000 0.323446 0.211623
0.065815 0.326338 0.201816
0.112998 0.332674 0.207247
0.173298 0.334482 0.209725
0.247227 0.332388 0.208912
0.331235 0.331360 0.207761
0.423330 0.332009 0.204643
0.510519 0.334264 0.200394
0.586416 0.340605 0.198998
0.657061 0.349636 0.200834
0.723606 0.359764 0.204380
0.785654 0.368247 0.207258
0.843377 0.374919 0.209324
0.895627 0.382351 0.213161
0.940670 0.389446 0.216668
0.970737 0.395272 0.218642
1.000000 0.400603 0.219887
0.055451 0.395326 0.193227
0.101197 0.401109 0.197339
0.159545 0.402888 0.199203
0.234340 0.399618 0.197710
0.317270 0.394305 0.194580
0.411219 0.391781 0.192060
0.507329 0.397194 0.194064
0.586740 0.409828 0.199797
0.656140 0.424900 0.206048
0.718856 0.438081 0.211274
0.776830 0.447280 0.213986
0.830915 0.453168 0.214929
0.880471 0.459327 0.216631
0.929399 0.464820 0.217849
0.970556 0.469316 0.217816
1.000000 0.473138 0.217269
0.039590 0.463533 0.177684
0.084835 0.469351 0.181573
0.141844 0.471329 0.183777
0.217278 0.467948 0.182761
0.301031 0.461269 0.180007
0.389253 0.454765 0.175967
0.486658 0.456589 0.175525
0.575958 0.473612 0.187974
0.649095 0.494014 0.203636
0.711572 0.509107 0.212951
0.767894 0.518231 0.216377
0.820381 0.523809 0.217013
0.869093 0.528904 0.217851
0.917332 0.533485 0.218156
0.967441 0.537124 0.217307
1.000000 0.540116 0.216314
0.021999 0.531919 0.158985
0.067784 0.537505 0.164066
0.123924 0.540152 0.167742
0.198710 0.537313 0.167611
0.282990 0.530746 0.164986
0.368499 0.522833 0.161231
0.460012 0.518979 0.158556
0.554456 0.529083 0.167752
0.634456 0.549760 0.188969
0.701828 0.566742 0.205305
0.760789 0.577369 0.213270
0.814629 0.584358 0.216726
0.863933 0.590018 0.219064
0.912356 0.594872 0.220403
0.962318 0.598752 0.220364
1.000000 0.602049 0.219711
0.010035 0.598694 0.145231
0.056942 0.604114 0.151872
0.112260 0.607281 0.157263
0.186211 0.605276 0.158681
0.270439 0.599116 0.156807
0.354892 0.591677 0.153408
0.440638 0.584950 0.150532
0.531915 0.585584 0.153962
0.615245 0.597936 0.169401
0.687611 0.614308 0.188611
0.751085 0.627586 0.202665
0.807914 0.637024 0.211231
0.858884 0.644090 0.216736
0.908644 0.649970 0.220353
0.959253 0.654778 0.221866
0.999999 0.658777 0.221789
0.004735 0.664548 0.137347
0.052377 0.669625 0.145378
0.107347 0.672879 0.152704
0.180086 0.671191 0.156094
0.263677 0.664898 0.155167
0.347760 0.657279 0.152818
0.429353 0.649362 0.149755
0.514948 0.644229 0.149009
0.597239 0.647514 0.155801
0.670552 0.658582 0.169727
0.737496 0.671979 0.185675
0.797939 0.683709 0.199612
0.851301 0.692490 0.208949
0.903423 0.699689 0.215348
0.956138 0.705853 0.219123
0.999977 0.710995 0.220920
0.005485 0.728600 0.135367
0.054189 0.732902 0.144431
0.108585 0.735392 0.152864
0.178708 0.733235 0.157219
0.260190 0.726537 0.156745
0.342686 0.718391 0.154287
0.421749 0.710155 0.151048
0.502841 0.702382 0.147801
0.582648 0.699881 0.149025
0.655236 0.705132 0.156768
0.723030 0.715419 0.169227
0.785663 0.727015 0.184250
0.841172 0.736878 0.196457
0.895758 0.745483 0.205709
0.951379 0.753277 0.212687
0.999940 0.759713 0.217421
0.011237 0.788441 0.138286
0.059835 0.791402 0.147255
0.112820 0.793025 0.155626
0.179937 0.790510 0.159856
0.259056 0.783651 0.159168
0.339669 0.775479 0.156359
0.417315 0.767386 0.153019
0.495494 0.758893 0.148686
0.573307 0.753472 0.146923
0.644485 0.754366 0.150374
0.711246 0.760670 0.158999
0.774079 0.769990 0.171186
0.830602 0.779549 0.183271
0.886686 0.788518 0.194078
0.944772 0.797169 0.203613
0.999693 0.804595 0.210984
0.020648 0.842722 0.145835
0.068120 0.845111 0.154113
0.119874 0.846183 0.161425
0.185705 0.843336 0.164871
0.263162 0.836592 0.163719
0.342345 0.828557 0.160515
0.418805 0.820701 0.156737
0.495565 0.812134 0.152040
0.571200 0.805535 0.148858
0.640567 0.803915 0.150309
0.705455 0.807087 0.156230
0.767239 0.813646 0.165237
0.823314 0.821430 0.174843
0.879263 0.829618 0.184876
0.938577 0.838154 0.195313
0.996074 0.846385 0.204798
0.028431 0.894730 0.152207
0.075150 0.896921 0.159872
0.125920 0.897879 0.166488
0.190451 0.894962 0.169189
0.266632 0.888369 0.167522
0.344531 0.880410 0.163909
0.419949 0.872539 0.159916
0.495615 0.863889 0.155126
0.569015 0.856031 0.150817
0.636625 0.852169 0.150416
0.699614 0.852623 0.153710
0.759819 0.856599 0.159713
0.814983 0.862497 0.166614
0.870496 0.869693 0.175017
0.930553 0.878024 0.185586
0.989850 0.886965 0.196614
0.032706 0.946537 0.154563
0.078696 0.948574 0.161613
0.128248 0.949553 0.167957
0.190463 0.946807 0.170589
0.264502 0.940080 0.168543
0.340803 0.931900 0.164673
0.414633 0.923636 0.160319
0.489122 0.914790 0.155206
0.561791 0.906050 0.150299
0.629036 0.900499 0.148134
0.690865 0.898920 0.149216
0.749895 0.900702 0.152737
0.804285 0.905017 0.157699
0.859140 0.911024 0.164316
0.919388 0.918874 0.173481
0.980627 0.928156 0.185148
0.035103 0.997665 0.155168
0.080487 0.998819 0.161139
0.128390 0.999313 0.167061
0.187018 0.996591 0.169865
0.258559 0.989923 0.167902
0.333528 0.981746 0.163806
0.406382 0.973606 0.159133
0.480166 0.964916 0.154154
0.553251 0.956350 0.149117
0.621152 0.949823 0.145749
0.682920 0.947179 0.145490
0.741324 0.947677 0.147467
0.795181 0.950905 0.151393
0.849523 0.955724 0.156836
0.908893 0.962218 0.164306
0.971172 0.970592 0.174032
0.055283 0.055315 0.280031
0.105024 0.058041 0.276210
0.164043 0.059864 0.264318
0.228259 0.062518 0.247387
0.299501 0.065329 0.241036
0.375821 0.069397 0.239904
0.458005 0.074045 0.240724
0.542132 0.078835 0.242582
0.618156 0.083752 0.245645
0.688519 0.086896 0.247307
0.756333 0.089183 0.248182
0.822282 0.091354 0.248931
0.883339 0.094382 0.250852
0.938967 0.097716 0.252193
0.970737 0.100313 0.251655
1.000000 0.102621 0.250184
0.047374 0.116168 0.281844
0.104506 0.119128 0.284973
0.171753 0.120944 0.276859
0.241746 0.125450 0.260592
0.316483 0.130809 0.257278
0.400853 0.136296 0.259168
0.493371 0.140233 0.260794
0.577775 0.144332 0.262598
0.652551 0.148442 0.263547
0.720114 0.151400 0.262008
0.783478 0.153445 0.259441
0.844256 0.156117 0.257494
0.899671 0.160301 0.257436
0.941474 0.164774 0.257863
0.970737 0.168529 0.256956
1.000000 0.172189 0.255869
0.043959 0.187176 0.261024
0.098484 0.191777 0.282353
0.174922 0.191648 0.289034
0.253380 0.193928 0.275806
0.329828 0.199278 0.270650
0.418947 0.202467 0.269067
0.511129 0.204537 0.266310
0.590280 0.208924 0.265381
0.661992 0.214021 0.265269
0.728325 0.218689 0.264766
0.790882 0.221933 0.263245
0.850457 0.225487 0.262432
0.905475 0.230524 0.263837
0.941474 0.236204 0.265827
0.970737 0.241252 0.266833
1.000000 0.246675 0.268040
0.054521 0.258644 0.248057
0.102418 0.266506 0.263915
0.165724 0.269039 0.277507
0.249411 0.265516 0.280557
0.329499 0.266489 0.273778
0.418200 0.266765 0.268725
0.509272 0.267327 0.263880
0.588193 0.272009 0.263190
0.660314 0.278733 0.264370
0.728523 0.286491 0.266619
0.793717 0.293452 0.269532
0.853597 0.298843 0.270721
0.907464 0.305907 0.273515
0.941474 0.312837 0.277378
0.970737 0.319283 0.279644
1.000000 0.325235 0.282652
0.055172 0.327830 0.259645
0.101643 0.335017 0.268782
0.163581 0.337317 0.273265
0.244031 0.333385 0.272786
0.327440 0.330060 0.272107
0.414611 0.329582 0.268113
0.502876 0.330172 0.262297
0.581758 0.335666 0.260986
0.654994 0.345141 0.263529
0.724255 0.356830 0.268720
0.789081 0.368484 0.274271
0.847952 0.377043 0.277872
0.900005 0.384290 0.281191
0.941197 0.391123 0.284173
0.970737 0.396705 0.285639
1.000000 0.401606 0.286393
0.047214 0.395771 0.253370
0.093302 0.402388 0.259018
0.152978 0.404649 0.262283
0.232120 0.400865 0.262211
0.316251 0.394823 0.260275
0.407372 0.390569 0.259261
0.501066 0.393881 0.260243
0.579941 0.403844 0.262007
0.650695 0.417574 0.265741
0.716135 0.432246 0.271119
0.776567 0.444983 0.275819
0.832267 0.453926 0.278544
0.882212 0.460216 0.280161
0.931314 0.465594 0.281122
0.970696 0.469785 0.280838
1.000000 0.473522 0.280187
0.033959 0.463213 0.238373
0.079551 0.469566 0.243314
0.137230 0.472500 0.247076
0.215133 0.469383 0.247559
0.300607 0.462989 0.246009
0.388034 0.455231 0.243323
0.483785 0.454460 0.244318
0.572631 0.469500 0.254707
0.645334 0.489064 0.265683
0.708351 0.505187 0.272972
0.766036 0.517073 0.276775
0.819806 0.524677 0.278119
0.868859 0.529785 0.278633
0.917413 0.534023 0.278656
0.967728 0.537300 0.277785
1.000000 0.540244 0.276768
0.018070 0.531025 0.219884
0.064186 0.537229 0.225864
0.120583 0.540808 0.230976
0.196921 0.538800 0.232299
0.282723 0.532994 0.230555
0.369248 0.525060 0.228084
0.458497 0.518429 0.225846
0.552019 0.526007 0.235163
