cube/brown.cube
LUT_3D_SIZE 16
0.108457 0.098021 0.113222
0.111809 0.097903 0.113073
0.124314 0.097888 0.112496
0.141798 0.100841 0.111397
0.167670 0.107506 0.114653
0.205424 0.117560 0.122120
0.252406 0.131555 0.133446
0.305426 0.148894 0.148425
0.361235 0.168412 0.165706
0.417181 0.189015 0.184309
0.470932 0.209482 0.202930
0.521549 0.229133 0.221171
0.568332 0.247489 0.238142
0.610204 0.264005 0.253521
0.646000 0.278338 0.266810
0.676252 0.290350 0.278106
0.108214 0.101035 0.112801
0.111980 0.100688 0.112563
0.124262 0.100666 0.112535
0.140805 0.103930 0.111917
0.167246 0.110201 0.115511
0.205283 0.119785 0.122860
0.252410 0.133410 0.134117
0.305476 0.150433 0.148985
0.361265 0.169691 0.166131
0.417209 0.190113 0.184684
0.470914 0.210359 0.203264
0.521660 0.229873 0.221332
0.568400 0.248182 0.238348
0.610278 0.264660 0.253730
0.645973 0.278901 0.267003
0.676271 0.290865 0.278275
0.108373 0.111856 0.111950
0.112014 0.112049 0.112020
0.121200 0.113346 0.113081
0.138542 0.115575 0.115460
0.166915 0.120509 0.119128
0.205621 0.128854 0.126093
0.252901 0.141252 0.136927
0.305957 0.157031 0.151323
0.361626 0.175185 0.168050
0.417563 0.194784 0.186267
0.471219 0.214516 0.204624
0.521930 0.233482 0.222598
0.568625 0.251386 0.239467
0.610418 0.267534 0.254708
0.646286 0.281502 0.267893
0.676460 0.293183 0.279070
0.126277 0.129765 0.120547
0.127950 0.129812 0.122002
0.133808 0.131664 0.121283
0.147839 0.136503 0.122202
0.172694 0.140550 0.127245
0.209552 0.147115 0.133137
0.255500 0.157350 0.143025
0.307718 0.171016 0.156444
0.362850 0.187290 0.172392
0.418452 0.205334 0.190033
0.471916 0.223681 0.208037
0.522427 0.241770 0.225530
0.569014 0.258803 0.242059
0.610816 0.274282 0.257140
0.646540 0.287512 0.270051
0.676682 0.298582 0.280982
0.153064 0.158699 0.139483
0.154155 0.158812 0.140424
0.158285 0.159948 0.141981
0.170391 0.163324 0.136495
0.190004 0.171310 0.137137
0.220686 0.178855 0.148050
0.263223 0.185997 0.156114
0.313026 0.196202 0.167238
0.366747 0.209360 0.181383
0.421233 0.224494 0.197379
0.474025 0.240677 0.214316
0.524041 0.256982 0.231117
0.570391 0.272627 0.247125
0.611966 0.286859 0.261633
0.647454 0.298744 0.274148
0.677497 0.308703 0.284652
0.190473 0.199220 0.168032
0.191193 0.199288 0.168676
0.194338 0.199921 0.170616
0.201907 0.202453 0.170457
0.221465 0.207143 0.160104
0.247318 0.218888 0.160358
0.281663 0.230705 0.178716
0.326867 0.237700 0.188533
0.376868 0.246290 0.199314
0.428648 0.257098 0.212371
0.479337 0.269640 0.226758
0.528198 0.283119 0.241777
0.573725 0.296344 0.256412
0.614670 0.308281 0.269900
0.649664 0.318054 0.281375
0.679154 0.325917 0.290979
0.239008 0.251347 0.206355
0.239572 0.251365 0.206804
0.241953 0.251674 0.208521
0.247332 0.253101 0.210298
0.259159 0.257155 0.207959
0.287498 0.263358 0.191843
0.318646 0.278688 0.191891
0.353389 0.294726 0.218640
0.399134 0.301642 0.230396
0.446203 0.307894 0.239866
0.492632 0.315117 0.249923
0.538104 0.323696 0.261152
0.581431 0.333202 0.273137
0.620829 0.341981 0.284546
0.654602 0.348570 0.294112
0.683339 0.353366 0.302115
0.297244 0.313181 0.253443
0.297615 0.313211 0.253812
0.299440 0.313362 0.255134
0.303475 0.314146 0.257266
0.311697 0.316840 0.258371
0.329528 0.322722 0.253236
0.366525 0.330463 0.231603
0.401851 0.348799 0.230920
0.433052 0.367772 0.264709
0.478442 0.377200 0.280912
0.520809 0.381373 0.289243
0.559727 0.383267 0.294681
0.598134 0.386985 0.301719
0.633869 0.390679 0.309019
0.665055 0.392457 0.315129
0.691394 0.393023 0.320181
0.362932 0.382724 0.307431
0.363091 0.382627 0.307689
0.364601 0.382767 0.308754
0.367682 0.383070 0.310691
0.373818 0.384687 0.312926
0.385998 0.388950 0.312769
0.411091 0.396926 0.304598
0.455347 0.406456 0.278012
0.493517 0.426268 0.275441
0.519746 0.447769 0.314597
0.562438 0.461791 0.337339
0.598240 0.462909 0.343993
0.629647 0.460044 0.345754
0.659423 0.457208 0.347428
0.685158 0.452744 0.348383
0.707577 0.447249 0.348766
0.434529 0.458177 0.366772
0.434659 0.458126 0.366920
0.435785 0.458199 0.367785
0.438283 0.458161 0.369482
0.443064 0.459116 0.371865
0.452151 0.461817 0.373712
0.469491 0.468212 0.371887
0.501834 0.478045 0.360517
0.550976 0.489169 0.330356
0.583689 0.501974 0.317205
0.608241 0.528302 0.361268
0.642633 0.544237 0.389367
0.675407 0.547139 0.399630
0.700191 0.540782 0.399648
0.719502 0.529764 0.395380
0.735499 0.517347 0.390158
0.510003 0.537467 0.429861
0.510076 0.537398 0.430057
0.510994 0.537302 0.430636
0.512847 0.537191 0.432000
0.516701 0.537625 0.434203
0.523903 0.539280 0.436750
0.536726 0.543841 0.437874
0.559998 0.552539 0.433939
0.598644 0.563941 0.418875
0.641776 0.568363 0.380287
0.672030 0.576178 0.357819
0.691238 0.600511 0.397454
0.717399 0.618332 0.431251
0.745800 0.625023 0.448377
0.765016 0.616473 0.449478
0.776520 0.600310 0.442330
0.585958 0.617051 0.494017
0.586037 0.616988 0.494087
0.586717 0.616888 0.494648
0.588279 0.616764 0.495744
0.591348 0.616793 0.497659
0.597132 0.617777 0.500201
0.607360 0.620820 0.502659
0.624977 0.627674 0.502306
0.653993 0.638288 0.495493
0.696557 0.650656 0.478178
0.727972 0.644837 0.429976
0.756506 0.648559 0.399340
0.771375 0.668093 0.429387
0.788426 0.684501 0.464663
0.805518 0.688944 0.484886
0.820754 0.682458 0.490725
0.658489 0.693233 0.555992
0.658625 0.693205 0.556073
0.659112 0.693141 0.556439
0.660549 0.692907 0.557416
0.662968 0.692830 0.559064
0.667745 0.693204 0.561550
0.676056 0.695210 0.564282
0.689963 0.700156 0.565727
0.712594 0.708908 0.563133
0.746296 0.720934 0.553739
0.780006 0.723692 0.525375
0.808168 0.715894 0.476188
0.833653 0.716080 0.440671
0.844251 0.728123 0.457547
0.850884 0.739518 0.490077
0.858730 0.742244 0.512351
0.723686 0.761742 0.612281
0.723703 0.761746 0.612322
0.724222 0.761757 0.612705
0.725303 0.761553 0.613580
0.727514 0.761125 0.614899
0.731360 0.761049 0.617078
0.738215 0.762279 0.619804
0.749781 0.766163 0.622171
0.768008 0.773086 0.622017
0.795185 0.783731 0.617022
0.828766 0.793599 0.603711
0.852031 0.785523 0.563548
0.878997 0.778183 0.516232
0.901095 0.775429 0.478227
0.905976 0.778416 0.482046
0.904899 0.785201 0.509590
0.776251 0.817441 0.658298
0.776307 0.817369 0.658363
0.776667 0.817063 0.658652
0.777793 0.816939 0.659380
0.779455 0.816364 0.660462
0.782936 0.816440 0.662480
0.788733 0.816902 0.664910
0.798322 0.819352 0.667426
0.813533 0.825048 0.668853
0.835556 0.834206 0.667239
0.865846 0.845643 0.660387
0.887703 0.842198 0.632147
0.910868 0.834047 0.591285
0.936937 0.827603 0.545533
0.955820 0.822961 0.507886
0.956527 0.820348 0.504242
0.817345 0.860777 0.694588
0.817234 0.860738 0.694617
0.817664 0.860447 0.694885
0.818360 0.860090 0.695417
0.819737 0.859758 0.696390
0.822868 0.859445 0.698134
0.827486 0.859517 0.700459
0.836116 0.861400 0.703047
0.848734 0.865565 0.704717
0.867477 0.873211 0.704369
0.892133 0.883054 0.701120
0.915362 0.885637 0.683662
0.934905 0.878849 0.650005
0.958325 0.870987 0.608861
0.982747 0.865268 0.565217
0.999753 0.860513 0.530287
0.107867 0.098131 0.115901
0.111852 0.097715 0.115740
0.124404 0.097610 0.115067
0.143625 0.099647 0.113342
0.168817 0.106463 0.115689
0.205976 0.116631 0.122756
0.252663 0.130672 0.133836
0.305760 0.148101 0.148686
0.361389 0.167729 0.165869
0.417301 0.188441 0.184434
0.471045 0.208960 0.203034
0.521633 0.228649 0.221179
0.568328 0.247038 0.238215
0.610294 0.263623 0.253578
0.645946 0.277972 0.266834
0.676233 0.290083 0.278135
0.107202 0.101314 0.115416
0.111577 0.100612 0.115785
0.124282 0.100555 0.115252
0.142699 0.103036 0.113926
0.168390 0.109580 0.116825
0.206048 0.119432 0.124035
0.252987 0.133157 0.135138
0.306105 0.150264 0.149865
0.361654 0.169484 0.166892
0.417562 0.190035 0.185325
0.471210 0.210336 0.203842
0.521898 0.229879 0.221814
0.568654 0.248118 0.238784
0.610394 0.264547 0.254082
0.646136 0.278754 0.267299
0.676258 0.290747 0.278528
0.107987 0.111428 0.114814
0.111009 0.111983 0.114348
0.121547 0.113134 0.114541
0.139097 0.115366 0.116930
0.167253 0.120364 0.120545
0.206033 0.128718 0.127336
0.253330 0.141102 0.138007
0.306445 0.156927 0.152220
0.361940 0.175062 0.168768
0.417875 0.194687 0.186898
0.471612 0.214394 0.205183
0.522164 0.233410 0.223056
0.568831 0.251275 0.239850
0.610674 0.267404 0.255028
0.646374 0.281303 0.268137
0.676500 0.293015 0.279283
0.124769 0.130300 0.119951
0.127177 0.130231 0.121936
0.133269 0.131790 0.122918
0.147624 0.136575 0.123600
0.172604 0.140354 0.128412
0.209639 0.146927 0.134224
0.255780 0.157212 0.143998
0.308121 0.170911 0.157313
0.363192 0.187151 0.173126
0.418675 0.205201 0.190629
0.472157 0.223676 0.208517
0.522650 0.241681 0.225985
0.569289 0.258660 0.242464
0.610948 0.274146 0.257457
0.646622 0.287328 0.270314
0.676626 0.298411 0.281211
0.152466 0.159085 0.139250
0.153902 0.159227 0.140663
0.158193 0.160206 0.142955
0.170059 0.163658 0.137980
0.189952 0.171550 0.138459
0.220701 0.178741 0.149041
0.263389 0.185888 0.156930
0.313318 0.196080 0.167994
0.367005 0.209250 0.181999
0.421402 0.224352 0.197981
0.474226 0.240591 0.214849
0.524270 0.256832 0.231553
0.570574 0.272498 0.247463
0.612057 0.286705 0.261927
0.647541 0.298560 0.274377
0.677560 0.308461 0.284830
0.190181 0.199635 0.168047
0.191251 0.199891 0.169102
0.194533 0.200381 0.171301
0.201953 0.202878 0.171562
0.221445 0.207666 0.161434
0.247364 0.219162 0.161505
0.281890 0.230709 0.179557
0.327085 0.237653 0.189166
0.377105 0.246137 0.199864
0.428748 0.256904 0.212800
0.479536 0.269481 0.227134
0.528394 0.282961 0.242145
0.573901 0.296162 0.256755
0.614755 0.308056 0.270136
0.649705 0.317796 0.281587
0.679173 0.325690 0.291158
0.238965 0.251739 0.206482
0.239893 0.252012 0.207334
0.242267 0.252329 0.209140
0.247673 0.253704 0.211180
0.259426 0.257753 0.208983
0.287751 0.264026 0.193083
0.318828 0.279116 0.192930
0.353721 0.294869 0.219357
0.399233 0.301608 0.230924
0.446247 0.307740 0.240270
0.492816 0.314950 0.250286
0.538197 0.323529 0.261423
0.581506 0.333020 0.273389
0.620822 0.341697 0.284720
0.654596 0.348176 0.294278
0.683355 0.353027 0.302227
0.297241 0.313533 0.253552
0.297981 0.313806 0.254267
0.299806 0.313986 0.255654
0.303823 0.314678 0.257917
0.311978 0.317323 0.259121
0.329807 0.323266 0.254138
0.366844 0.331067 0.232609
0.402159 0.349227 0.231883
0.433303 0.368073 0.265396
0.478459 0.377165 0.281268
0.520913 0.381190 0.289524
0.559746 0.383124 0.294907
0.598164 0.386779 0.301877
0.633879 0.390333 0.309147
0.664842 0.392108 0.315190
0.691357 0.392672 0.320262
0.363007 0.383051 0.307574
0.363667 0.383337 0.308214
0.365001 0.383410 0.309262
0.368160 0.383782 0.311306
0.374217 0.385131 0.313556
0.386449 0.389644 0.313537
0.411373 0.397400 0.305427
0.455756 0.407030 0.278920
0.493869 0.426824 0.276297
0.519946 0.448045 0.315181
0.562488 0.461788 0.337753
0.598312 0.462813 0.344215
0.629673 0.460025 0.345974
0.659265 0.456962 0.347564
0.685043 0.452430 0.348333
0.707513 0.446982 0.348748
0.434596 0.458367 0.366924
0.435271 0.458858 0.367461
0.436212 0.458817 0.368302
0.438527 0.458774 0.369928
0.443424 0.459734 0.372467
0.452521 0.462343 0.374355
0.469999 0.468761 0.372657
0.502242 0.478588 0.361240
0.551368 0.489800 0.331145
0.584133 0.502422 0.317929
0.608442 0.528541 0.361830
0.642830 0.544432 0.389833
0.675564 0.547232 0.399852
0.700041 0.540617 0.399699
0.719272 0.529412 0.395407
0.735351 0.516874 0.390059
0.509888 0.537434 0.429897
0.510415 0.537843 0.430421
0.511311 0.537669 0.430989
0.513152 0.537668 0.432449
0.516979 0.537978 0.434722
0.524185 0.539648 0.437297
0.537097 0.544255 0.438396
0.560215 0.552863 0.434439
0.598932 0.564395 0.419388
0.642145 0.568849 0.381064
0.672312 0.576496 0.358392
0.691492 0.600851 0.397969
0.717690 0.618478 0.431573
0.745812 0.625004 0.448619
0.764860 0.616219 0.449510
0.776388 0.599935 0.442361
0.585979 0.617241 0.493986
0.586248 0.617261 0.494407
0.586896 0.617222 0.494912
0.588459 0.617101 0.496003
0.591576 0.617125 0.497928
0.597315 0.617984 0.500515
0.607452 0.621064 0.502969
0.625107 0.627921 0.502678
0.654120 0.638499 0.495788
0.696654 0.651017 0.478604
0.728200 0.645142 0.430443
0.756792 0.648758 0.399799
0.771557 0.668363 0.429748
0.788608 0.684474 0.464979
0.805413 0.688831 0.485206
0.820710 0.682288 0.490827
0.658617 0.693378 0.556033
0.658931 0.693692 0.556392
0.659383 0.693368 0.556719
0.660763 0.693318 0.557746
0.663343 0.693147 0.559394
0.667921 0.693342 0.561857
0.676221 0.695284 0.564623
0.690228 0.700488 0.566066
0.712797 0.709454 0.563551
0.746546 0.721464 0.554257
0.780212 0.723957 0.525833
0.808390 0.716117 0.476849
0.834047 0.716275 0.441072
0.844300 0.728177 0.457912
0.850676 0.739548 0.490416
0.858725 0.742176 0.512515
0.723760 0.762017 0.612373
0.723858 0.762006 0.612595
0.724414 0.761921 0.612908
0.725438 0.761703 0.613696
0.727484 0.761139 0.615065
0.731512 0.761201 0.617251
0.738299 0.762440 0.620101
0.749830 0.766172 0.622425
0.768043 0.773419 0.622327
0.795333 0.783933 0.617332
0.828819 0.793808 0.604143
0.852274 0.785605 0.563963
0.879082 0.778366 0.516553
0.901217 0.775539 0.478542
0.905667 0.778264 0.482379
0.904783 0.785233 0.509769
0.776288 0.817560 0.658355
0.776374 0.817340 0.658401
0.776650 0.817124 0.658668
0.777915 0.817233 0.659505
0.779638 0.816753 0.660613
0.782940 0.816470 0.662614
0.788727 0.817019 0.665146
0.798381 0.819592 0.667633
0.813474 0.825319 0.669051
0.835612 0.834433 0.667392
0.865630 0.845626 0.660559
0.887793 0.842391 0.632456
0.910949 0.834343 0.591655
0.936918 0.827796 0.545770
0.955738 0.822948 0.508049
0.956483 0.820241 0.504462
0.817091 0.860685 0.694519
0.817210 0.860790 0.694626
0.817605 0.860477 0.694928
0.818352 0.860138 0.695441
0.819621 0.859776 0.696406
0.822644 0.859481 0.698132
0.827609 0.859492 0.700496
0.835999 0.861317 0.703088
0.848479 0.865403 0.704730
0.867241 0.873252 0.704504
0.891858 0.882917 0.701170
0.915234 0.885719 0.683854
0.934975 0.878913 0.650160
0.958277 0.871008 0.609022
0.982828 0.865347 0.565363
0.999615 0.860565 0.530518
0.103711 0.099070 0.125045
0.108331 0.098323 0.126316
0.125135 0.096603 0.126697
0.149130 0.096600 0.125169
0.175459 0.102968 0.123736
0.209733 0.114782 0.128996
0.254736 0.129707 0.139377
0.306872 0.147579 0.153460
0.362193 0.167382 0.169929
0.417846 0.188179 0.187916
0.471385 0.208718 0.206091
0.521902 0.228405 0.223871
0.568559 0.246869 0.240618
0.610406 0.263534 0.255778
0.646164 0.277883 0.268873
0.676282 0.290067 0.280050
0.103316 0.102056 0.124293
0.107740 0.101249 0.125695
0.124959 0.099386 0.126522
0.149010 0.099384 0.124972
0.174648 0.105865 0.123814
0.209435 0.117042 0.129308
0.254788 0.131466 0.139648
0.307169 0.149002 0.153670
0.362468 0.168488 0.170083
0.418092 0.189108 0.187970
0.471635 0.209482 0.206101
0.522160 0.229135 0.223855
0.568741 0.247445 0.240555
0.610543 0.263992 0.255725
0.646169 0.278333 0.268829
0.676265 0.290418 0.279959
0.106281 0.113314 0.123747
0.108543 0.113597 0.123590
0.123904 0.111201 0.126011
0.146229 0.112178 0.124589
0.171183 0.118189 0.125906
0.208369 0.127193 0.132035
0.255123 0.139885 0.142192
0.308054 0.156014 0.155872
0.363461 0.174395 0.171918
0.419161 0.194129 0.189552
0.472597 0.213852 0.207507
0.522805 0.232819 0.224946
0.569306 0.250646 0.241375
0.610977 0.266771 0.256384
0.646388 0.280586 0.269229
0.676544 0.292327 0.280195
0.113053 0.132240 0.124755
0.116383 0.132500 0.124031
0.130898 0.131805 0.127902
0.146392 0.136121 0.129090
0.171916 0.139158 0.133286
0.209812 0.145935 0.138833
0.256551 0.156330 0.148119
0.309249 0.170206 0.160890
0.364360 0.186581 0.176209
0.419898 0.204618 0.193261
0.473240 0.223023 0.210696
0.523395 0.240963 0.227765
0.569780 0.257868 0.243974
0.611358 0.273318 0.258656
0.646713 0.286391 0.271238
0.676875 0.297517 0.281994
0.147500 0.161083 0.138607
0.149786 0.161048 0.139889
0.157051 0.161050 0.145396
0.168060 0.164406 0.143955
0.189140 0.172088 0.143699
0.220138 0.177794 0.153107
0.263506 0.184842 0.160231
0.313964 0.195143 0.170930
0.367841 0.208367 0.184671
0.422347 0.223582 0.200289
0.475109 0.239863 0.216765
0.524751 0.256003 0.233201
0.570926 0.271562 0.248828
0.612349 0.285756 0.263117
0.647541 0.297577 0.275248
0.677497 0.307515 0.285579
0.187968 0.200753 0.168166
0.189473 0.201094 0.169198
0.194374 0.201928 0.173206
0.201691 0.203978 0.175513
0.220618 0.209129 0.166733
0.247413 0.220277 0.166203
0.281927 0.230316 0.182770
0.327329 0.236718 0.191639
0.377525 0.245184 0.201970
0.429247 0.255963 0.214637
0.480054 0.268501 0.228792
0.528750 0.281905 0.243476
0.574064 0.295044 0.257878
0.614933 0.306924 0.271089
0.649531 0.316585 0.282307
0.679091 0.324496 0.291752
0.237693 0.252516 0.206922
0.238805 0.252920 0.207749
0.242816 0.254285 0.210967
0.248205 0.255343 0.213935
0.259642 0.259277 0.212884
0.287769 0.265857 0.197727
0.319575 0.280664 0.197095
0.354376 0.295074 0.222199
0.399491 0.301004 0.232853
0.446503 0.306773 0.241706
0.492866 0.313826 0.251468
0.538279 0.322415 0.262452
0.581430 0.331734 0.274211
0.620887 0.340318 0.285404
0.654356 0.346773 0.294728
0.682994 0.351682 0.302644
0.296458 0.314093 0.254036
0.297415 0.314632 0.254774
0.300872 0.316217 0.257478
0.304911 0.316721 0.260181
0.312940 0.319110 0.262029
0.330413 0.325082 0.257729
0.367728 0.333166 0.236673
0.403246 0.351013 0.235565
0.434105 0.368630 0.268034
0.478709 0.376631 0.282883
0.520831 0.380337 0.290577
0.559609 0.382005 0.295645
0.597848 0.385430 0.302375
0.633604 0.388872 0.309444
0.664416 0.390582 0.315439
0.690959 0.391100 0.320434
0.362342 0.383408 0.308012
0.363321 0.384097 0.308616
0.366324 0.385562 0.311074
0.369400 0.385836 0.313254
0.375401 0.387058 0.315881
0.387576 0.391426 0.316286
0.412268 0.399378 0.308673
0.456889 0.409128 0.282408
0.495026 0.428510 0.279502
0.520726 0.448798 0.317584
0.562713 0.461492 0.339120
0.598194 0.462035 0.345115
0.629225 0.458831 0.346337
0.658798 0.455546 0.347732
0.684341 0.450765 0.348340
0.706721 0.445224 0.348700
0.434121 0.458787 0.367229
0.434812 0.459245 0.367753
0.437487 0.460725 0.369963
0.439946 0.460901 0.371735
0.444626 0.461466 0.374302
0.453778 0.464173 0.376583
0.470799 0.470381 0.375118
0.503180 0.480514 0.364053
0.552541 0.491552 0.334149
0.585344 0.504258 0.320941
0.609283 0.529657 0.364365
0.643337 0.544820 0.391473
0.675225 0.546434 0.400663
0.699458 0.539363 0.399988
0.718452 0.527916 0.395278
0.734607 0.515371 0.389820
0.509748 0.537984 0.430374
0.510315 0.538353 0.430808
0.512485 0.539654 0.432535
0.514438 0.539521 0.433928
0.518116 0.539624 0.436229
0.525173 0.541226 0.439026
0.538020 0.545730 0.440426
0.561188 0.554330 0.436666
0.599863 0.566023 0.421783
0.643631 0.570816 0.383861
0.673367 0.578027 0.360917
0.691965 0.601681 0.400051
0.717790 0.618683 0.433097
0.745655 0.624553 0.449518
0.764192 0.615160 0.449764
0.775483 0.598539 0.442197
0.585552 0.617365 0.494297
0.586269 0.617925 0.494851
0.588022 0.618875 0.496210
0.589442 0.618612 0.497376
0.592544 0.618622 0.499292
0.598207 0.619316 0.502014
0.608327 0.622360 0.504638
0.625868 0.629145 0.504460
0.654764 0.639769 0.497709
0.697445 0.652389 0.480678
0.729372 0.646865 0.432884
0.757194 0.649830 0.401762
0.771641 0.668772 0.431331
0.788461 0.684616 0.466373
0.805094 0.688483 0.486102
0.820312 0.681505 0.491313
0.658356 0.693695 0.556304
0.658690 0.693920 0.556592
0.660062 0.694571 0.557652
0.661307 0.694245 0.558560
0.663742 0.694059 0.560262
0.668442 0.694342 0.562760
0.676556 0.696107 0.565659
0.690570 0.701135 0.567263
0.713068 0.710028 0.564841
0.746711 0.722054 0.555624
0.780866 0.725134 0.527760
0.808971 0.717310 0.478671
0.834018 0.717095 0.442636
0.844248 0.728502 0.459345
0.850432 0.739528 0.491537
0.858276 0.741850 0.513391
0.723535 0.762237 0.612628
0.723968 0.762491 0.612787
0.724540 0.762526 0.613444
0.725686 0.762354 0.614284
0.727824 0.761993 0.615681
0.731770 0.761953 0.617908
0.738478 0.763036 0.620799
0.750047 0.766743 0.623199
0.767998 0.773742 0.623200
0.795221 0.784363 0.618296
0.829175 0.794667 0.605562
0.852544 0.786534 0.565402
0.879457 0.779204 0.517891
0.901295 0.776046 0.479584
0.905355 0.778435 0.483512
0.904288 0.785091 0.510830
0.776133 0.817590 0.658491
0.776232 0.817561 0.658515
0.776863 0.817702 0.659121
0.777985 0.817592 0.659782
0.779420 0.816964 0.661004
0.782721 0.816747 0.662859
0.788761 0.817401 0.665477
0.798328 0.819756 0.668027
0.813122 0.825309 0.669501
0.835003 0.834308 0.667875
0.865385 0.845688 0.661276
0.887759 0.842918 0.633469
0.911190 0.834699 0.592757
0.936960 0.828039 0.546815
0.955556 0.823202 0.509104
0.956138 0.820274 0.505318
0.816868 0.860654 0.694624
0.817113 0.860669 0.694592
0.817564 0.860726 0.694972
0.818219 0.860363 0.695546
0.819719 0.859938 0.696633
0.822342 0.859551 0.698343
0.827397 0.859683 0.700715
0.835619 0.861252 0.703311
0.848122 0.865340 0.705065
0.866838 0.872954 0.704871
0.891433 0.883006 0.701599
0.915109 0.886089 0.684790
0.934881 0.879253 0.651203
0.958193 0.871238 0.609999
0.982960 0.865509 0.566328
0.999321 0.860677 0.531267
0.098187 0.101027 0.141106
0.101992 0.100609 0.142493
0.119755 0.097781 0.147258
0.150178 0.095206 0.147510
0.186292 0.095728 0.145760
0.220691 0.107884 0.144137
0.261402 0.125837 0.150895
0.310807 0.145503 0.163226
0.364492 0.166238 0.178458
0.419479 0.187479 0.195421
0.472765 0.208257 0.212783
0.522931 0.228123 0.229789
0.569322 0.246679 0.245953
0.611069 0.263353 0.260653
0.646644 0.277748 0.273310
0.676732 0.289909 0.284046
0.097878 0.103484 0.140433
0.101519 0.103047 0.141831
0.119235 0.100365 0.147070
0.150196 0.097694 0.147457
0.186293 0.098366 0.145482
0.220238 0.110514 0.144073
0.261210 0.127831 0.151062
0.310842 0.147035 0.163402
0.364822 0.167449 0.178628
0.419671 0.188476 0.195463
0.472927 0.209091 0.212763
0.523077 0.228819 0.229795
0.569523 0.247255 0.245959
0.611256 0.263827 0.260591
0.646763 0.278162 0.273209
0.676805 0.290283 0.283932
0.101161 0.114683 0.139691
0.103231 0.114488 0.140132
0.116210 0.111585 0.144651
0.149815 0.108468 0.146664
0.184816 0.110041 0.143927
0.217608 0.121369 0.144110
0.260247 0.136172 0.151966
0.311060 0.153503 0.164265
0.365431 0.172527 0.179121
0.420487 0.192573 0.195791
0.473584 0.212443 0.212864
0.523591 0.231641 0.229719
0.569794 0.249570 0.245659
0.611357 0.265879 0.260246
0.646605 0.279851 0.272811
0.676684 0.291738 0.283506
0.110734 0.131212 0.147775
0.112821 0.131650 0.147392
0.121881 0.133227 0.145193
0.147240 0.131741 0.145133
0.176441 0.135448 0.144042
0.212171 0.143198 0.148474
0.258522 0.153962 0.156631
0.311184 0.168145 0.168231
0.366380 0.184684 0.182422
0.421660 0.202877 0.198418
0.474808 0.221276 0.215115
0.524637 0.239234 0.231519
0.570511 0.256074 0.246993
0.611971 0.271488 0.261205
0.647011 0.284656 0.273456
0.676958 0.295719 0.283745
0.125648 0.163945 0.145854
0.128620 0.164440 0.145539
0.141770 0.165192 0.145298
0.162768 0.163734 0.154369
0.185513 0.171156 0.153663
0.217845 0.174745 0.160796
0.262772 0.182037 0.167184
0.314242 0.192757 0.177231
0.368763 0.206307 0.190226
0.423425 0.221642 0.205194
0.476051 0.237944 0.221009
0.525726 0.254095 0.236742
0.571415 0.269481 0.251698
0.612733 0.283588 0.265483
0.647858 0.295401 0.277240
0.677542 0.305300 0.287160
0.178287 0.204274 0.167088
0.180559 0.204528 0.168218
0.188481 0.204671 0.172619
0.199438 0.204731 0.180541
0.216514 0.210003 0.176564
0.245357 0.220768 0.174950
0.280083 0.227899 0.189015
0.326357 0.233995 0.196436
0.377359 0.242549 0.206260
0.429536 0.253458 0.218360
0.480531 0.266103 0.232094
0.529204 0.279516 0.246431
0.574235 0.292486 0.260243
0.615083 0.304356 0.273120
0.649566 0.314014 0.284017
0.678974 0.321888 0.293112
0.233217 0.254557 0.206912
0.234564 0.254899 0.207841
0.239815 0.256103 0.211439
0.247488 0.257253 0.217256
0.258284 0.260547 0.219228
0.285586 0.267682 0.206283
0.318831 0.281974 0.204744
0.353814 0.293780 0.227404
0.398566 0.298559 0.236343
0.445833 0.304081 0.244476
0.492524 0.311107 0.253835
0.538185 0.319663 0.264560
0.581116 0.328748 0.275883
0.620476 0.337277 0.286789
0.654061 0.343809 0.295918
0.682496 0.348631 0.303547
0.293842 0.315362 0.254655
0.294988 0.315902 0.255480
0.299122 0.317657 0.258327
0.305364 0.319487 0.263050
0.313169 0.321216 0.266570
0.329876 0.327161 0.263927
0.367059 0.335666 0.244132
0.403417 0.352798 0.242192
