cube/brown.cube
LUT_3D_SIZE 6
0.108457 0.098021 0.113222
0.141798 0.100841 0.111397
0.252406 0.131555 0.133446
0.417181 0.189015 0.184309
0.568332 0.247489 0.238142
0.676252 0.290350 0.278106
0.126277 0.129765 0.120547
0.147839 0.136503 0.122202
0.255500 0.157350 0.143025
0.418452 0.205334 0.190033
0.569014 0.258803 0.242059
0.676682 0.298582 0.280982
0.239008 0.251347 0.206355
0.247332 0.253101 0.210298
0.318646 0.278688 0.191891
0.446203 0.307894 0.239866
0.581431 0.333202 0.273137
0.683339 0.353366 0.302115
0.434529 0.458177 0.366772
0.438283 0.458161 0.369482
0.469491 0.468212 0.371887
0.583689 0.501974 0.317205
0.675407 0.547139 0.399630
0.735499 0.517347 0.390158
0.658489 0.693233 0.555992
0.660549 0.692907 0.557416
0.676056 0.695210 0.564282
0.746296 0.720934 0.553739
0.833653 0.716080 0.440671
0.858730 0.742244 0.512351
0.817345 0.860777 0.694588
0.818360 0.860090 0.695417
0.827486 0.859517 0.700459
0.867477 0.873211 0.704369
0.934905 0.878849 0.650005
0.999753 0.860513 0.530287
0.098187 0.101027 0.141106
0.150178 0.095206 0.147510
0.261402 0.125837 0.150895
0.419479 0.187479 0.195421
0.569322 0.246679 0.245953
0.676732 0.289909 0.284046
0.110734 0.131212 0.147775
0.147240 0.131741 0.145133
0.258522 0.153962 0.156631
0.421660 0.202877 0.198418
0.570511 0.256074 0.246993
0.676958 0.295719 0.283745
0.233217 0.254557 0.206912
0.247488 0.257253 0.217256
0.318831 0.281974 0.204744
0.445833 0.304081 0.244476
0.581116 0.328748 0.275883
0.682496 0.348631 0.303547
0.432871 0.459353 0.367999
0.441509 0.464137 0.374424
0.471752 0.472710 0.379684
0.586875 0.506983 0.326638
0.674422 0.544765 0.402057
0.732703 0.511628 0.389194
0.657675 0.694035 0.556816
0.662016 0.696022 0.559895
0.676823 0.697339 0.567369
0.746418 0.722969 0.558163
0.834528 0.718353 0.445779
0.857385 0.741063 0.515036
0.816414 0.860752 0.694984
0.817762 0.860684 0.695698
0.826539 0.859764 0.700885
0.865397 0.872333 0.705387
0.934570 0.879873 0.653188
0.998767 0.860578 0.532833
0.081769 0.118119 0.238466
0.123382 0.116036 0.251307
0.296507 0.093801 0.264250
0.454483 0.160305 0.259374
0.584981 0.237288 0.290404
0.684905 0.285792 0.317636
0.092473 0.150065 0.237343
0.117779 0.142118 0.248015
0.300422 0.122074 0.265544
0.452252 0.181328 0.257951
0.583466 0.247899 0.289232
0.683607 0.291864 0.315738
0.136090 0.238359 0.277078
0.156979 0.246549 0.277139
0.282588 0.265375 0.262795
0.437506 0.287911 0.280039
0.580308 0.315489 0.304027
0.681885 0.333561 0.320961
0.406798 0.468796 0.366331
0.421413 0.473018 0.375057
0.460416 0.473270 0.400079
0.577074 0.511215 0.365988
0.664062 0.530969 0.419655
0.721061 0.490177 0.393912
0.647936 0.698012 0.559130
0.653904 0.699833 0.562889
0.672103 0.700739 0.574679
0.735166 0.722192 0.574392
0.830975 0.724217 0.472238
0.852084 0.738468 0.533710
0.810414 0.862994 0.697492
0.812415 0.862585 0.698100
0.820540 0.860126 0.702092
0.854515 0.867723 0.710634
0.930551 0.884367 0.670988
0.993934 0.862788 0.549035
0.062317 0.148946 0.393637
0.097964 0.149588 0.403777
0.255638 0.135364 0.447798
0.499734 0.092972 0.445681
0.665590 0.130749 0.434072
0.739014 0.237412 0.414269
0.072146 0.178894 0.392766
0.094358 0.170896 0.404553
0.253989 0.158945 0.450947
0.503865 0.119143 0.448625
0.664403 0.154592 0.430693
0.735291 0.248440 0.410194
0.134093 0.289300 0.406260
0.148336 0.289319 0.412064
0.240878 0.272749 0.438331
0.506595 0.235457 0.448892
0.650281 0.265744 0.421005
0.719656 0.309060 0.404660
0.192437 0.408476 0.456858
0.204369 0.414905 0.458192
0.280723 0.436110 0.448747
0.494727 0.479295 0.462606
0.616774 0.483165 0.463492
0.703819 0.468135 0.448291
0.561127 0.710589 0.547544
0.573254 0.713747 0.552424
0.623205 0.715852 0.573023
0.692151 0.704775 0.612719
0.807469 0.734604 0.558716
0.843921 0.742083 0.605329
0.774758 0.874714 0.693724
0.779387 0.873879 0.695635
0.798139 0.868586 0.705042
0.829276 0.857883 0.724603
0.908597 0.887425 0.719408
0.977346 0.870831 0.610213
0.045069 0.191742 0.583733
0.074409 0.192435 0.591906
0.205740 0.193637 0.631537
0.458989 0.148666 0.684685
0.684019 0.091035 0.664761
0.808865 0.091884 0.628108
0.052755 0.216018 0.582686
0.070009 0.208069 0.591250
0.201907 0.209123 0.630862
0.458495 0.167111 0.687415
0.685639 0.115423 0.666240
0.808643 0.113845 0.625686
0.107881 0.329518 0.586411
0.116706 0.322059 0.591914
0.190766 0.292737 0.619914
0.449172 0.261254 0.690402
0.687726 0.218297 0.669257
0.807202 0.208289 0.618315
0.214684 0.476952 0.631450
0.223087 0.478388 0.633375
0.279801 0.482481 0.637351
0.448218 0.490638 0.676265
0.685444 0.430335 0.671511
0.802659 0.412597 0.617497
0.264631 0.586359 0.694381
0.271379 0.589093 0.694866
0.313215 0.596288 0.685744
0.441675 0.611812 0.651121
0.690432 0.692141 0.685016
0.764534 0.685714 0.674038
0.524617 0.825996 0.656997
0.534198 0.828350 0.657293
0.582029 0.838993 0.664244
0.722257 0.868041 0.715436
0.833964 0.850649 0.779565
0.918331 0.874108 0.748997
0.036371 0.225064 0.719312
0.059624 0.225616 0.725687
0.170126 0.228535 0.757782
0.378695 0.217668 0.819246
0.634516 0.143338 0.845084
0.814394 0.088711 0.818400
0.042490 0.244106 0.718241
0.054818 0.236607 0.723186
0.164746 0.239150 0.754748
0.375003 0.228992 0.817551
0.633441 0.158424 0.845700
0.814416 0.109954 0.818388
0.087063 0.343597 0.718768
0.092996 0.333693 0.721752
0.149148 0.301548 0.741913
0.361646 0.294237 0.807464
0.626778 0.235536 0.847417
0.813507 0.197319 0.819569
0.191585 0.507914 0.743874
0.195769 0.503835 0.743979
0.234400 0.490018 0.749738
0.370676 0.471925 0.786747
0.616364 0.426465 0.848927
0.811135 0.384036 0.823322
0.288197 0.623410 0.810123
0.293013 0.623487 0.809193
0.328347 0.626066 0.803583
0.453296 0.648895 0.799539
0.654274 0.714486 0.837735
0.807114 0.651759 0.831217
0.318843 0.708346 0.860551
0.322666 0.708927 0.859324
0.349594 0.710974 0.850994
0.443001 0.716745 0.821646
0.612336 0.747035 0.795982
0.797072 0.822613 0.831228
