cube/clean.cube
LUT_3D_SIZE 6
0.002132 0.001346 0.002092
0.191312 0.000525 0.001696
0.472428 0.000438 0.000424
0.699544 0.016827 0.014548
0.841569 0.037193 0.032906
0.925668 0.043633 0.037286
0.014747 0.179292 0.000420
0.188475 0.182481 0.000750
0.409315 0.178541 0.001006
0.685821 0.171026 0.004121
0.895737 0.166123 0.003073
1.006352 0.172989 0.003222
0.086629 0.404757 0.017148
0.233652 0.421880 0.022214
0.421150 0.419440 0.034644
0.678047 0.409276 0.024976
0.880302 0.399980 0.021844
1.008094 0.385415 0.009466
0.171655 0.684858 0.080771
0.318260 0.676260 0.072563
0.453087 0.673457 0.082850
0.683369 0.663309 0.076153
0.874655 0.655905 0.057889
0.991521 0.650330 0.074196
0.236371 0.886194 0.096854
0.346774 0.880191 0.082992
0.521919 0.874384 0.086902
0.704996 0.851986 0.080449
0.855926 0.835918 0.134160
0.962108 0.827136 0.203717
0.363722 0.976741 0.136091
0.467612 0.975070 0.144884
0.616397 0.968289 0.173592
0.748802 0.961917 0.226772
0.859206 0.960212 0.288869
0.956656 0.956249 0.337412
0.007675 0.026727 0.226709
0.194683 0.009482 0.210603
0.434644 0.012052 0.196062
0.696473 0.012572 0.175560
0.866101 0.024405 0.167710
0.952942 0.029208 0.179421
0.032139 0.207341 0.220498
0.185603 0.188582 0.199775
0.406728 0.186019 0.184259
0.677910 0.185922 0.175931
0.885198 0.180898 0.165061
1.005742 0.177522 0.137389
0.104262 0.433438 0.220797
0.228498 0.426618 0.209633
0.415785 0.420474 0.197342
0.680259 0.416101 0.180787
0.878524 0.411815 0.165607
1.006691 0.395230 0.139845
0.167578 0.693242 0.219317
0.289676 0.684435 0.211581
0.457496 0.676817 0.202399
0.688703 0.667917 0.192832
0.874211 0.663208 0.173798
0.997925 0.650997 0.173411
0.237100 0.893489 0.233496
0.358819 0.886412 0.211736
0.521264 0.877912 0.218043
0.714316 0.864267 0.208355
0.859434 0.847035 0.227422
0.967957 0.833875 0.289206
0.288430 0.982230 0.260768
0.420228 0.984152 0.256880
0.594779 0.980240 0.269845
0.749567 0.972302 0.320009
0.863972 0.966645 0.372518
0.962066 0.960759 0.416842
0.045011 0.088106 0.505304
0.223126 0.068324 0.490937
0.442440 0.039334 0.477718
0.681001 0.029405 0.454869
0.887758 0.030352 0.436749
0.998797 0.018992 0.413000
0.054774 0.247480 0.487584
0.206312 0.239826 0.482737
0.417547 0.235801 0.470194
0.678929 0.228441 0.449854
0.881630 0.213075 0.430205
1.005675 0.201543 0.406651
0.092664 0.463592 0.476501
0.238582 0.461877 0.468376
0.425373 0.454925 0.455013
0.676481 0.445811 0.437462
0.875577 0.435822 0.419195
1.007152 0.419650 0.396358
0.164358 0.710828 0.460415
0.290322 0.704560 0.451784
0.459183 0.697493 0.441003
0.685920 0.686303 0.421316
0.870649 0.674211 0.404866
1.005404 0.664225 0.377547
0.230419 0.895869 0.450562
0.340829 0.896681 0.436004
0.498584 0.886256 0.425226
0.711818 0.872799 0.406300
0.869165 0.861357 0.396291
0.989066 0.846191 0.421543
0.251793 0.980560 0.428047
0.363942 0.988424 0.411794
0.538811 0.996713 0.408344
0.706997 0.994115 0.427953
0.874428 0.980845 0.485447
0.974854 0.965727 0.510068
0.084919 0.151587 0.803685
0.234325 0.125645 0.800225
0.474452 0.095799 0.778554
0.680502 0.071160 0.770290
0.883348 0.079270 0.767106
1.007963 0.048630 0.713487
0.088184 0.328206 0.753573
0.227498 0.297584 0.768622
0.433106 0.285420 0.768323
0.684069 0.278764 0.748642
0.877062 0.260802 0.729220
1.005439 0.229215 0.700718
0.105316 0.509270 0.743571
0.263947 0.505430 0.748212
0.440881 0.502178 0.745858
0.684141 0.492257 0.726754
0.871669 0.469588 0.707264
1.005991 0.444932 0.684590
0.181780 0.725012 0.728751
0.305529 0.722321 0.725277
0.474841 0.716639 0.720608
0.689042 0.709434 0.707670
0.868493 0.695062 0.686987
1.003724 0.686486 0.656043
0.238586 0.879944 0.736901
0.348443 0.884688 0.735687
0.501885 0.884343 0.714183
0.702544 0.875927 0.683212
0.868420 0.866956 0.668815
1.000744 0.856075 0.637410
0.298056 0.969616 0.709870
0.394861 0.980756 0.700978
0.538689 0.998926 0.674469
0.724461 1.003015 0.651431
0.871190 1.000371 0.658253
0.995731 0.985679 0.655616
0.125691 0.184998 0.941198
0.263443 0.133889 0.941305
0.453088 0.105607 0.941263
0.669124 0.092016 0.940842
0.877460 0.093990 0.938402
1.007421 0.061763 0.935286
0.176168 0.408309 0.939452
0.284453 0.358628 0.940067
0.464335 0.355989 0.937799
0.691114 0.343554 0.928733
0.872457 0.326674 0.915071
1.003018 0.274679 0.907205
0.150902 0.543711 0.938875
0.304846 0.545538 0.937035
0.473256 0.543100 0.929841
0.693479 0.533534 0.915681
0.871175 0.517310 0.903074
1.002066 0.491495 0.887566
0.206490 0.750854 0.921703
0.331189 0.746536 0.922625
0.499609 0.740626 0.912084
0.698525 0.731596 0.897204
0.866396 0.719426 0.886745
1.000872 0.711077 0.869988
0.285806 0.878131 0.881842
0.388613 0.886079 0.890561
0.526904 0.889026 0.891576
0.711337 0.883388 0.883135
0.867078 0.874387 0.871954
0.999331 0.867780 0.855208
0.332664 0.959004 0.864568
0.435779 0.971088 0.869700
0.567625 0.991371 0.873379
0.729805 1.002744 0.864543
0.864716 1.002278 0.865034
1.005705 0.995275 0.836679
0.180900 0.234627 1.001316
0.293781 0.190150 1.001365
0.449717 0.165091 1.001396
0.663333 0.137639 1.001399
0.866909 0.129276 1.001399
1.000018 0.120916 1.001399
0.161496 0.435304 1.001235
0.304419 0.399577 1.001302
0.566911 0.468902 1.001378
0.771152 0.467134 1.001399
0.878522 0.366017 1.001399
1.003482 0.340351 1.001398
0.173312 0.598407 1.001106
0.328325 0.613033 1.001238
0.519604 0.608234 1.001321
0.736811 0.597131 1.001396
0.871963 0.558413 1.001399
1.002989 0.536236 1.001396
0.234425 0.774099 0.992375
0.375261 0.769595 1.000880
0.535512 0.769324 1.001271
0.711650 0.763827 1.001348
0.866549 0.742416 1.001395
0.996915 0.743589 1.001299
0.305090 0.879985 0.958178
0.414152 0.889728 0.976289
0.543843 0.898239 0.994707
0.715623 0.897269 1.001223
0.867008 0.892102 1.001172
1.000743 0.882289 1.001297
0.331651 0.951571 0.949366
0.444177 0.964535 0.962370
0.573462 0.981693 0.979427
0.737983 1.001985 0.999697
0.870295 1.003468 1.001274
1.008263 1.003305 1.001273
