cube/clean.cube
LUT_3D_SIZE 16
0.002132 0.001346 0.002092
0.037322 0.000569 0.015133
0.107739 0.000370 0.001860
0.191312 0.000525 0.001696
0.280462 0.000609 0.001021
0.376223 0.000546 0.000551
0.472428 0.000438 0.000424
0.561365 0.002929 0.001916
0.636505 0.008806 0.006812
0.699544 0.016827 0.014548
0.753404 0.024914 0.022217
0.799646 0.031523 0.028281
0.841569 0.037193 0.032906
0.875865 0.040802 0.036239
0.901701 0.042246 0.037643
0.925668 0.043633 0.037286
0.001955 0.042147 0.000936
0.038997 0.039148 0.000524
0.107759 0.038713 0.000338
0.182133 0.042001 0.000276
0.258518 0.046490 0.000233
0.344665 0.050015 0.000220
0.436708 0.050440 0.000254
0.530244 0.048871 0.000467
0.619077 0.047917 0.001824
0.696487 0.050309 0.004973
0.761990 0.055219 0.009717
0.818489 0.062280 0.015651
0.866669 0.069401 0.020790
0.905616 0.074571 0.023961
0.935843 0.077753 0.024831
0.960411 0.079538 0.024095
0.006243 0.114815 0.000449
0.048725 0.112137 0.000285
0.112725 0.111539 0.000232
0.183812 0.113799 0.000219
0.254682 0.115922 0.000240
0.330719 0.116555 0.000241
0.416579 0.116194 0.000234
0.509693 0.114526 0.000251
0.604297 0.110793 0.000447
0.692181 0.106857 0.001179
0.768602 0.104881 0.002355
0.836222 0.106484 0.004499
0.892828 0.111291 0.006771
0.936101 0.115861 0.009326
0.968009 0.119644 0.010154
0.992401 0.122054 0.009661
0.014747 0.179292 0.000420
0.065312 0.181686 0.000336
0.127580 0.182101 0.000352
0.188475 0.182481 0.000750
0.254260 0.181734 0.001026
0.327143 0.179881 0.001169
0.409315 0.178541 0.001006
0.500577 0.177269 0.000916
0.595902 0.175039 0.001493
0.685821 0.171026 0.004121
0.763346 0.167092 0.007525
0.833354 0.165493 0.007427
0.895737 0.166123 0.003073
0.944408 0.167203 0.001932
0.981026 0.169423 0.002299
1.006352 0.172989 0.003222
0.036680 0.247322 0.001844
0.085841 0.253673 0.002653
0.144941 0.256526 0.004087
0.202999 0.255890 0.006012
0.261514 0.254985 0.007522
0.331347 0.253285 0.007369
0.411764 0.251368 0.005793
0.501081 0.249350 0.004046
0.592448 0.247239 0.003314
0.680171 0.244149 0.004932
0.757901 0.240216 0.008953
0.827196 0.237219 0.009612
0.888318 0.234970 0.004420
0.938264 0.232578 0.001505
0.979467 0.231924 0.000874
1.008720 0.234428 0.002929
0.061341 0.321123 0.007672
0.109627 0.329966 0.008922
0.162318 0.336103 0.010512
0.219424 0.336368 0.012009
0.277143 0.335741 0.013412
0.339092 0.334869 0.014214
0.415680 0.332709 0.012746
0.503140 0.329621 0.009994
0.591828 0.326628 0.007322
0.677272 0.324151 0.006290
0.755212 0.321616 0.007562
0.823852 0.319159 0.009726
0.882926 0.315435 0.010195
0.932181 0.310339 0.006770
0.974398 0.306415 0.004003
1.007971 0.305621 0.005379
0.086629 0.404757 0.017148
0.134891 0.414006 0.018568
0.183022 0.421044 0.019900
0.233652 0.421880 0.022214
0.290567 0.421901 0.025802
0.351296 0.421035 0.030712
0.421150 0.419440 0.034644
0.505169 0.416281 0.033508
0.592853 0.412710 0.029607
0.678047 0.409276 0.024976
0.755193 0.406085 0.022637
0.822680 0.403835 0.023085
0.880302 0.399980 0.021844
0.929004 0.394273 0.017569
0.971645 0.388771 0.012519
1.008094 0.385415 0.009466
0.112897 0.499351 0.037241
0.163377 0.504681 0.035771
0.212364 0.509844 0.037706
0.253633 0.510029 0.043372
0.301215 0.509910 0.050505
0.362043 0.508904 0.055150
0.432316 0.507405 0.060492
0.509531 0.505297 0.062307
0.594270 0.501908 0.059020
0.678742 0.497921 0.052720
0.754941 0.493916 0.044962
0.821346 0.491039 0.039098
0.878174 0.487275 0.034777
0.926778 0.481803 0.030273
0.971064 0.475152 0.024758
1.007780 0.472603 0.018082
0.140487 0.597587 0.067679
0.197988 0.595844 0.059013
0.249119 0.596850 0.058491
0.291298 0.595929 0.063220
0.323849 0.596251 0.072701
0.372470 0.595569 0.077098
0.443633 0.593440 0.077263
0.519142 0.591223 0.077570
0.597723 0.588236 0.076795
0.680031 0.583646 0.071579
0.755535 0.579026 0.063522
0.820715 0.575991 0.055128
0.876094 0.573450 0.048848
0.924154 0.570146 0.044258
0.968946 0.564225 0.040347
1.003229 0.564713 0.039507
0.171655 0.684858 0.080771
0.232334 0.680189 0.072409
0.278869 0.677507 0.070256
0.318260 0.676260 0.072563
0.350157 0.676317 0.077794
0.388911 0.675859 0.082443
0.453087 0.673457 0.082850
0.528062 0.670501 0.082802
0.605099 0.667318 0.081065
0.683369 0.663309 0.076153
0.756374 0.659453 0.069445
0.820400 0.657147 0.062057
0.874655 0.655905 0.057889
0.920821 0.654586 0.059478
0.961091 0.650161 0.064843
0.991521 0.650330 0.074196
0.203523 0.760224 0.081489
0.264926 0.755150 0.071855
0.304951 0.752421 0.071098
0.333082 0.751296 0.074870
0.366037 0.751134 0.079613
0.407114 0.749913 0.081859
0.469425 0.746655 0.080569
0.538414 0.742931 0.078621
0.614028 0.738778 0.076773
0.689811 0.734304 0.073394
0.758404 0.731017 0.069377
0.819672 0.729079 0.066857
0.871135 0.727768 0.072617
0.913441 0.727344 0.090001
0.949142 0.724561 0.108104
0.977524 0.725012 0.124997
0.223782 0.826121 0.083286
0.274995 0.822002 0.076635
0.308964 0.819755 0.075710
0.337009 0.819156 0.078573
0.376633 0.820904 0.080219
0.429500 0.820429 0.080745
0.493020 0.815742 0.077865
0.558514 0.810351 0.076459
0.626214 0.803242 0.073580
0.697305 0.797658 0.070838
0.761206 0.793570 0.072431
0.816735 0.789950 0.080467
0.863697 0.787452 0.099579
0.903488 0.786557 0.127871
0.937989 0.784476 0.151989
0.967622 0.782176 0.168381
0.236371 0.886194 0.096854
0.283361 0.882482 0.087599
0.317667 0.880696 0.083738
0.346774 0.880191 0.082992
0.391357 0.880869 0.085358
0.454033 0.879346 0.085723
0.521919 0.874384 0.086902
0.585879 0.867988 0.086094
0.647092 0.860198 0.082938
0.704996 0.851986 0.080449
0.763006 0.845359 0.090633
0.813524 0.839727 0.109540
0.855926 0.835918 0.134160
0.894640 0.835152 0.165833
0.930218 0.833400 0.191971
0.962108 0.827136 0.203717
0.251564 0.930475 0.125615
0.297072 0.929356 0.116271
0.336719 0.928518 0.109249
0.374389 0.927043 0.106487
0.422240 0.926425 0.105535
0.486898 0.924447 0.106782
0.556459 0.918994 0.110352
0.619925 0.913200 0.122774
0.673928 0.905882 0.126479
0.723162 0.897323 0.129365
0.769248 0.889064 0.139184
0.813127 0.883298 0.158411
0.852599 0.880072 0.181450
0.889747 0.879025 0.207973
0.925168 0.876529 0.230066
0.958362 0.869813 0.241027
0.283823 0.957481 0.140042
0.326423 0.957988 0.137453
0.370656 0.957509 0.136949
0.416354 0.957254 0.136989
0.465842 0.956756 0.140702
0.525901 0.953256 0.145355
0.590281 0.949078 0.156512
0.647005 0.945884 0.174857
0.695675 0.941920 0.190064
0.740866 0.936338 0.201741
0.782095 0.930743 0.212668
0.821746 0.927534 0.231500
0.857449 0.925679 0.250070
0.890473 0.923465 0.265048
0.924226 0.920440 0.280761
0.956143 0.913411 0.286104
0.363722 0.976741 0.136091
0.405303 0.976271 0.137183
0.432717 0.975836 0.139587
0.467612 0.975070 0.144884
0.511497 0.973711 0.151431
0.567950 0.971097 0.160778
0.616397 0.968289 0.173592
0.661366 0.965984 0.187476
0.705450 0.963704 0.205330
0.748802 0.961917 0.226772
0.788547 0.960980 0.248935
0.824974 0.960471 0.269499
0.859206 0.960212 0.288869
0.892373 0.959829 0.307320
0.924171 0.958315 0.321858
0.956656 0.956249 0.337412
0.002017 0.002218 0.045763
0.038887 0.000921 0.046501
0.109008 0.000713 0.049331
0.187203 0.001987 0.049177
0.265259 0.004068 0.046765
0.353656 0.005071 0.043394
0.447398 0.005391 0.040478
0.539415 0.005357 0.038965
0.623021 0.007323 0.039260
0.691728 0.013369 0.042200
0.747432 0.021544 0.047146
0.796111 0.029443 0.051403
0.839236 0.035973 0.054485
0.876639 0.040634 0.057693
0.903607 0.042153 0.060099
0.924940 0.041431 0.063903
0.003916 0.056611 0.052128
0.039707 0.044032 0.045740
0.107839 0.042067 0.044035
0.180107 0.044054 0.042133
0.253627 0.046252 0.039329
0.334553 0.048901 0.036240
0.424454 0.050730 0.034216
0.517404 0.051401 0.033580
0.608340 0.051593 0.033728
0.690695 0.052011 0.036264
0.759002 0.054519 0.039829
0.813932 0.060217 0.041214
0.860111 0.067037 0.042966
0.900004 0.072288 0.045794
0.931869 0.075222 0.048578
0.956311 0.075968 0.051000
0.008628 0.130930 0.053026
0.050957 0.116472 0.047432
0.111558 0.112011 0.045385
0.181153 0.112890 0.043214
0.252444 0.113428 0.040520
0.326790 0.113309 0.038058
0.410559 0.113508 0.035973
0.502014 0.113734 0.034772
0.596135 0.112700 0.035831
0.685915 0.110886 0.043364
0.763383 0.109196 0.050305
0.829785 0.108369 0.046080
0.884926 0.109843 0.036792
0.928046 0.112573 0.034427
0.963319 0.115830 0.035817
0.991682 0.119110 0.037072
0.019792 0.188000 0.056213
0.066796 0.177632 0.052885
0.126412 0.177156 0.052267
0.186267 0.177637 0.052393
0.253419 0.176633 0.050815
0.326740 0.174908 0.048860
0.407994 0.174104 0.045843
0.498067 0.174323 0.042987
0.591714 0.175449 0.043139
0.681693 0.174648 0.051948
0.759661 0.172147 0.063454
0.827684 0.169294 0.061163
0.887927 0.166745 0.044394
0.936279 0.165002 0.032560
0.975404 0.166238 0.029935
1.005152 0.171539 0.031879
0.045033 0.248980 0.062862
0.089241 0.246199 0.063385
0.144419 0.247831 0.063766
0.200490 0.247458 0.065394
0.258221 0.246556 0.066363
0.329350 0.245708 0.065275
0.410903 0.245056 0.062037
0.500072 0.244552 0.057097
0.591084 0.244989 0.054002
0.678673 0.244316 0.057562
0.756694 0.242010 0.068451
0.823840 0.239055 0.069932
0.882910 0.235237 0.054447
0.932588 0.230910 0.038587
0.974869 0.229214 0.031786
1.007646 0.232537 0.032499
0.073808 0.324499 0.079484
0.115734 0.323773 0.080947
0.163836 0.327290 0.082506
0.217124 0.327065 0.083835
0.273509 0.326296 0.084295
0.335679 0.326265 0.084568
0.414836 0.326137 0.082111
0.502868 0.325159 0.076908
0.592488 0.323896 0.070597
0.678344 0.321929 0.066104
0.755669 0.319652 0.067960
0.822372 0.317055 0.069281
0.880096 0.313452 0.060592
0.929086 0.308442 0.048001
0.971649 0.304923 0.039309
1.006999 0.304463 0.035532
0.100804 0.412301 0.101131
0.140656 0.411491 0.102258
0.184448 0.416279 0.103620
0.233047 0.416114 0.103639
0.287791 0.415145 0.102606
0.349292 0.414622 0.101801
0.420602 0.414489 0.100913
0.505219 0.413402 0.096770
0.594004 0.411595 0.090332
0.679590 0.408691 0.083157
0.756502 0.405330 0.077357
0.822567 0.402442 0.073255
0.879127 0.398792 0.068045
0.927503 0.393533 0.060828
0.970311 0.388194 0.052610
1.007447 0.384993 0.043931
0.123167 0.505873 0.120681
0.162416 0.503944 0.120753
0.207350 0.507253 0.120568
0.249847 0.506578 0.120506
0.301251 0.505070 0.118963
0.363098 0.503228 0.116505
0.433424 0.502425 0.114982
0.510912 0.501875 0.111960
0.596765 0.500072 0.106016
0.681348 0.496497 0.098466
0.757553 0.492481 0.090187
0.822338 0.489750 0.082941
0.877571 0.487065 0.076539
0.925660 0.482890 0.071133
0.969992 0.476734 0.064465
1.007638 0.473425 0.056911
0.143874 0.598652 0.132698
0.186007 0.595128 0.131454
0.230910 0.594969 0.129973
0.275751 0.593432 0.128712
0.320822 0.592203 0.127197
0.375749 0.590655 0.124450
0.446165 0.589221 0.120474
0.522409 0.588358 0.116810
0.601124 0.586942 0.112518
0.682818 0.583253 0.105722
0.758172 0.578875 0.097710
0.821969 0.576240 0.089960
0.876048 0.574503 0.082926
0.923516 0.571989 0.078271
0.967989 0.566566 0.074257
1.003935 0.564013 0.072555
0.169217 0.684020 0.132996
0.213935 0.679379 0.130654
0.258207 0.676410 0.128024
0.299212 0.674937 0.126455
0.343354 0.674013 0.124403
0.391230 0.673147 0.122420
0.456714 0.671164 0.119020
0.532542 0.669240 0.115682
0.609004 0.667173 0.112457
0.686360 0.663536 0.107558
0.758619 0.659924 0.101253
0.821269 0.658065 0.094443
0.874468 0.657354 0.089412
0.920426 0.656652 0.091092
0.961226 0.652735 0.095990
0.993482 0.649503 0.102215
0.201453 0.759283 0.127133
0.248661 0.754295 0.122870
0.286438 0.751788 0.120966
0.317684 0.750754 0.120934
0.359268 0.749446 0.118833
0.409659 0.747468 0.115909
0.474006 0.744534 0.113460
0.543053 0.741621 0.112041
0.617443 0.738548 0.110689
0.692238 0.734658 0.107335
0.759963 0.731864 0.103600
0.820109 0.730369 0.100539
0.871178 0.729617 0.103527
0.913895 0.729416 0.117983
0.950169 0.726800 0.135872
0.980246 0.723593 0.149744
0.232781 0.828563 0.123960
0.288101 0.821662 0.114709
0.320602 0.819570 0.112855
0.346322 0.818756 0.113422
0.379578 0.817758 0.113814
0.431428 0.815178 0.113047
0.496323 0.810920 0.110838
0.561545 0.807275 0.110395
0.628318 0.803520 0.108796
0.698893 0.799109 0.106110
0.762411 0.795897 0.107384
0.817164 0.792693 0.113515
0.863748 0.789669 0.127494
0.903993 0.788552 0.153661
0.939838 0.787052 0.181203
0.969671 0.783215 0.195060
0.247663 0.888581 0.133684
0.302374 0.882486 0.118720
0.339272 0.880146 0.115132
0.367005 0.879318 0.115991
0.400225 0.878258 0.116744
0.454247 0.875636 0.116162
0.523238 0.871198 0.117275
0.587512 0.866554 0.118856
0.649398 0.861929 0.118542
0.708521 0.855472 0.116584
0.765729 0.849976 0.127369
0.814864 0.844302 0.143813
0.855995 0.838229 0.160136
0.894754 0.836308 0.188661
0.931494 0.835520 0.218856
0.963181 0.829327 0.230223
0.262825 0.932094 0.161044
0.313013 0.930698 0.146269
0.355078 0.928640 0.140229
0.390260 0.927533 0.137064
0.427359 0.926783 0.134701
0.485352 0.923988 0.133625
0.555335 0.919291 0.140863
0.620492 0.914804 0.156818
0.676953 0.909518 0.166268
0.727713 0.902249 0.170832
0.773196 0.893647 0.176678
0.814899 0.887203 0.190873
0.852778 0.882213 0.206796
0.889789 0.880099 0.230498
0.926382 0.878175 0.255788
0.958952 0.870975 0.264565
0.285538 0.959460 0.176566
0.327472 0.959545 0.173152
0.371700 0.959462 0.172141
0.416224 0.959480 0.170894
0.464322 0.958284 0.170319
0.526180 0.954875 0.174140
0.589465 0.951848 0.188747
0.647651 0.949420 0.208698
0.697894 0.946042 0.225897
0.742978 0.941056 0.238373
0.783046 0.934688 0.244902
0.821998 0.930317 0.259108
0.858291 0.927940 0.276997
0.891992 0.925546 0.292450
0.925634 0.921367 0.305290
0.957327 0.914302 0.310184
0.344390 0.979080 0.170931
0.388914 0.979175 0.169335
0.420287 0.978783 0.172598
0.455340 0.978035 0.176430
0.502973 0.976506 0.181337
0.563211 0.973848 0.189243
0.613895 0.970976 0.201920
0.660557 0.968690 0.216276
0.706136 0.966248 0.234324
0.749816 0.964184 0.254856
0.789880 0.962968 0.276342
0.826311 0.961990 0.295434
0.860451 0.961317 0.313511
0.893746 0.960797 0.331785
0.926434 0.959642 0.348565
0.958104 0.957372 0.362428
0.001623 0.015471 0.132630
0.040954 0.008932 0.129310
0.112878 0.006432 0.130291
0.191178 0.006489 0.129865
0.266437 0.006606 0.126331
0.347448 0.006886 0.121509
0.436446 0.007903 0.116613
0.528058 0.008624 0.112239
0.616956 0.007907 0.108045
0.694326 0.008998 0.104107
0.754546 0.014544 0.103294
0.806101 0.023170 0.105026
0.852718 0.030427 0.108565
0.890641 0.034913 0.112799
0.918630 0.036513 0.116082
0.938909 0.036014 0.117962
0.006857 0.079572 0.141160
0.045814 0.064448 0.132947
0.112100 0.054920 0.127181
0.183637 0.054916 0.123925
0.255610 0.055419 0.118596
0.332055 0.056798 0.113467
0.417272 0.059081 0.109209
0.508649 0.061165 0.106001
0.601013 0.061338 0.103213
0.687707 0.058861 0.100090
0.761956 0.057570 0.097586
0.820794 0.059281 0.094516
0.868439 0.063623 0.091341
0.907353 0.067695 0.091719
0.940019 0.070209 0.095892
0.964572 0.070304 0.100263
0.011604 0.150081 0.142889
0.058358 0.127564 0.132496
0.114271 0.118712 0.126002
0.180939 0.117781 0.121443
0.251317 0.117365 0.116487
0.325869 0.115593 0.111477
0.408359 0.115187 0.107699
0.498093 0.116004 0.105100
0.591494 0.116673 0.103637
0.681141 0.116337 0.105154
0.760772 0.114510 0.108178
0.829239 0.112295 0.103503
0.885234 0.110603 0.091125
0.928070 0.110350 0.082247
0.964209 0.111910 0.082852
0.994584 0.114073 0.086601
0.026554 0.201713 0.140364
0.073919 0.184277 0.133060
0.127372 0.179539 0.127387
0.183512 0.179299 0.124067
0.249729 0.178994 0.120361
0.324470 0.177138 0.116511
0.406728 0.175952 0.113383
0.496651 0.176041 0.110365
0.589212 0.177470 0.108954
0.678307 0.178927 0.113250
0.757527 0.178108 0.121875
0.826313 0.176076 0.120936
0.885607 0.172607 0.104304
0.933806 0.168105 0.085440
0.973361 0.166666 0.077870
1.005049 0.170146 0.079398
0.052877 0.257400 0.139826
0.094606 0.250243 0.136461
0.143985 0.247900 0.132878
0.196733 0.246965 0.130393
0.252482 0.246357 0.128523
0.324279 0.246332 0.126256
0.409057 0.246362 0.123939
0.498334 0.246227 0.120184
0.589390 0.246894 0.116944
0.677149 0.248178 0.118495
0.756066 0.247569 0.126434
0.824053 0.245751 0.127739
0.881890 0.242157 0.113079
0.931029 0.236394 0.092304
0.973177 0.232549 0.079992
1.006744 0.234101 0.077782
0.080425 0.333357 0.148344
0.119559 0.330005 0.146492
0.163138 0.328243 0.144035
0.212559 0.326929 0.141628
0.267570 0.326348 0.139774
0.330115 0.326155 0.137933
0.412007 0.326438 0.135202
0.501068 0.326542 0.131396
0.591519 0.326113 0.126358
0.678228 0.325721 0.122479
0.756126 0.324465 0.123090
0.823392 0.322518 0.123141
0.880045 0.319095 0.113364
0.928455 0.313534 0.097471
0.970906 0.308620 0.085681
1.006383 0.306686 0.079368
0.105487 0.423687 0.160391
0.143755 0.420711 0.158705
0.182812 0.419477 0.157101
0.229259 0.418182 0.154809
0.282475 0.416779 0.151751
0.345076 0.415539 0.148322
0.417969 0.414801 0.145012
0.504381 0.414102 0.140661
0.594992 0.412900 0.134795
0.680644 0.411139 0.128511
0.757318 0.408641 0.122949
0.822967 0.406319 0.118690
0.878790 0.403360 0.112330
0.926805 0.398921 0.103283
0.969916 0.392923 0.094298
1.006805 0.387992 0.087132
0.126988 0.517357 0.170432
0.164389 0.513879 0.168574
0.205898 0.511653 0.166223
0.246449 0.510735 0.164353
0.297724 0.508773 0.160842
0.359921 0.505793 0.155830
0.431402 0.503674 0.151472
0.510844 0.502626 0.148172
0.598557 0.501015 0.142779
0.682762 0.498486 0.135985
0.758545 0.495321 0.128712
0.822728 0.492926 0.122563
0.877500 0.490907 0.116417
0.925319 0.487872 0.110067
0.969706 0.481934 0.104478
1.007495 0.475156 0.099770
0.145584 0.606942 0.173523
0.186238 0.602449 0.170994
0.226838 0.599740 0.168845
0.270807 0.598048 0.166603
0.316631 0.596559 0.164228
0.373568 0.593752 0.160302
0.445459 0.590460 0.155431
0.523464 0.588992 0.152536
0.602744 0.587889 0.149665
0.683882 0.584959 0.143315
0.758473 0.581472 0.135775
0.822028 0.579252 0.129096
0.876047 0.578392 0.122690
0.923426 0.577139 0.117051
0.967873 0.571956 0.114797
1.004676 0.564335 0.115116
0.167163 0.687813 0.170948
0.209180 0.683456 0.168394
0.249131 0.680798 0.166371
0.290663 0.679172 0.164538
0.335713 0.677801 0.162201
0.389246 0.675729 0.158817
0.458031 0.672532 0.154708
0.535014 0.670160 0.151616
0.611496 0.668530 0.149336
0.687957 0.665370 0.144440
0.759034 0.662160 0.137923
0.821402 0.660395 0.131344
0.874453 0.660164 0.125706
0.920311 0.659965 0.123950
0.961592 0.656232 0.128230
0.995862 0.648616 0.133510
0.195325 0.761601 0.167131
0.241181 0.756748 0.163288
0.276915 0.754760 0.161598
0.309617 0.753762 0.161339
0.352901 0.752294 0.158944
0.407991 0.749518 0.154823
0.475990 0.745851 0.151275
0.546472 0.742747 0.149087
0.620697 0.740015 0.147222
0.694188 0.736458 0.143344
0.760758 0.733833 0.139559
0.820488 0.732521 0.136279
0.871598 0.732084 0.137001
0.914282 0.731765 0.147708
0.951336 0.728806 0.164664
0.982802 0.721785 0.173616
0.225995 0.830915 0.168313
0.279583 0.824107 0.159181
0.314632 0.822181 0.156235
0.342199 0.821476 0.156691
0.376297 0.820332 0.156488
0.430551 0.817125 0.154024
0.498592 0.812389 0.150823
0.565008 0.808824 0.150877
0.631471 0.805608 0.150318
0.701001 0.801778 0.147128
0.763578 0.799035 0.147361
0.817964 0.795848 0.150359
0.864560 0.792479 0.159207
0.904690 0.790812 0.181141
0.941242 0.788912 0.208199
0.971860 0.782111 0.218147
0.243443 0.891451 0.178945
0.297303 0.885396 0.164034
0.337002 0.883086 0.157707
0.365303 0.882256 0.157369
0.398342 0.881337 0.158778
0.453529 0.878779 0.160823
0.523812 0.874027 0.163315
0.589398 0.869311 0.163801
0.652096 0.865252 0.162876
0.712061 0.860377 0.161204
0.768322 0.855822 0.169612
0.816825 0.849917 0.182014
0.857233 0.842111 0.191540
0.895089 0.838141 0.213325
0.932806 0.837327 0.245227
0.964791 0.830914 0.256711
0.255856 0.933865 0.205220
0.304456 0.932992 0.189676
0.349934 0.931501 0.180124
0.386946 0.930661 0.175967
0.424649 0.930350 0.174720
0.483507 0.927509 0.175571
0.554961 0.922002 0.180797
0.620022 0.917937 0.197898
0.677544 0.913414 0.207168
0.730277 0.907280 0.212163
0.776591 0.900150 0.219749
0.818269 0.893080 0.230888
0.854665 0.886281 0.239546
0.889831 0.881277 0.253260
0.927292 0.879456 0.280224
0.960313 0.873132 0.291673
0.274766 0.960897 0.221284
0.316841 0.961553 0.217401
0.365559 0.961646 0.211831
0.410239 0.961950 0.208463
0.458733 0.960799 0.207473
0.523467 0.957926 0.209671
0.587517 0.954905 0.221695
0.644320 0.953615 0.243120
0.696387 0.950524 0.260566
0.743716 0.945601 0.273471
0.784970 0.939771 0.281780
0.823842 0.935021 0.294106
0.859762 0.931605 0.308387
0.893375 0.927687 0.319795
0.927059 0.922913 0.331237
0.958820 0.915407 0.335300
0.316780 0.981411 0.215419
0.361270 0.982082 0.212262
0.405364 0.981814 0.212676
0.442566 0.981180 0.215339
0.490499 0.980148 0.217974
0.553564 0.977960 0.222810
0.608562 0.974944 0.234521
0.657988 0.972533 0.248083
0.705654 0.969856 0.265752
0.750528 0.967559 0.286137
0.791248 0.965960 0.306726
0.827981 0.964607 0.324830
0.862067 0.963508 0.341526
0.895425 0.962494 0.358598
0.928002 0.960861 0.373924
0.959763 0.958827 0.388517
0.007675 0.026727 0.226709
0.052536 0.015777 0.217053
0.121463 0.011788 0.212280
0.194683 0.009482 0.210603
0.267976 0.008096 0.206052
0.347654 0.008278 0.201134
0.434644 0.012052 0.196062
0.524000 0.014653 0.190124
0.613300 0.014326 0.183365
0.696473 0.012572 0.175560
0.765428 0.013969 0.168275
0.820281 0.019270 0.164447
0.866101 0.024405 0.167710
0.902282 0.027607 0.173516
0.930950 0.029005 0.178184
0.952942 0.029208 0.179421
0.010449 0.100013 0.227884
0.054242 0.081484 0.218394
0.119344 0.070168 0.209973
0.186336 0.068135 0.204987
0.255644 0.066719 0.198101
0.331022 0.066971 0.193404
0.414561 0.069024 0.189468
0.504603 0.070774 0.184293
0.596882 0.070803 0.178337
0.684941 0.067504 0.171893
0.763017 0.063505 0.165395
0.827288 0.061224 0.159635
0.879883 0.061566 0.156611
0.919905 0.062952 0.155773
0.951651 0.064549 0.156742
0.978233 0.065878 0.157276
0.016895 0.162223 0.225130
0.065623 0.139043 0.215730
0.120921 0.132138 0.207771
0.182902 0.130476 0.201590
0.250376 0.129650 0.195255
0.324632 0.127999 0.189487
0.406749 0.126777 0.185351
0.496585 0.126303 0.181422
0.590198 0.126218 0.176910
0.679650 0.125496 0.172857
0.759397 0.123082 0.169918
0.828543 0.119908 0.164973
0.886941 0.117019 0.157215
0.932492 0.114268 0.147662
0.969198 0.114243 0.144229
1.001296 0.116510 0.144910
0.032139 0.207341 0.220498
0.080442 0.192902 0.212658
0.133540 0.189126 0.205081
0.185603 0.188582 0.199775
0.249235 0.188357 0.193805
0.323556 0.187705 0.188422
0.406728 0.186019 0.184259
0.496148 0.185202 0.181372
0.588962 0.185371 0.178196
0.677910 0.185922 0.175931
0.757166 0.185104 0.176947
0.826324 0.183432 0.175043
0.885198 0.180898 0.165061
0.933544 0.176309 0.149057
0.973657 0.174226 0.138420
1.005742 0.177522 0.137389
0.056271 0.265467 0.217041
0.099282 0.258089 0.211602
0.148699 0.256667 0.205350
0.198549 0.255761 0.200960
0.253298 0.255367 0.197326
0.323478 0.255649 0.193067
0.408210 0.255810 0.189963
0.496995 0.255341 0.186957
0.588876 0.254975 0.182954
0.676983 0.255483 0.180193
0.756103 0.255231 0.181354
0.824427 0.254103 0.180408
0.881809 0.251626 0.170300
0.930180 0.246238 0.151809
0.972217 0.241732 0.137748
1.006192 0.243052 0.133268
0.081712 0.342594 0.218218
0.121464 0.339304 0.213601
0.166103 0.337655 0.208962
0.213325 0.335829 0.204562
0.266898 0.334895 0.201082
0.329207 0.334630 0.197931
0.409770 0.334746 0.194465
0.498468 0.334595 0.191000
0.590473 0.333756 0.186031
0.677659 0.333334 0.181526
0.756199 0.332930 0.179514
0.823507 0.332024 0.177330
0.879777 0.329781 0.169382
0.927403 0.324689 0.154857
0.970123 0.318515 0.140687
1.005984 0.315320 0.133108
0.104262 0.433438 0.220797
0.144058 0.430485 0.216807
0.183345 0.428753 0.213321
0.228498 0.426618 0.209633
0.280562 0.424398 0.205534
0.342983 0.422448 0.201474
0.415785 0.420474 0.197342
0.502130 0.418927 0.192522
0.594133 0.417519 0.186487
0.680259 0.416101 0.180787
0.757204 0.414729 0.175912
0.822907 0.413580 0.171502
0.878524 0.411815 0.165607
0.926129 0.408127 0.156707
0.969570 0.401574 0.146257
1.006691 0.395230 0.139845
0.124826 0.525546 0.222417
0.163154 0.521813 0.218805
0.205081 0.519182 0.215416
0.243915 0.517750 0.212945
0.294974 0.515312 0.209281
0.356801 0.511719 0.204363
0.428975 0.508078 0.199207
0.509593 0.505315 0.194756
