cube/vintage.cube
LUT_3D_SIZE 16
0.086849 0.083877 0.086502
0.121934 0.084226 0.086433
0.173795 0.087764 0.085017
0.230653 0.092498 0.084869
0.287165 0.098415 0.086298
0.342083 0.104520 0.088378
0.395423 0.110662 0.090758
0.447545 0.116772 0.093447
0.498795 0.122974 0.096351
0.549540 0.129293 0.099581
0.600473 0.136038 0.103146
0.652143 0.143253 0.107243
0.705333 0.151388 0.112105
0.760998 0.161069 0.118276
0.819759 0.172906 0.126423
0.889434 0.191330 0.140130
0.089044 0.118103 0.087980
0.122812 0.118708 0.087880
0.174140 0.121078 0.086610
0.230892 0.124689 0.085889
0.287335 0.129843 0.086891
0.342202 0.135443 0.088691
0.395496 0.141212 0.090900
0.447551 0.147059 0.093485
0.498822 0.153094 0.096337
0.549563 0.159294 0.099520
0.600478 0.165856 0.103091
0.652151 0.173054 0.107193
0.705244 0.181148 0.112070
0.761012 0.190774 0.118264
0.819772 0.202568 0.126392
0.889508 0.221014 0.140062
0.102861 0.170845 0.095675
0.135577 0.171106 0.096514
0.189672 0.172695 0.101366
0.238519 0.172976 0.095663
0.290754 0.175374 0.094170
0.344058 0.178719 0.094395
0.396590 0.182570 0.095561
0.448265 0.186787 0.097380
0.499283 0.191452 0.099647
0.549916 0.196617 0.102375
0.600771 0.202303 0.105617
0.652304 0.208806 0.109441
0.705365 0.216334 0.114149
0.761053 0.225543 0.120198
0.819820 0.236994 0.128233
0.889416 0.255057 0.141865
0.121238 0.228244 0.107869
0.152555 0.228393 0.108142
0.198792 0.229236 0.114636
0.261305 0.232247 0.121377
0.306859 0.229131 0.107532
0.353168 0.229817 0.105612
0.402036 0.231656 0.104969
0.451677 0.233997 0.105278
0.501540 0.236932 0.106410
0.551498 0.240547 0.108280
0.601807 0.244930 0.110782
0.653136 0.250336 0.114124
0.706054 0.257002 0.118431
0.761635 0.265458 0.124179
0.820128 0.276386 0.132037
0.889737 0.293761 0.145505
0.140452 0.285407 0.121494
0.171135 0.285498 0.121662
0.212346 0.285989 0.124727
0.264628 0.287313 0.136096
0.330750 0.291331 0.142297
0.373889 0.285514 0.119438
0.416254 0.284577 0.117324
0.461128 0.285389 0.116525
0.507944 0.286858 0.116459
0.555972 0.289111 0.117179
0.605067 0.292210 0.118801
0.655570 0.296493 0.121363
0.707839 0.302236 0.125086
0.762873 0.309938 0.130443
0.821366 0.320192 0.138027
0.890743 0.336866 0.151268
0.159174 0.341241 0.135266
0.189536 0.341358 0.135336
0.227606 0.341679 0.137031
0.274888 0.342232 0.143863
0.329229 0.343978 0.157353
0.396813 0.348612 0.162615
0.438596 0.340949 0.132033
0.478838 0.338791 0.128710
0.520988 0.339021 0.128134
0.565448 0.340140 0.128262
0.612074 0.342253 0.129100
0.660774 0.345624 0.130928
0.711909 0.350560 0.134034
0.766091 0.357689 0.138918
0.823843 0.367460 0.146201
0.892733 0.383611 0.159252
0.177211 0.395776 0.148729
0.207302 0.395803 0.148768
0.243401 0.396101 0.149821
0.287001 0.396558 0.154050
0.337110 0.397227 0.163737
0.392042 0.399287 0.177651
0.459696 0.403922 0.182138
0.501378 0.395223 0.147296
0.540769 0.392526 0.140090
0.581303 0.392450 0.139805
0.624360 0.393804 0.140464
0.670292 0.396383 0.141974
0.719354 0.400827 0.144725
0.772127 0.407482 0.149266
0.828794 0.417042 0.156355
0.896629 0.432781 0.169238
0.194733 0.449339 0.161995
0.224647 0.449353 0.162029
0.259331 0.449570 0.162720
0.300103 0.449975 0.165472
0.347083 0.450439 0.172184
0.398331 0.451262 0.183553
0.453221 0.453460 0.197133
0.519995 0.457827 0.201028
0.562418 0.448675 0.164870
0.601729 0.446068 0.151970
0.642219 0.446062 0.151811
0.685022 0.448112 0.153369
0.731349 0.452113 0.156167
0.781899 0.458615 0.160775
0.836768 0.467969 0.167913
0.903326 0.483668 0.180925
0.211922 0.502186 0.175191
0.241720 0.502235 0.175244
0.275511 0.502422 0.175741
0.314116 0.502805 0.177591
0.358233 0.503124 0.182259
0.406996 0.503634 0.190955
0.458429 0.504683 0.203124
0.513143 0.507015 0.216028
0.578449 0.510769 0.219568
0.622268 0.501910 0.184175
0.662443 0.499825 0.165445
0.704259 0.500574 0.164807
0.748174 0.504081 0.167600
0.796092 0.510264 0.172538
0.848870 0.519663 0.180114
0.913357 0.535533 0.193685
0.229158 0.554931 0.188616
0.258953 0.554955 0.188618
0.291912 0.555080 0.189015
0.328989 0.555408 0.190344
0.370880 0.555769 0.193688
0.417072 0.556171 0.200103
0.466551 0.556787 0.210114
0.517856 0.557930 0.222554
0.572245 0.560094 0.234797
0.635699 0.563221 0.238063
0.681379 0.555255 0.205057
0.724032 0.554363 0.182345
0.767862 0.556734 0.179668
0.814310 0.562391 0.184245
0.865179 0.571822 0.192383
0.927268 0.587862 0.206883
0.246810 0.607976 0.202489
0.276500 0.607992 0.202565
0.308922 0.608130 0.202834
0.344806 0.608387 0.203825
0.384843 0.608709 0.206260
0.428860 0.609039 0.211095
0.476381 0.609514 0.218988
0.526143 0.610250 0.229835
0.577186 0.611497 0.242179
0.631103 0.613517 0.253669
0.692520 0.615741 0.256987
0.740733 0.609575 0.227583
0.786826 0.610457 0.203695
0.833506 0.615634 0.197922
0.884177 0.624356 0.204981
0.944644 0.640498 0.220148
0.265492 0.662135 0.217360
0.295103 0.662139 0.217365
0.327153 0.662225 0.217611
0.362033 0.662427 0.218393
0.400563 0.662756 0.220237
0.442768 0.663052 0.223957
0.488334 0.663351 0.230096
0.536541 0.663962 0.239079
0.586283 0.664779 0.250394
0.637096 0.666070 0.262579
0.690357 0.667890 0.273384
0.749311 0.668982 0.276726
0.801088 0.665709 0.252720
0.851890 0.669356 0.230340
0.902931 0.678059 0.222717
0.963813 0.693837 0.234428
0.285742 0.718055 0.233703
0.315319 0.718055 0.233803
0.347014 0.718156 0.233963
0.381241 0.718299 0.234615
0.418562 0.718603 0.236042
0.459209 0.718930 0.238877
0.503073 0.719188 0.243781
0.549714 0.719600 0.251041
0.598269 0.720164 0.260898
0.647814 0.720993 0.272371
0.698360 0.722373 0.284304
0.751177 0.723991 0.294771
0.807265 0.723716 0.297890
0.863453 0.724625 0.281044
0.919468 0.732083 0.263330
0.981878 0.747998 0.256509
0.308708 0.777071 0.252679
0.338245 0.777054 0.252679
0.369580 0.777091 0.252844
0.403275 0.777162 0.253298
0.439731 0.777454 0.254491
0.479002 0.777775 0.256678
0.521315 0.778067 0.260660
0.566482 0.778385 0.266637
0.613629 0.778706 0.274905
0.662313 0.779303 0.285162
0.711738 0.780246 0.296797
0.761978 0.781524 0.308462
0.813836 0.782936 0.318504
0.866919 0.780885 0.321527
0.928424 0.787679 0.314407
0.997135 0.802598 0.300709
0.334981 0.839445 0.274862
0.364484 0.839490 0.274873
0.395682 0.839476 0.274983
0.428873 0.839839 0.275416
0.464431 0.839909 0.276428
0.502659 0.840137 0.278171
0.543708 0.840538 0.281356
0.587278 0.840651 0.286244
0.633017 0.841030 0.293134
0.680577 0.841425 0.302011
0.729124 0.842055 0.312686
0.778289 0.843044 0.324336
0.828099 0.844342 0.335843
0.879303 0.845285 0.345597
0.929409 0.842282 0.348756
1.005251 0.857929 0.350098
0.397864 0.945013 0.329678
0.427135 0.945054 0.329679
0.457375 0.945140 0.329819
0.489041 0.945254 0.330088
0.522549 0.945538 0.330663
0.558354 0.945758 0.331772
0.596423 0.946052 0.333691
0.637181 0.946629 0.336782
0.680202 0.947005 0.341311
0.725350 0.947570 0.347658
0.772023 0.948286 0.355715
0.819752 0.949035 0.365314
0.867704 0.949999 0.376006
0.915933 0.951327 0.387251
0.962473 0.952046 0.397244
1.015675 0.952732 0.408783
0.000000 0.000000 0.029263
0.029263 0.000000 0.029263
0.058526 0.000000 0.029263
0.148125 0.002188 0.029263
0.233276 0.004207 0.029263
0.299078 0.005529 0.029263
0.358020 0.006606 0.029263
0.413091 0.007540 0.029263
0.465860 0.008389 0.029263
0.517437 0.009198 0.029263
0.568802 0.009999 0.029263
0.621060 0.010832 0.029263
0.675512 0.011746 0.029263
0.741977 0.010129 0.039918
0.808571 0.009879 0.069336
0.885728 0.010021 0.096514
0.089635 0.118960 0.123621
0.121677 0.119170 0.123275
0.175934 0.121525 0.123023
0.232365 0.126240 0.121991
0.288660 0.132083 0.122883
0.343433 0.138169 0.124556
0.396691 0.144195 0.126543
0.448571 0.150140 0.128837
0.499694 0.156182 0.131404
0.550500 0.162317 0.134261
0.601247 0.168763 0.137482
0.652826 0.175745 0.141196
0.705848 0.183627 0.145697
0.761532 0.192954 0.151438
0.820179 0.204459 0.159095
0.889700 0.222518 0.172212
0.101698 0.171295 0.131499
0.134373 0.171917 0.130621
0.187604 0.173410 0.133788
0.237387 0.174407 0.130188
0.290897 0.176852 0.128506
0.344666 0.180318 0.128570
0.397343 0.184188 0.129539
0.449042 0.188497 0.131100
0.499949 0.193173 0.133112
0.550627 0.198335 0.135627
0.601355 0.203994 0.138571
0.652896 0.210389 0.142212
0.705914 0.217833 0.146601
0.761550 0.226885 0.152348
0.820098 0.238110 0.160064
0.889726 0.255905 0.173250
0.120064 0.228686 0.140907
0.152331 0.229312 0.141506
0.198180 0.230199 0.146648
0.260242 0.232857 0.152813
0.305747 0.230299 0.141689
0.352869 0.231155 0.139397
0.402291 0.233092 0.138573
0.452092 0.235476 0.138711
0.502005 0.238446 0.139651
0.552018 0.242070 0.141306
0.602340 0.246445 0.143662
0.653628 0.251785 0.146747
0.706483 0.258352 0.150834
0.761911 0.266712 0.156301
0.820431 0.277472 0.163837
0.890007 0.294567 0.176898
0.139511 0.285709 0.153223
0.171548 0.286452 0.154516
0.212236 0.286898 0.156719
0.264500 0.288212 0.167664
0.329955 0.291926 0.173460
0.373030 0.286484 0.153177
0.415786 0.285670 0.150764
0.461141 0.286622 0.149724
0.508165 0.288156 0.149459
0.556249 0.290383 0.150040
0.605451 0.293493 0.151440
0.655891 0.297739 0.153854
0.708142 0.303427 0.157370
0.763173 0.311008 0.162485
0.821440 0.321141 0.169760
0.890846 0.337676 0.182594
0.158304 0.341443 0.166125
0.190237 0.342187 0.167757
0.227932 0.342495 0.168899
0.274997 0.343067 0.175352
0.329194 0.344807 0.188630
0.396180 0.349062 0.193500
0.437723 0.341784 0.165054
0.478475 0.339796 0.161916
0.520803 0.340057 0.161108
0.565458 0.341245 0.160974
0.612231 0.343401 0.161604
0.660988 0.346727 0.163285
0.712118 0.351649 0.166189
0.766427 0.358627 0.170860
0.824094 0.368321 0.177868
0.892806 0.384299 0.190508
0.176420 0.395868 0.179063
0.208241 0.396666 0.180891
0.243944 0.396820 0.181497
0.287307 0.397278 0.185442
0.337279 0.397887 0.194940
0.392044 0.399976 0.208706
0.459088 0.404380 0.212840
0.500700 0.395990 0.179635
0.540228 0.393313 0.173046
0.581131 0.393360 0.172534
0.624301 0.394731 0.172942
0.670371 0.397445 0.174249
0.719500 0.401742 0.176799
0.772201 0.408448 0.181130
0.828810 0.417777 0.187905
0.896807 0.433440 0.200459
0.194022 0.449418 0.192019
0.225650 0.449999 0.193898
0.260035 0.450157 0.194195
0.300616 0.450581 0.196774
0.347394 0.451069 0.203341
0.398507 0.451969 0.214578
0.453244 0.454145 0.228018
0.519505 0.458256 0.231577
0.561744 0.449410 0.196660
0.601255 0.446835 0.184651
0.641945 0.446909 0.184310
0.684865 0.448955 0.185640
0.731305 0.452987 0.188235
0.781836 0.459328 0.192551
0.836883 0.468662 0.199370
0.903363 0.484291 0.212036
0.211360 0.502267 0.205043
0.242766 0.502902 0.206893
0.276182 0.502991 0.207068
0.314751 0.503401 0.208820
0.358687 0.503698 0.213334
0.407278 0.504263 0.221889
0.458565 0.505349 0.233914
0.513089 0.507467 0.246803
0.577953 0.511125 0.250035
0.621641 0.502432 0.215545
0.661906 0.500596 0.197795
0.703877 0.501314 0.197077
0.747864 0.504752 0.199658
0.795996 0.511002 0.204332
0.848872 0.520273 0.211599
0.913340 0.536028 0.224806
0.228620 0.554944 0.218284
0.259954 0.555456 0.220074
0.292639 0.555633 0.220134
0.329609 0.555959 0.221426
0.371242 0.556277 0.224631
0.417375 0.556665 0.231013
0.466757 0.557314 0.240863
0.518009 0.558477 0.253210
0.572143 0.560596 0.265337
0.635257 0.563555 0.268554
0.680774 0.555799 0.236135
0.723473 0.555008 0.214255
0.767233 0.557349 0.211720
0.814101 0.563002 0.216086
0.864903 0.572263 0.223875
0.927113 0.588337 0.237881
0.246387 0.608019 0.232127
0.277476 0.608508 0.233780
0.309675 0.608561 0.233784
0.345465 0.608824 0.234745
0.385339 0.609183 0.237135
0.429226 0.609497 0.241908
0.476614 0.609927 0.249682
0.526268 0.610697 0.260380
0.577273 0.611958 0.272665
0.631008 0.613975 0.284163
0.692075 0.616019 0.287214
0.740195 0.610087 0.258414
0.786213 0.610996 0.235052
0.833025 0.616138 0.229614
0.883889 0.624893 0.236491
0.944409 0.640944 0.251243
0.265025 0.662145 0.246924
0.295954 0.662569 0.248514
0.327810 0.662648 0.248465
0.362718 0.662862 0.249194
0.401131 0.663138 0.251012
0.443210 0.663458 0.254614
0.488743 0.663862 0.260744
0.536693 0.664329 0.269628
0.586412 0.665172 0.280829
0.637164 0.666521 0.292905
0.690321 0.668292 0.303796
0.748929 0.669245 0.306941
0.800534 0.666194 0.283468
0.851342 0.669829 0.261322
0.902456 0.678577 0.254061
0.963352 0.694248 0.265430
0.285350 0.718065 0.263305
0.316107 0.718331 0.264694
0.347625 0.718445 0.264631
0.381839 0.718687 0.265284
0.419091 0.718894 0.266657
0.459644 0.719255 0.269475
0.503418 0.719575 0.274294
0.549880 0.719906 0.281556
0.598364 0.720525 0.291233
0.647881 0.721385 0.302625
0.698322 0.722720 0.314563
0.750992 0.724286 0.324991
0.806748 0.723870 0.327971
0.862986 0.725000 0.311396
0.918968 0.732464 0.293952
0.981504 0.748355 0.287370
0.308387 0.777065 0.282155
0.338937 0.777466 0.283403
0.370093 0.777422 0.283309
0.403809 0.777441 0.283780
0.440146 0.777765 0.284976
0.479433 0.778102 0.287156
0.521653 0.778356 0.291000
0.566685 0.778629 0.296937
0.613849 0.779041 0.305165
0.662305 0.779691 0.315399
0.711761 0.780646 0.326954
0.761853 0.781846 0.338670
0.813701 0.783116 0.348627
0.866488 0.781212 0.351552
0.927985 0.787954 0.344455
0.996793 0.802788 0.330983
0.334722 0.839507 0.304392
0.365035 0.839821 0.305448
0.396094 0.839787 0.305413
0.429335 0.839854 0.305825
0.464848 0.840176 0.306789
0.503011 0.840376 0.308493
0.543924 0.840579 0.311659
0.587466 0.840900 0.316526
0.633300 0.841177 0.323321
0.680563 0.841585 0.332226
0.729136 0.842286 0.342790
0.778366 0.843348 0.354414
0.828094 0.844495 0.365897
0.878988 0.845540 0.375539
0.929040 0.842427 0.378622
1.004951 0.858072 0.379952
0.397708 0.945026 0.358303
0.427627 0.945091 0.359119
0.457750 0.945221 0.359116
0.489606 0.945253 0.359494
0.523010 0.945572 0.360227
0.558592 0.945775 0.361444
0.596818 0.946228 0.363482
0.637509 0.946594 0.366560
0.680346 0.947124 0.371165
0.725546 0.947697 0.377479
0.772129 0.948332 0.385519
0.819812 0.949038 0.395113
0.867755 0.950155 0.405835
0.915823 0.951522 0.417031
0.962328 0.952323 0.427008
1.015495 0.952726 0.438391
0.000000 0.000000 0.058526
0.029263 0.000000 0.058526
0.058526 0.000000 0.058526
0.148519 0.002196 0.058526
0.233341 0.004210 0.058526
0.299057 0.005531 0.058526
0.358004 0.006604 0.058526
0.413059 0.007538 0.058526
0.465827 0.008389 0.058526
0.517332 0.009196 0.058549
0.568808 0.010001 0.058526
0.621160 0.010834 0.058526
0.681555 0.009834 0.058526
0.744357 0.009397 0.086492
0.810143 0.009408 0.109514
0.886952 0.009672 0.133680
0.091073 0.120019 0.171551
0.123224 0.121222 0.171599
0.170985 0.123342 0.173187
0.237891 0.123080 0.171612
0.292356 0.129378 0.166674
0.345781 0.135686 0.164898
0.398306 0.141799 0.164589
0.449729 0.147839 0.165185
0.500633 0.153908 0.166507
0.551129 0.160132 0.168415
0.601823 0.166705 0.170939
0.653406 0.173861 0.174184
0.706320 0.181909 0.178317
0.761986 0.191483 0.183909
0.820600 0.203219 0.191521
0.890241 0.221523 0.204548
0.111538 0.170091 0.175930
0.141781 0.170972 0.176466
0.181197 0.174676 0.179671
0.238159 0.178052 0.177837
0.293737 0.182288 0.177003
0.348021 0.187040 0.177189
0.400780 0.191879 0.177963
0.452394 0.196773 0.179063
0.503192 0.201819 0.180531
0.553601 0.207021 0.182297
0.604056 0.212546 0.184468
0.655310 0.218642 0.187152
0.708065 0.225540 0.190519
0.763415 0.233821 0.195024
0.821556 0.244111 0.201203
0.890855 0.260522 0.212370
0.122557 0.228246 0.191499
0.152886 0.229292 0.191102
0.194740 0.232841 0.186180
0.254403 0.234348 0.190310
0.301451 0.234258 0.186665
0.351966 0.235735 0.183847
0.403050 0.237971 0.182734
0.453675 0.240658 0.182582
0.503951 0.243817 0.183097
0.553954 0.247530 0.184277
0.604334 0.251892 0.185981
0.655489 0.257096 0.188426
0.708115 0.263382 0.191703
0.763421 0.271315 0.196221
0.821736 0.281344 0.202650
0.890899 0.297559 0.214022
0.137795 0.286590 0.196846
0.168842 0.287317 0.196717
0.211608 0.289821 0.196651
0.263169 0.290971 0.204957
0.326590 0.293412 0.208851
0.369296 0.289858 0.197686
0.414218 0.289904 0.194551
0.460970 0.291058 0.192857
0.508895 0.292836 0.192146
0.557382 0.295213 0.192304
0.606785 0.298366 0.193172
0.657350 0.302526 0.195039
0.709516 0.307972 0.197841
0.764492 0.315262 0.202054
0.822486 0.324828 0.208323
0.891614 0.340460 0.219637
0.156441 0.342325 0.205414
0.187456 0.342868 0.205693
0.229167 0.345331 0.208594
0.274624 0.345784 0.212579
0.328652 0.347415 0.225190
0.393414 0.350580 0.228379
0.434546 0.344843 0.208227
0.476610 0.343500 0.205121
0.520176 0.344031 0.203520
0.565575 0.345364 0.202761
0.612790 0.347567 0.202849
0.661885 0.350895 0.203934
0.713045 0.355647 0.206200
0.767263 0.362439 0.210054
0.824769 0.371656 0.216061
0.893394 0.386882 0.227254
0.174796 0.396668 0.215816
0.205652 0.397039 0.216259
0.246337 0.399515 0.220635
0.287994 0.399716 0.222616
0.337432 0.400419 0.231196
0.391823 0.402454 0.244584
0.456777 0.405839 0.247279
0.497771 0.398829 0.220250
0.538374 0.396685 0.215582
0.580051 0.396905 0.214339
0.623959 0.398370 0.214036
0.670458 0.401076 0.214660
0.719874 0.405344 0.216477
0.772716 0.411704 0.220020
0.829309 0.420779 0.225820
0.897096 0.435812 0.236911
0.192684 0.450019 0.227104
0.223324 0.450435 0.227607
0.262939 0.452695 0.232710
0.301991 0.452884 0.233703
0.348173 0.453363 0.239466
0.398755 0.454191 0.250152
0.453129 0.456382 0.263278
0.517374 0.459560 0.265659
0.559168 0.451931 0.235363
0.599415 0.449728 0.226371
0.640776 0.450033 0.225488
0.684190 0.452134 0.226024
0.731106 0.456056 0.227783
0.781745 0.462250 0.231269
0.836835 0.471274 0.237114
0.903354 0.486390 0.248332
0.210180 0.502900 0.238923
0.240676 0.503146 0.239542
0.279474 0.505337 0.244942
0.316625 0.505354 0.245362
0.359959 0.505781 0.249324
0.407954 0.506386 0.257294
0.458812 0.507394 0.268910
0.512914 0.509547 0.281507
0.576050 0.512330 0.283716
0.619216 0.504750 0.252759
0.659982 0.503305 0.238297
0.702453 0.504074 0.237533
0.747004 0.507518 0.239281
0.795476 0.513570 0.243049
0.848372 0.522679 0.249216
0.913009 0.537949 0.260925
0.227650 0.555454 0.251369
0.258016 0.555747 0.251973
0.295937 0.557658 0.257407
0.331743 0.557705 0.257533
0.372913 0.558126 0.260381
0.418508 0.558562 0.266225
0.467335 0.559124 0.275626
0.518149 0.560311 0.287668
0.571900 0.562498 0.299561
0.633491 0.564635 0.301858
0.678658 0.557841 0.272082
0.721488 0.557379 0.253296
0.765873 0.559677 0.251235
0.812933 0.565292 0.254819
0.863993 0.574432 0.261491
0.926312 0.590046 0.274024
0.245510 0.608383 0.264565
0.275752 0.608662 0.265144
0.312869 0.610424 0.270475
0.347674 0.610434 0.270350
0.387141 0.610797 0.272485
0.430573 0.611175 0.276842
0.477466 0.611630 0.284295
0.526693 0.612359 0.294682
0.577289 0.613599 0.306612
0.630671 0.615622 0.317988
0.690269 0.616992 0.320270
0.738296 0.611797 0.293396
0.784372 0.613082 0.272532
0.831495 0.618153 0.267932
0.882496 0.626702 0.274120
0.943268 0.642531 0.287341
0.264312 0.662422 0.278943
0.294428 0.662688 0.279479
0.330904 0.664213 0.284520
0.364874 0.664213 0.284322
0.402925 0.664524 0.285903
0.444664 0.664907 0.289299
0.489727 0.665315 0.295074
0.537354 0.665715 0.303628
0.586584 0.666580 0.314517
0.637060 0.667903 0.326448
0.689927 0.669797 0.337147
0.747356 0.670079 0.339581
0.798827 0.667628 0.317496
0.849545 0.671489 0.297179
0.900874 0.680215 0.290682
0.962084 0.695677 0.301425
0.284749 0.718324 0.294978
0.314829 0.718526 0.295488
0.350409 0.719854 0.300141
0.383892 0.719890 0.299879
0.420851 0.720158 0.301120
0.461080 0.720443 0.303688
0.504491 0.720820 0.308352
0.550612 0.721244 0.315296
0.598743 0.721781 0.324753
0.647965 0.722660 0.335949
0.698139 0.723999 0.347646
0.750441 0.725643 0.357953
0.805296 0.724614 0.360415
0.861278 0.726143 0.344630
0.917239 0.733777 0.328401
0.979952 0.749606 0.322201
0.307865 0.777401 0.313572
0.337756 0.777452 0.314098
0.372575 0.778437 0.318171
0.405606 0.778430 0.317988
0.441779 0.778720 0.318914
0.480735 0.779034 0.321004
0.522707 0.779355 0.324673
0.567433 0.779711 0.330451
0.614141 0.779991 0.338313
0.662566 0.780615 0.348361
0.711536 0.781499 0.359664
0.761466 0.782825 0.371196
0.813066 0.784263 0.381148
0.865103 0.781812 0.383676
0.926502 0.788906 0.377039
0.995169 0.803799 0.364065
0.334361 0.839831 0.335732
0.364165 0.839766 0.336209
0.398063 0.840613 0.339503
0.430766 0.840574 0.339283
0.466223 0.840840 0.340119
0.504158 0.841166 0.341837
0.544860 0.841425 0.344811
0.588144 0.841690 0.349459
0.633638 0.842000 0.356084
0.680916 0.842563 0.364796
0.729108 0.843134 0.375205
0.777996 0.844075 0.386601
0.827601 0.845279 0.397953
0.878186 0.846375 0.407618
0.927655 0.842889 0.410336
1.003733 0.858799 0.411708
0.397772 0.945061 0.388278
0.427339 0.945047 0.388632
0.459559 0.945740 0.391098
0.490917 0.945757 0.391120
0.524336 0.945934 0.391976
0.559869 0.946294 0.393348
0.597851 0.946634 0.395474
0.638310 0.947190 0.398586
0.681053 0.947698 0.403179
0.725927 0.948282 0.409277
0.772453 0.948822 0.417278
0.819726 0.949621 0.426867
0.867650 0.950675 0.437355
0.915622 0.952093 0.448428
0.961873 0.952853 0.458245
1.014511 0.952980 0.469312
0.000000 0.000000 0.087789
0.029263 0.000000 0.087789
0.058526 0.000000 0.087789
0.087789 0.000000 0.087789
0.263187 0.000601 0.157827
0.309287 0.003971 0.090628
0.360741 0.006273 0.087789
0.414239 0.007362 0.087789
0.466447 0.008276 0.087789
0.517862 0.009109 0.087789
0.574087 0.008341 0.087789
0.629547 0.008177 0.105299
0.686758 0.008230 0.122116
0.747629 0.008394 0.138732
0.812869 0.008646 0.155973
0.889071 0.009064 0.176415
0.094895 0.123496 0.225761
0.128031 0.125899 0.226129
0.169919 0.127796 0.225159
0.226254 0.130660 0.229558
0.298526 0.126381 0.228609
0.352321 0.132818 0.219745
0.403343 0.139810 0.214673
0.453735 0.146479 0.212086
0.503673 0.152937 0.211084
0.553737 0.159462 0.211226
0.604023 0.166174 0.212370
0.655251 0.173438 0.214501
0.708056 0.181574 0.217805
0.763449 0.191197 0.222654
0.821977 0.202973 0.229678
0.891405 0.221296 0.241997
0.109528 0.170044 0.229020
0.140202 0.171305 0.229796
0.180453 0.176753 0.231156
0.234756 0.177908 0.234534
0.300625 0.178156 0.231379
0.353297 0.183232 0.225466
0.404487 0.188445 0.222337
0.455102 0.193529 0.220791
0.505223 0.198674 0.220322
0.555150 0.203988 0.220590
0.605382 0.209658 0.221709
0.656443 0.215918 0.223566
0.709028 0.223050 0.226430
0.764395 0.231664 0.230695
0.822522 0.242349 0.236886
0.891979 0.259169 0.247973
0.138877 0.226977 0.235065
0.169002 0.227866 0.235579
0.202458 0.231757 0.237481
0.246404 0.235182 0.239755
0.300689 0.239176 0.237925
0.354285 0.242835 0.237131
0.406517 0.246658 0.236847
0.457708 0.250509 0.236916
0.508053 0.254523 0.237340
0.558076 0.258686 0.238023
0.608124 0.263183 0.239052
0.659054 0.268147 0.240503
0.711273 0.273835 0.242537
0.766157 0.280758 0.245468
0.823984 0.289396 0.249800
0.892790 0.303530 0.258327
0.148507 0.284094 0.253486
0.178603 0.285064 0.253720
0.211936 0.290012 0.251960
0.258544 0.293885 0.246537
0.316843 0.295129 0.250478
0.362894 0.294984 0.247181
0.411508 0.296160 0.244077
0.460738 0.297882 0.242283
0.509976 0.299954 0.241405
0.559270 0.302555 0.241185
0.608934 0.305806 0.241584
0.659576 0.309822 0.242660
0.711677 0.314870 0.244509
0.766424 0.321457 0.247516
0.824142 0.330068 0.252162
0.892786 0.344145 0.261105
0.157855 0.342437 0.257754
0.188322 0.343118 0.257753
0.225407 0.346453 0.255643
0.273128 0.349267 0.255369
0.326485 0.350699 0.265320
0.387638 0.352110 0.266152
0.428973 0.349281 0.257867
0.473152 0.349266 0.254305
0.518751 0.350374 0.252073
0.565527 0.351891 0.250829
0.613525 0.354239 0.250406
0.662989 0.357562 0.250831
0.714370 0.362008 0.252195
0.768542 0.368221 0.254971
0.825838 0.376557 0.259472
0.894284 0.390450 0.268381
0.173482 0.397572 0.262236
0.204046 0.398036 0.262429
0.242189 0.400594 0.262452
0.288696 0.403226 0.265720
0.336385 0.403807 0.271159
0.390393 0.405696 0.283969
0.452384 0.407479 0.284189
0.492395 0.403096 0.267957
0.534936 0.401900 0.264294
0.578113 0.402561 0.262302
0.623163 0.404196 0.261196
0.670466 0.406916 0.261023
0.720198 0.410892 0.261955
0.773284 0.416937 0.264358
0.829789 0.425298 0.268753
0.897456 0.439146 0.277677
0.190803 0.451067 0.269448
0.221357 0.451483 0.269846
0.259179 0.453601 0.271286
0.304342 0.456227 0.276461
0.348264 0.456568 0.279456
0.398332 0.457422 0.289125
0.451992 0.459476 0.301813
0.513626 0.461281 0.302151
