cube/vintage.cube
LUT_3D_SIZE 6
0.086849 0.083877 0.086502
0.230653 0.092498 0.084869
0.395423 0.110662 0.090758
0.549540 0.129293 0.099581
0.705333 0.151388 0.112105
0.889434 0.191330 0.140130
0.121238 0.228244 0.107869
0.261305 0.232247 0.121377
0.402036 0.231656 0.104969
0.551498 0.240547 0.108280
0.706054 0.257002 0.118431
0.889737 0.293761 0.145505
0.177211 0.395776 0.148729
0.287001 0.396558 0.154050
0.459696 0.403922 0.182138
0.581303 0.392450 0.139805
0.719354 0.400827 0.144725
0.896629 0.432781 0.169238
0.229158 0.554931 0.188616
0.328989 0.555408 0.190344
0.466551 0.556787 0.210114
0.635699 0.563221 0.238063
0.767862 0.556734 0.179668
0.927268 0.587862 0.206883
0.285742 0.718055 0.233703
0.381241 0.718299 0.234615
0.503073 0.719188 0.243781
0.647814 0.720993 0.272371
0.807265 0.723716 0.297890
0.981878 0.747998 0.256509
0.397864 0.945013 0.329678
0.489041 0.945254 0.330088
0.596423 0.946052 0.333691
0.725350 0.947570 0.347658
0.867704 0.949999 0.376006
1.015675 0.952732 0.408783
0.000000 0.000000 0.087789
0.087789 0.000000 0.087789
0.360741 0.006273 0.087789
0.517862 0.009109 0.087789
0.686758 0.008230 0.122116
0.889071 0.009064 0.176415
0.138877 0.226977 0.235065
0.246404 0.235182 0.239755
0.406517 0.246658 0.236847
0.558076 0.258686 0.238023
0.711273 0.273835 0.242537
0.892790 0.303530 0.258327
0.173482 0.397572 0.262236
0.288696 0.403226 0.265720
0.452384 0.407479 0.284189
0.578113 0.402561 0.262302
0.720198 0.410892 0.261955
0.897456 0.439146 0.277677
0.225985 0.556308 0.289118
0.335457 0.560763 0.298997
0.467716 0.561976 0.313616
0.630387 0.566273 0.337483
0.763227 0.563479 0.296323
0.925063 0.592701 0.314220
0.283612 0.718942 0.329469
0.387425 0.721998 0.338882
0.505699 0.722748 0.345144
0.647717 0.724585 0.371531
0.802724 0.725922 0.394777
0.977332 0.751453 0.360590
0.397677 0.945421 0.420179
0.493119 0.946486 0.425355
0.599102 0.947443 0.429191
0.726298 0.949106 0.442944
0.867233 0.951525 0.470409
1.013041 0.953381 0.501340
0.002525 0.001739 0.313466
0.089608 0.002695 0.313717
0.302740 0.002171 0.322182
0.552854 0.000486 0.345690
0.706282 0.003208 0.318543
0.902003 0.005655 0.335954
0.136180 0.231675 0.396827
0.256149 0.250873 0.400839
0.399656 0.249960 0.402047
0.573042 0.249592 0.387492
0.721675 0.267962 0.377360
0.900707 0.300484 0.388701
0.216555 0.393429 0.408044
0.312483 0.401082 0.411724
0.427303 0.412978 0.414729
0.573920 0.421534 0.411848
0.723490 0.429633 0.409155
0.900016 0.444666 0.409057
0.233863 0.555480 0.440493
0.332884 0.562104 0.440258
0.461971 0.570761 0.435844
0.614188 0.571865 0.451943
0.750719 0.577496 0.439267
0.917014 0.600147 0.442383
0.279832 0.721414 0.457406
0.380658 0.724692 0.460125
0.504988 0.729726 0.464624
0.643121 0.731684 0.483816
0.792204 0.730588 0.503291
0.965176 0.757845 0.484314
0.393731 0.947486 0.528601
0.490295 0.948749 0.532924
0.598162 0.950413 0.535054
0.723112 0.952564 0.546157
0.863220 0.955072 0.571895
1.007338 0.955297 0.600362
0.004095 0.002820 0.486968
0.091886 0.002825 0.487169
0.274954 0.010721 0.493177
0.473342 0.004079 0.514360
0.716620 0.000000 0.540887
0.919905 0.001108 0.537457
0.144005 0.239943 0.550852
0.276717 0.270785 0.560648
0.398962 0.271545 0.553765
0.544386 0.271807 0.553653
0.736830 0.258908 0.555112
0.918606 0.291876 0.553273
0.208216 0.392452 0.561178
0.311873 0.405821 0.566183
0.435867 0.428461 0.571294
0.568376 0.420472 0.567264
0.740471 0.421005 0.563739
0.915293 0.440045 0.561883
0.284629 0.550266 0.569940
0.378515 0.555942 0.572802
0.479234 0.567811 0.576945
0.592021 0.579900 0.579187
0.737774 0.586902 0.575421
0.909551 0.594085 0.567643
0.307941 0.715058 0.619302
0.402039 0.719943 0.620281
0.503766 0.731175 0.614489
0.628272 0.738814 0.600374
0.776436 0.737848 0.620436
0.947436 0.761281 0.612598
0.392016 0.949619 0.667265
0.487206 0.951286 0.668697
0.593516 0.954640 0.665472
0.708062 0.955750 0.652739
0.852468 0.959236 0.673883
1.000519 0.957956 0.702217
0.005507 0.003794 0.651886
0.093298 0.003794 0.651936
0.280778 0.012568 0.657870
0.465222 0.012693 0.672779
0.630586 0.005744 0.690326
0.902115 0.000727 0.748014
0.154623 0.249258 0.705400
0.285356 0.278895 0.713261
0.410452 0.287098 0.713471
0.544864 0.293387 0.707018
0.690037 0.298766 0.706953
0.923837 0.289460 0.743613
0.211230 0.406397 0.724480
0.322252 0.421986 0.729726
0.458939 0.451705 0.738867
0.575462 0.445091 0.723462
0.707454 0.438158 0.716051
0.928639 0.432547 0.746003
0.286664 0.554909 0.723285
0.383808 0.563566 0.726445
0.492623 0.583949 0.736798
0.605766 0.598982 0.743014
0.730976 0.586090 0.730687
0.930709 0.586406 0.742275
0.355304 0.709850 0.734321
0.447294 0.713795 0.735968
0.545160 0.723009 0.739455
0.645850 0.734748 0.743518
0.756832 0.749107 0.746573
0.923290 0.755491 0.738598
0.417484 0.944096 0.828532
0.509534 0.946395 0.828515
0.605681 0.952406 0.824222
0.704850 0.959823 0.809329
0.827075 0.964109 0.784027
0.990634 0.964221 0.814751
0.007415 0.005108 0.843899
0.092834 0.005169 0.843277
0.321362 0.015089 0.851095
0.495628 0.019605 0.864159
0.652335 0.014397 0.874999
0.814259 0.007444 0.890529
0.178063 0.271805 0.885062
0.297610 0.291181 0.888808
0.427536 0.303470 0.890618
0.570894 0.320484 0.891850
0.709395 0.330606 0.883697
0.864092 0.342471 0.885886
0.228414 0.428600 0.902922
0.335820 0.439297 0.905167
0.460175 0.452701 0.907290
0.598886 0.467835 0.907031
0.728493 0.467327 0.893113
0.874990 0.469046 0.890591
0.310853 0.594443 0.920049
0.410151 0.603154 0.922416
0.521017 0.620046 0.929480
0.626244 0.619749 0.930471
0.756468 0.619438 0.913504
0.890674 0.605300 0.898763
0.386012 0.739033 0.904602
0.478459 0.743501 0.906137
0.576531 0.753763 0.911331
0.677670 0.768028 0.923510
0.783975 0.779664 0.939579
0.914905 0.756522 0.913421
0.454632 0.901624 0.930391
0.544733 0.903687 0.930901
0.638350 0.909131 0.932535
0.734462 0.916760 0.935156
0.834518 0.929083 0.940045
0.957625 0.950381 0.943782
